;FLAVOR:Marlin
;TIME:7817
;Filament used: 3.35692m
;Layer height: 0.2
;MINX:143.723
;MINY:160.521
;MINZ:0.2
;MAXX:206.277
;MAXY:189.479
;MAXZ:93.6
;TARGET_MACHINE.NAME:VORON2 350
;POSTPROCESSED
;  [CreateThumbnail]
;  [InsertAtLayerChange]
;  [CreateThumbnail]
;Post-Processed by AutoTowersGenerator
;AutoTowersGenerator: Post-processing a TempTower
;AutoTowersGenerator: Base height = 1.0 mm
;AutoTowersGenerator: Section height = 8.4 mm
;AutoTowersGenerator: Initial printed layer height = 0.2 mm
;AutoTowersGenerator: Printed layer height = 0.2 mm
;AutoTowersGenerator: Starting temperature = 270.0%
;AutoTowersGenerator: Temperature change = -5.0%
;AutoTowersGenerator: Enable LCD messages = True
;Generated with Cura_SteamEngine 5.8.0


; Pre-Processed for Cancel-Object support by preprocess_cancellation v0.2.0
; 1 known objects
EXCLUDE_OBJECT_DEFINE NAME=AutoTowersGenerator CENTER=171.729,174.404 POLYGON=[[151.792,168.596],[151.792,181.404],[198.208,181.404],[198.208,168.596]]
M82 ;absolute extrusion mode
;Nozzle diameter = 0.4
;Filament type = ABS
;Filament name = ABS+ White
;Filament weight = [8.8817673828125]
; M190 S100
; M109 S250
PRINT_START BED_TEMP=100 EXTRUDER_TEMP=250
M141 S40
G92 E0
G92 E0
G1 F1800 E-0.75
;LAYER_COUNT:467
TIMELAPSE_TAKE_FRAME
;LAYER:0
M107
G1 F600 Z0.4
G0 F7200 X146.436 Y162.471 Z0.4
;TYPE:SKIRT
G1 F600 Z0.2
G1 F720 E0
G1 F1800 X147.194 Y161.884 E0.03587
G1 X148.196 Y161.314 E0.07901
G1 X149.215 Y160.909 E0.12004
G1 X150.217 Y160.652 E0.15874
G1 X150.801 Y160.569 E0.18081
G1 X198.408 Y160.521 E1.96216
G1 X199.929 Y160.69 E2.01942
G1 X200.725 Y160.889 E2.05012
G1 X201.509 Y161.185 E2.08148
G1 X202.784 Y161.88 E2.13581
G1 X203.585 Y162.496 E2.17362
G1 X204.337 Y163.246 E2.21336
G1 X204.924 Y164.004 E2.24924
G1 X205.435 Y164.888 E2.28744
G1 X205.913 Y166.073 E2.33525
G1 X206.141 Y166.967 E2.36977
G1 X206.239 Y167.665 E2.39615
G1 X206.277 Y181.708 E2.92161
G1 X206.064 Y183.371 E2.98434
G1 X205.884 Y184.006 E3.00904
G1 X205.428 Y185.11 E3.05373
G1 X204.779 Y186.189 E3.10085
G1 X204.139 Y186.974 E3.13874
G1 X203.692 Y187.42 E3.16237
G1 X202.575 Y188.268 E3.21485
G1 X201.924 Y188.629 E3.2427
G1 X200.867 Y189.064 E3.28547
G1 X199.952 Y189.313 E3.32095
G1 X199.602 Y189.377 E3.33426
G1 X198.408 Y189.479 E3.3791
G1 X150.847 Y189.425 E5.15872
G1 X149.981 Y189.29 E5.19152
G1 X149.142 Y189.068 E5.22399
G1 X148.451 Y188.8 E5.25173
G1 X147.195 Y188.106 E5.30542
G1 X146.363 Y187.459 E5.34486
G1 X145.667 Y186.76 E5.38177
G1 X145.08 Y186.002 E5.41764
G1 X144.564 Y185.11 E5.4562
G1 X144.087 Y183.927 E5.50392
G1 X143.859 Y183.033 E5.53845
G1 X143.761 Y182.335 E5.56482
G1 X143.723 Y168.292 E6.09028
G1 X143.934 Y166.641 E6.15256
G1 X144.128 Y165.946 E6.17956
G1 X144.396 Y165.255 E6.20729
G1 X145.09 Y163.999 E6.26098
G1 X145.737 Y163.167 E6.30042
G1 X146.436 Y162.471 E6.33733
G0 F7200 X146.712 Y162.827
G1 F1800 X147.47 Y162.24 E6.3732
G1 X148.364 Y161.732 E6.41168
G1 X149.328 Y161.345 E6.45055
G1 X150.28 Y161.098 E6.48735
G1 X150.864 Y161.015 E6.50942
G1 X198.408 Y160.971 E8.2884
G1 X199.879 Y161.137 E8.34379
G1 X200.568 Y161.311 E8.37038
G1 X201.295 Y161.581 E8.3994
G1 X202.511 Y162.238 E8.45112
G1 X203.268 Y162.816 E8.48676
G1 X203.981 Y163.522 E8.5243
G1 X204.568 Y164.28 E8.56017
G1 X205.045 Y165.112 E8.59606
G1 X205.477 Y166.185 E8.63934
G1 X205.695 Y167.03 E8.67199
G1 X205.793 Y167.728 E8.69837
G1 X205.827 Y181.709 E9.2215
G1 X205.631 Y183.248 E9.27956
G1 X205.451 Y183.883 E9.30425
G1 X205.042 Y184.879 E9.34454
G1 X204.43 Y185.905 E9.38924
G1 X203.821 Y186.655 E9.42539
G1 X203.374 Y187.101 E9.44902
G1 X202.355 Y187.875 E9.4969
G1 X201.751 Y188.213 E9.5228
G1 X200.748 Y188.63 E9.56344
G1 X199.871 Y188.87 E9.59746
G1 X199.521 Y188.934 E9.61078
G1 X198.408 Y189.029 E9.65257
G1 X150.916 Y188.98 E11.42961
G1 X150.05 Y188.845 E11.46241
G1 X149.305 Y188.648 E11.49124
G1 X148.614 Y188.38 E11.51898
G1 X147.47 Y187.75 E11.56784
G1 X146.681 Y187.141 E11.60514
G1 X146.023 Y186.484 E11.63993
G1 X145.436 Y185.726 E11.6758
G1 X144.954 Y184.886 E11.71204
G1 X144.523 Y183.815 E11.75524
G1 X144.305 Y182.97 E11.78789
G1 X144.207 Y182.272 E11.81426
G1 X144.173 Y168.291 E12.3374
G1 X144.368 Y166.761 E12.39511
G1 X144.548 Y166.109 E12.42042
G1 X144.816 Y165.418 E12.44816
G1 X145.446 Y164.274 E12.49702
G1 X146.055 Y163.485 E12.53432
G1 X146.712 Y162.827 E12.56911
G0 F7200 X146.988 Y163.183
G1 F1800 X147.746 Y162.596 E12.60498
G1 X148.533 Y162.149 E12.63885
G1 X149.442 Y161.78 E12.67556
G1 X150.343 Y161.544 E12.71041
G1 X150.927 Y161.461 E12.73248
G1 X198.408 Y161.421 E14.50911
G1 X199.771 Y161.574 E14.56043
G1 X200.411 Y161.733 E14.5851
G1 X201.138 Y162.003 E14.61412
G1 X202.239 Y162.597 E14.66093
G1 X202.951 Y163.136 E14.69435
G1 X203.664 Y163.842 E14.73189
G1 X204.178 Y164.504 E14.76325
G1 X204.655 Y165.336 E14.79914
G1 X205.042 Y166.298 E14.83793
G1 X205.249 Y167.093 E14.86867
G1 X205.347 Y167.791 E14.89505
G1 X205.377 Y181.71 E15.41586
G1 X205.185 Y183.19 E15.47171
G1 X205.034 Y183.714 E15.49211
G1 X204.655 Y184.65 E15.5299
G1 X204.08 Y185.622 E15.57215
G1 X203.503 Y186.336 E15.6065
G1 X203.056 Y186.782 E15.63013
G1 X202.133 Y187.483 E15.6735
G1 X201.578 Y187.797 E15.69736
G1 X200.575 Y188.214 E15.738
G1 X199.79 Y188.427 E15.76844
G1 X199.44 Y188.491 E15.78175
G1 X198.408 Y188.579 E15.82051
G1 X150.985 Y188.535 E17.59496
G1 X150.119 Y188.4 E17.62776
G1 X149.468 Y188.228 E17.65295
G1 X148.777 Y187.96 E17.68069
G1 X147.744 Y187.393 E17.72478
G1 X146.998 Y186.821 E17.75995
G1 X146.379 Y186.208 E17.79255
G1 X145.792 Y185.45 E17.82842
G1 X145.345 Y184.664 E17.86226
G1 X144.958 Y183.702 E17.90106
G1 X144.751 Y182.907 E17.93179
G1 X144.653 Y182.209 E17.95817
G1 X144.623 Y168.29 E18.47899
G1 X144.802 Y166.88 E18.53217
G1 X144.968 Y166.272 E18.55575
G1 X145.236 Y165.581 E18.58348
G1 X145.803 Y164.548 E18.62757
G1 X146.375 Y163.802 E18.66275
G1 X146.988 Y163.183 E18.69535
G0 F7200 X147.308 Y163.5
G1 F1800 X147.97 Y162.986 E18.72671
G1 X148.702 Y162.566 E18.75828
G1 X149.611 Y162.197 E18.79499
G1 X150.406 Y161.99 E18.82573
G1 X150.99 Y161.907 E18.8478
G1 X198.408 Y161.871 E20.62207
G1 X199.72 Y162.021 E20.67149
G1 X200.257 Y162.156 E20.6922
G1 X200.924 Y162.399 E20.71877
G1 X202.025 Y162.993 E20.76558
G1 X202.634 Y163.456 E20.7942
G1 X203.347 Y164.162 E20.83175
G1 X203.821 Y164.778 E20.86083
G1 X204.238 Y165.506 E20.89222
G1 X204.607 Y166.413 E20.92886
G1 X204.803 Y167.156 E20.95761
G1 X204.901 Y167.854 E20.98399
G1 X204.927 Y181.711 E21.50248
G1 X204.752 Y183.067 E21.55364
G1 X204.616 Y183.547 E21.57231
G1 X204.267 Y184.422 E21.60756
G1 X203.729 Y185.34 E21.64737
G1 X203.185 Y186.017 E21.67987
G1 X202.738 Y186.463 E21.7035
G1 X201.911 Y187.091 E21.74235
G1 X201.356 Y187.405 E21.76621
G1 X200.456 Y187.78 E21.80269
G1 X199.709 Y187.984 E21.83167
G1 X199.359 Y188.048 E21.84498
G1 X198.408 Y188.129 E21.8807
G1 X151.054 Y188.09 E23.65257
G1 X150.188 Y187.955 E23.68537
G1 X149.631 Y187.808 E23.70692
G1 X148.94 Y187.54 E23.73465
G1 X147.962 Y186.999 E23.77647
G1 X147.315 Y186.501 E23.80702
G1 X146.696 Y185.888 E23.83962
G1 X146.182 Y185.226 E23.87098
G1 X145.762 Y184.494 E23.90256
G1 X145.393 Y183.587 E23.9392
G1 X145.197 Y182.844 E23.96795
G1 X145.099 Y182.146 E23.99432
G1 X145.073 Y168.289 E24.51282
G1 X145.236 Y166.997 E24.56155
G1 X145.388 Y166.435 E24.58333
G1 X145.656 Y165.744 E24.61107
G1 X146.197 Y164.766 E24.65289
G1 X146.695 Y164.119 E24.68344
G1 X147.308 Y163.5 E24.71603
G0 F7200 X147.628 Y163.817
G1 F1800 X148.244 Y163.343 E24.74512
G1 X148.873 Y162.982 E24.77225
G1 X149.726 Y162.632 E24.80675
G1 X150.469 Y162.436 E24.8355
G1 X151.053 Y162.353 E24.85758
G1 X198.408 Y162.321 E26.62949
G1 X199.612 Y162.458 E26.67483
G1 X200.103 Y162.579 E26.69375
G1 X200.77 Y162.822 E26.72031
G1 X201.754 Y163.352 E26.76213
G1 X202.317 Y163.776 E26.78851
G1 X203.03 Y164.482 E26.82605
G1 X203.463 Y165.051 E26.85281
G1 X203.822 Y165.677 E26.87981
G1 X204.172 Y166.53 E26.91431
G1 X204.357 Y167.219 E26.941
G1 X204.455 Y167.917 E26.96738
G1 X204.477 Y181.712 E27.48355
G1 X204.318 Y182.947 E27.53014
G1 X204.197 Y183.383 E27.54708
G1 X203.878 Y184.196 E27.57975
G1 X203.378 Y185.059 E27.61707
G1 X202.867 Y185.698 E27.64769
G1 X202.42 Y186.144 E27.67132
G1 X201.689 Y186.699 E27.70566
G1 X201.134 Y187.013 E27.72952
G1 X200.337 Y187.346 E27.76184
G1 X199.628 Y187.541 E27.78935
G1 X199.278 Y187.605 E27.80267
G1 X198.408 Y187.679 E27.83534
G1 X151.123 Y187.645 E29.60463
G1 X150.257 Y187.51 E29.63743
G1 X149.792 Y187.388 E29.65541
G1 X149.156 Y187.145 E29.68089
G1 X148.235 Y186.641 E29.72017
G1 X147.632 Y186.181 E29.74855
G1 X147.013 Y185.568 E29.78115
G1 X146.539 Y184.952 E29.81023
G1 X146.178 Y184.323 E29.83737
G1 X145.828 Y183.47 E29.87187
G1 X145.643 Y182.781 E29.89856
G1 X145.545 Y182.083 E29.92494
G1 X145.523 Y168.288 E30.44111
G1 X145.671 Y167.112 E30.48546
G1 X145.808 Y166.596 E30.50544
G1 X146.051 Y165.96 E30.53092
G1 X146.555 Y165.039 E30.5702
G1 X147.015 Y164.436 E30.59858
G1 X147.628 Y163.817 E30.63118
G0 F7200 X147.948 Y164.134
G1 F1800 X148.517 Y163.701 E30.65793
G1 X149.046 Y163.398 E30.68074
G1 X149.843 Y163.067 E30.71303
G1 X150.532 Y162.882 E30.73973
G1 X151.116 Y162.799 E30.7618
G1 X198.408 Y162.771 E32.53135
G1 X199.504 Y162.895 E32.57262
G1 X199.995 Y163.016 E32.59155
G1 X200.558 Y163.219 E32.61394
G1 X201.485 Y163.713 E32.65324
G1 X202 Y164.096 E32.67726
G1 X202.713 Y164.802 E32.7148
G1 X203.103 Y165.321 E32.73909
G1 X203.406 Y165.85 E32.76191
G1 X203.737 Y166.647 E32.7942
G1 X203.922 Y167.336 E32.82089
G1 X204.005 Y167.918 E32.84289
G1 X204.027 Y181.713 E33.35907
G1 X203.884 Y182.829 E33.40117
G1 X203.777 Y183.221 E33.41637
G1 X203.487 Y183.972 E33.44649
G1 X203.025 Y184.779 E33.48129
G1 X202.549 Y185.379 E33.50994
G1 X202.102 Y185.825 E33.53357
G1 X201.418 Y186.34 E33.56561
G1 X200.959 Y186.598 E33.58531
G1 X200.216 Y186.912 E33.61549
G1 X199.547 Y187.098 E33.64147
G1 X199.197 Y187.162 E33.65479
G1 X198.408 Y187.229 E33.68442
G1 X151.192 Y187.2 E35.45113
G1 X150.326 Y187.065 E35.48392
G1 X149.95 Y186.967 E35.49846
G1 X149.372 Y186.75 E35.52156
G1 X148.451 Y186.246 E35.56085
G1 X147.949 Y185.861 E35.58452
G1 X147.33 Y185.248 E35.61712
G1 X146.897 Y184.679 E35.64387
G1 X146.594 Y184.15 E35.66668
G1 X146.263 Y183.353 E35.69897
G1 X146.078 Y182.664 E35.72567
G1 X145.995 Y182.082 E35.74767
G1 X145.973 Y168.287 E36.26384
G1 X146.117 Y167.169 E36.30602
G1 X146.229 Y166.754 E36.3221
G1 X146.446 Y166.176 E36.34521
G1 X146.95 Y165.255 E36.38449
G1 X147.335 Y164.753 E36.40816
G1 X147.948 Y164.134 E36.44076
G0 F7200 X148.268 Y164.451
G1 F1800 X148.787 Y164.061 E36.46505
G1 X149.22 Y163.813 E36.48372
G1 X149.96 Y163.502 E36.51376
G1 X150.649 Y163.317 E36.54045
G1 X151.116 Y163.249 E36.55811
G1 X198.408 Y163.221 E38.32767
G1 X199.452 Y163.342 E38.36699
G1 X199.846 Y163.441 E38.38219
G1 X200.348 Y163.617 E38.4021
G1 X201.216 Y164.074 E38.4388
G1 X201.731 Y164.457 E38.46282
G1 X202.353 Y165.072 E38.49555
G1 X202.743 Y165.591 E38.51984
G1 X202.991 Y166.024 E38.53851
G1 X203.302 Y166.764 E38.56854
G1 X203.487 Y167.453 E38.59524
G1 X203.555 Y167.919 E38.61286
G1 X203.577 Y181.714 E39.12904
G1 X203.449 Y182.713 E39.16672
G1 X203.357 Y183.059 E39.18012
G1 X203.067 Y183.81 E39.21024
G1 X202.671 Y184.501 E39.24004
G1 X202.231 Y185.06 E39.26666
G1 X201.784 Y185.506 E39.29029
G1 X201.196 Y185.949 E39.31783
G1 X200.782 Y186.184 E39.33565
G1 X200.095 Y186.478 E39.36361
G1 X199.426 Y186.664 E39.38959
G1 X199.158 Y186.714 E39.39979
G1 X198.408 Y186.779 E39.42796
G1 X151.261 Y186.755 E41.19209
G1 X150.395 Y186.62 E41.22488
G1 X150.105 Y186.544 E41.2361
G1 X149.586 Y186.354 E41.25678
G1 X148.723 Y185.887 E41.2935
G1 X148.266 Y185.541 E41.31495
G1 X147.647 Y184.928 E41.34754
G1 X147.257 Y184.409 E41.37183
G1 X147.009 Y183.976 E41.39051
G1 X146.698 Y183.236 E41.42054
G1 X146.513 Y182.547 E41.44723
G1 X146.445 Y182.081 E41.46486
G1 X146.423 Y168.286 E41.98103
G1 X146.552 Y167.285 E42.0188
G1 X146.652 Y166.909 E42.03336
G1 X146.842 Y166.39 E42.05404
G1 X147.309 Y165.527 E42.09075
G1 X147.655 Y165.07 E42.1122
G1 X148.268 Y164.451 E42.1448
G0 F7200 X148.54 Y164.809
G1 F1800 X149.013 Y164.45 E42.16702
G1 X149.396 Y164.227 E42.1836
G1 X150.077 Y163.937 E42.2113
G1 X150.766 Y163.752 E42.23799
G1 X151.116 Y163.699 E42.25123
G1 X198.408 Y163.671 E44.02079
G1 X199.344 Y163.779 E44.05605
G1 X199.697 Y163.866 E44.06965
G1 X200.199 Y164.042 E44.08955
G1 X200.947 Y164.435 E44.12117
G1 X201.462 Y164.818 E44.14519
G1 X201.995 Y165.344 E44.17321
G1 X202.354 Y165.817 E44.19542
G1 X202.577 Y166.2 E44.21201
G1 X202.867 Y166.881 E44.2397
G1 X203.052 Y167.57 E44.2664
G1 X203.105 Y167.92 E44.27964
G1 X203.127 Y181.715 E44.79582
G1 X203.013 Y182.601 E44.82924
G1 X202.936 Y182.9 E44.8408
G1 X202.675 Y183.589 E44.86837
G1 X202.316 Y184.224 E44.89566
G1 X201.913 Y184.741 E44.92019
G1 X201.466 Y185.187 E44.94382
G1 X200.972 Y185.559 E44.96695
G1 X200.603 Y185.771 E44.98288
G1 X199.974 Y186.044 E45.00854
G1 X199.305 Y186.23 E45.03452
G1 X199.078 Y186.271 E45.04315
G1 X198.408 Y186.329 E45.06831
G1 X151.33 Y186.31 E46.82986
G1 X150.464 Y186.175 E46.86266
G1 X150.26 Y186.121 E46.87055
G1 X149.741 Y185.931 E46.89123
G1 X148.995 Y185.528 E46.92296
G1 X148.538 Y185.182 E46.94441
G1 X148.005 Y184.656 E46.97243
G1 X147.646 Y184.183 E46.99464
G1 X147.423 Y183.8 E47.01123
G1 X147.133 Y183.119 E47.03892
G1 X146.948 Y182.43 E47.06562
G1 X146.895 Y182.08 E47.07886
G1 X146.873 Y168.285 E47.59504
G1 X146.987 Y167.399 E47.62847
G1 X147.075 Y167.064 E47.64143
G1 X147.265 Y166.545 E47.66211
G1 X147.668 Y165.799 E47.69383
G1 X148.014 Y165.342 E47.71528
G1 X148.54 Y164.809 E47.7433
G0 F7200 X148.814 Y165.166
G1 F1800 X149.243 Y164.837 E47.76353
G1 X149.575 Y164.64 E47.77797
G1 X150.194 Y164.372 E47.80321
G1 X150.883 Y164.187 E47.82991
G1 X151.179 Y164.145 E47.84109
G1 X198.408 Y164.121 E49.60829
G1 X199.236 Y164.216 E49.63948
G1 X199.589 Y164.303 E49.65308
G1 X200.048 Y164.466 E49.67131
G1 X200.736 Y164.832 E49.70047
G1 X201.148 Y165.14 E49.71971
G1 X201.638 Y165.618 E49.74533
G1 X201.967 Y166.047 E49.76556
G1 X202.164 Y166.379 E49.78
G1 X202.432 Y166.998 E49.80524
G1 X202.617 Y167.687 E49.83193
G1 X202.659 Y167.983 E49.84312
G1 X202.677 Y181.716 E50.35698
G1 X202.577 Y182.489 E50.38614
G1 X202.5 Y182.788 E50.3977
G1 X202.282 Y183.37 E50.42095
G1 X201.96 Y183.949 E50.44574
G1 X201.595 Y184.422 E50.4681
G1 X201.148 Y184.868 E50.49172
G1 X200.745 Y185.17 E50.51057
G1 X200.421 Y185.359 E50.5246
G1 X199.853 Y185.61 E50.54784
G1 X199.184 Y185.796 E50.57382
G1 X199.002 Y185.827 E50.58073
G1 X198.408 Y185.879 E50.60304
G1 X151.399 Y185.865 E52.36201
G1 X150.533 Y185.73 E52.3948
G1 X150.411 Y185.697 E52.39953
G1 X149.952 Y185.534 E52.41775
G1 X149.264 Y185.168 E52.44691
G1 X148.852 Y184.86 E52.46616
G1 X148.362 Y184.382 E52.49178
G1 X148.033 Y183.953 E52.512
G1 X147.836 Y183.621 E52.52645
G1 X147.568 Y183.002 E52.55169
G1 X147.383 Y182.313 E52.57838
G1 X147.341 Y182.017 E52.58957
G1 X147.323 Y168.284 E53.10343
G1 X147.423 Y167.511 E53.13259
G1 X147.499 Y167.215 E53.14403
G1 X147.662 Y166.756 E53.16225
G1 X148.028 Y166.068 E53.19141
G1 X148.336 Y165.656 E53.21066
G1 X148.814 Y165.166 E53.23627
G0 F7200 X149.09 Y165.522
G1 F1800 X149.477 Y165.222 E53.25459
G1 X149.757 Y165.052 E53.26685
G1 X150.313 Y164.806 E53.2896
G1 X150.946 Y164.633 E53.31415
G1 X151.242 Y164.591 E53.32534
G1 X198.408 Y164.571 E55.09018
G1 X199.183 Y164.663 E55.11938
G1 X199.438 Y164.727 E55.12922
G1 X199.897 Y164.89 E55.14745
G1 X200.469 Y165.194 E55.17169
G1 X200.836 Y165.464 E55.18873
G1 X201.282 Y165.894 E55.21191
G1 X201.582 Y166.281 E55.23024
G1 X201.752 Y166.561 E55.24249
G1 X201.998 Y167.117 E55.26524
G1 X202.171 Y167.75 E55.2898
G1 X202.213 Y168.046 E55.30098
G1 X202.227 Y181.716 E55.81248
G1 X202.141 Y182.379 E55.8375
G1 X202.077 Y182.634 E55.84734
G1 X201.887 Y183.154 E55.86805
G1 X201.602 Y183.676 E55.89031
G1 X201.277 Y184.103 E55.91038
G1 X200.83 Y184.549 E55.93401
G1 X200.515 Y184.783 E55.94869
G1 X200.239 Y184.947 E55.96071
G1 X199.671 Y185.198 E55.98394
G1 X199.103 Y185.353 E56.00597
G1 X198.961 Y185.379 E56.01137
