;FLAVOR:Marlin
;TIME:6454
;Filament used: 8.83955m
;Layer height: 0.2
;MINX:157.127
;MINY:93.219
;MINZ:0.2
;MAXX:192.875
;MAXY:256.759
;MAXZ:29.6
;TARGET_MACHINE.NAME:VORON2 350
;POSTPROCESSED
;  [CreateThumbnail]
;  [CreateThumbnail]
;  [InsertAtLayerChange]
;Generated with Cura_SteamEngine 5.8.0
;
;

;
;



; Pre-Processed for Cancel-Object support by preprocess_cancellation v0.2.0
; 1 known objects
EXCLUDE_OBJECT_DEFINE NAME=BOOM_MOUNT_R_STL CENTER=174.446,179.763 POLYGON=[[165.2,101.292],[165.2,248.705],[184.8,248.705],[184.8,101.292]]
M82 ;absolute extrusion mode
;Nozzle diameter = 0.4
;Filament type = ABS
;Filament name = ABS+ Black
;Filament weight = [23.387757421875]
; M190 S100
; M109 S240
PRINT_START BED_TEMP=100 EXTRUDER_TEMP=240
M141 S40
G92 E0
G92 E0
G1 F1800 E-0.75
;LAYER_COUNT:147
TIMELAPSE_TAKE_FRAME
;LAYER:0
M107
G1 F600 Z0.4
G0 F7200 X158.555 Y96.952 Z0.4
;TYPE:SKIRT
G1 F600 Z0.2
G1 F720 E0
G1 F1800 X159.009 Y96.366 E0.02774
G1 X160.234 Y95.191 E0.09125
G1 X160.985 Y94.678 E0.12528
G1 X161.685 Y94.311 E0.15486
G1 X162.612 Y93.951 E0.19207
G1 X163.547 Y93.714 E0.22816
G1 X164.86 Y93.561 E0.27762
G1 X184.968 Y93.219 E1.03012
G1 X186.585 Y93.4 E1.091
G1 X187.716 Y93.715 E1.13493
G1 X188.375 Y93.993 E1.1617
G1 X189.029 Y94.353 E1.18963
G1 X190.222 Y95.236 E1.24517
G1 X191.102 Y96.141 E1.2924
G1 X191.613 Y96.847 E1.32501
G1 X192.141 Y97.828 E1.3667
G1 X192.553 Y98.93 E1.41072
G1 X192.761 Y99.855 E1.44619
G1 X192.875 Y101.09 E1.4926
G1 X192.821 Y249.655 E7.05155
G1 X192.676 Y250.568 E7.08615
G1 X192.47 Y251.323 E7.11543
G1 X191.993 Y252.471 E7.16194
G1 X191.409 Y253.453 E7.20469
G1 X191.041 Y253.931 E7.22727
G1 X189.856 Y255.08 E7.28903
G1 X188.956 Y255.701 E7.32994
G1 X188.339 Y256.017 E7.35588
G1 X187.288 Y256.422 E7.39803
G1 X185.958 Y256.719 E7.44902
G1 X185.567 Y256.759 E7.46372
G1 X164.243 Y256.446 E8.2617
G1 X163.421 Y256.316 E8.29284
G1 X162.275 Y255.984 E8.33749
G1 X161.355 Y255.568 E8.37527
G1 X160.556 Y255.083 E8.41024
G1 X159.379 Y254.101 E8.4676
G1 X158.636 Y253.236 E8.51026
G1 X158.28 Y252.685 E8.53481
G1 X157.778 Y251.691 E8.57648
G1 X157.337 Y250.388 E8.62795
G1 X157.235 Y249.867 E8.64781
G1 X157.127 Y248.665 E8.69297
G1 X157.179 Y100.691 E14.22981
G1 X157.323 Y99.781 E14.26428
G1 X157.509 Y99.083 E14.29131
G1 X157.971 Y97.942 E14.33737
G1 X158.555 Y96.952 E14.38038
G0 F7200 X158.911 Y97.228
G1 F1800 X159.365 Y96.642 E14.40812
G1 X160.489 Y95.562 E14.46645
G1 X161.194 Y95.077 E14.49846
G1 X161.894 Y94.71 E14.52804
G1 X162.774 Y94.371 E14.56332
G1 X163.6 Y94.161 E14.59521
G1 X164.868 Y94.011 E14.64299
G1 X184.976 Y93.669 E15.39549
G1 X186.466 Y93.834 E15.45159
G1 X187.542 Y94.13 E15.49334
G1 X188.16 Y94.389 E15.51842
G1 X188.761 Y94.715 E15.544
G1 X189.954 Y95.598 E15.59954
G1 X190.737 Y96.405 E15.64161
G1 X191.248 Y97.111 E15.67422
G1 X191.719 Y97.986 E15.7114
G1 X192.131 Y99.088 E15.75542
G1 X192.313 Y99.897 E15.78645
G1 X192.425 Y101.09 E15.83129
G1 X192.376 Y249.586 E21.38766
G1 X192.241 Y250.452 E21.42045
G1 X192.054 Y251.152 E21.44757
G1 X191.606 Y252.242 E21.49166
G1 X191.052 Y253.178 E21.53236
G1 X190.684 Y253.656 E21.55493
G1 X189.544 Y254.756 E21.61421
G1 X188.749 Y255.301 E21.65027
G1 X188.177 Y255.597 E21.67437
G1 X187.126 Y256.002 E21.71652
G1 X185.912 Y256.271 E21.76304
G1 X185.521 Y256.311 E21.77775
G1 X164.25 Y255.996 E22.57375
G1 X163.545 Y255.883 E22.60046
G1 X162.459 Y255.573 E22.64272
G1 X161.589 Y255.183 E22.6784
G1 X160.79 Y254.698 E22.71337
G1 X159.668 Y253.756 E22.76819
G1 X159.013 Y252.99 E22.8059
G1 X158.681 Y252.481 E22.82864
G1 X158.204 Y251.546 E22.86791
G1 X157.779 Y250.302 E22.9171
G1 X157.677 Y249.781 E22.93697
G1 X157.577 Y248.665 E22.97889
G1 X157.624 Y100.76 E28.51315
G1 X157.759 Y99.894 E28.54595
G1 X157.926 Y99.252 E28.57077
G1 X158.388 Y98.111 E28.61683
G1 X158.911 Y97.228 E28.65523
G0 F7200 X159.267 Y97.504
G1 F1800 X159.721 Y96.918 E28.68297
G1 X160.8 Y95.887 E28.73881
G1 X161.403 Y95.476 E28.76611
G1 X162.103 Y95.109 E28.79569
G1 X162.887 Y94.807 E28.82712
G1 X163.654 Y94.608 E28.85677
G1 X164.876 Y94.461 E28.90283
G1 X184.984 Y94.119 E29.65533
G1 X186.348 Y94.268 E29.70667
G1 X187.369 Y94.545 E29.74626
G1 X187.945 Y94.785 E29.7696
G1 X188.546 Y95.111 E29.79519
G1 X189.685 Y95.959 E29.84832
G1 X190.372 Y96.669 E29.88529
G1 X190.883 Y97.375 E29.9179
G1 X191.297 Y98.144 E29.95058
G1 X191.709 Y99.246 E29.9946
G1 X191.873 Y99.993 E30.02322
G1 X191.975 Y101.09 E30.06444
G1 X191.931 Y249.517 E35.61823
G1 X191.796 Y250.383 E35.65103
G1 X191.637 Y250.983 E35.67425
G1 X191.218 Y252.014 E35.71589
G1 X190.695 Y252.903 E35.75449
G1 X190.327 Y253.381 E35.77706
G1 X189.288 Y254.386 E35.83115
G1 X188.542 Y254.901 E35.86507
G1 X187.97 Y255.197 E35.88916
G1 X187.028 Y255.563 E35.92698
G1 X185.866 Y255.823 E35.97153
G1 X185.475 Y255.863 E35.98624
G1 X164.257 Y255.546 E36.78026
G1 X163.669 Y255.45 E36.80255
G1 X162.583 Y255.14 E36.84481
G1 X161.823 Y254.798 E36.87599
G1 X161.024 Y254.313 E36.91097
G1 X160.009 Y253.462 E36.96053
G1 X159.389 Y252.743 E36.99605
G1 X159.081 Y252.275 E37.01701
G1 X158.629 Y251.399 E37.0539
G1 X158.221 Y250.216 E37.10072
G1 X158.119 Y249.695 E37.12059
G1 X158.027 Y248.665 E37.15928
G1 X158.069 Y100.829 E42.69096
G1 X158.204 Y99.963 E42.72375
G1 X158.361 Y99.367 E42.74681
G1 X158.776 Y98.339 E42.7883
G1 X159.267 Y97.504 E42.82454
G0 F7200 X159.623 Y97.78
G1 F1800 X160.077 Y97.194 E42.85228
G1 X161.055 Y96.258 E42.90293
G1 X161.612 Y95.875 E42.92822
G1 X162.312 Y95.508 E42.9578
G1 X163 Y95.243 E42.98539
G1 X163.767 Y95.044 E43.01503
G1 X164.884 Y94.911 E43.05713
G1 X184.937 Y94.567 E43.80757
G1 X186.232 Y94.703 E43.85629
G1 X187.197 Y94.961 E43.89367
G1 X187.73 Y95.181 E43.91525
G1 X188.331 Y95.507 E43.94083
G1 X189.363 Y96.274 E43.98894
G1 X190.007 Y96.933 E44.02342
G1 X190.518 Y97.639 E44.05603
G1 X190.9 Y98.356 E44.08643
G1 X191.269 Y99.342 E44.12582
G1 X191.433 Y100.089 E44.15444
G1 X191.525 Y101.09 E44.19205
G1 X191.486 Y249.448 E49.74326
G1 X191.351 Y250.314 E49.77605
G1 X191.22 Y250.815 E49.79543
G1 X190.829 Y251.787 E49.83463
G1 X190.338 Y252.628 E49.87107
G1 X189.97 Y253.106 E49.89364
G1 X189.031 Y254.017 E49.9426
G1 X188.335 Y254.501 E49.97432
G1 X187.763 Y254.797 E49.99842
G1 X186.929 Y255.124 E50.03194
G1 X185.82 Y255.375 E50.07448
G1 X185.429 Y255.415 E50.08919
G1 X164.327 Y255.101 E50.87886
G1 X163.793 Y255.017 E50.89909
G1 X162.707 Y254.707 E50.94135
G1 X162.054 Y254.412 E50.96816
G1 X161.312 Y253.967 E51.00053
G1 X160.349 Y253.167 E51.04738
G1 X159.764 Y252.494 E51.08074
G1 X159.481 Y252.069 E51.09985
G1 X159.029 Y251.193 E51.13673
G1 X158.663 Y250.13 E51.1788
G1 X158.561 Y249.609 E51.19867
G1 X158.477 Y248.665 E51.23413
G1 X158.514 Y100.898 E56.76322
G1 X158.649 Y100.032 E56.79602
G1 X158.779 Y99.534 E56.81527
G1 X159.165 Y98.566 E56.85427
G1 X159.623 Y97.78 E56.88831
G0 F7200 X159.979 Y98.056
G1 F1800 X160.433 Y97.47 E56.91604
G1 X161.31 Y96.629 E56.96151
G1 X161.867 Y96.246 E56.9868
G1 X162.475 Y95.927 E57.01249
G1 X163.113 Y95.679 E57.03811
G1 X163.88 Y95.48 E57.06776
G1 X164.892 Y95.361 E57.10588
G1 X184.892 Y95.015 E57.85435
G1 X186.117 Y95.138 E57.90042
G1 X187.027 Y95.378 E57.93563
G1 X187.515 Y95.577 E57.95535
G1 X188.116 Y95.903 E57.98093
G1 X189.041 Y96.589 E58.02402
G1 X189.685 Y97.248 E58.0585
G1 X190.152 Y97.901 E58.08854
G1 X190.479 Y98.516 E58.1146
G1 X190.829 Y99.438 E58.1515
G1 X190.993 Y100.185 E58.18012
G1 X191.075 Y101.09 E58.21412
G1 X191.041 Y249.379 E63.76275
G1 X190.906 Y250.245 E63.79554
G1 X190.802 Y250.649 E63.81115
G1 X190.44 Y251.561 E63.84787
G1 X189.981 Y252.353 E63.88212
G1 X189.613 Y252.831 E63.90469
G1 X188.773 Y253.649 E63.94856
G1 X188.127 Y254.102 E63.97809
G1 X187.599 Y254.378 E64.00038
G1 X186.765 Y254.705 E64.0339
G1 X185.774 Y254.927 E64.0719
G1 X185.383 Y254.967 E64.08661
G1 X164.397 Y254.656 E64.87194
G1 X163.863 Y254.572 E64.89217
G1 X162.891 Y254.296 E64.92997
G1 X162.283 Y254.024 E64.9549
G1 X161.6 Y253.621 E64.98457
G1 X160.637 Y252.821 E65.03141
G1 X160.137 Y252.243 E65.06001
G1 X159.88 Y251.861 E65.07724
G1 X159.454 Y251.045 E65.11168
G1 X159.105 Y250.044 E65.15135
G1 X159.003 Y249.523 E65.17121
G1 X158.927 Y248.665 E65.20344
G1 X158.959 Y100.967 E70.72996
G1 X159.094 Y100.101 E70.76275
G1 X159.214 Y99.649 E70.78025
G1 X159.555 Y98.791 E70.8148
G1 X159.979 Y98.056 E70.84655
G0 F7200 X160.337 Y98.329
G1 F1800 X160.746 Y97.793 E70.87177
G1 X161.567 Y96.999 E70.91451
G1 X162.078 Y96.644 E70.93779
G1 X162.64 Y96.346 E70.96159
G1 X163.226 Y96.115 E70.98516
G1 X163.993 Y95.916 E71.01481
G1 X164.9 Y95.811 E71.04898
G1 X184.9 Y95.465 E71.79744
G1 X186.004 Y95.574 E71.83895
G1 X186.859 Y95.796 E71.872
G1 X187.3 Y95.973 E71.88978
G1 X187.901 Y96.299 E71.91537
G1 X188.719 Y96.904 E71.95344
G1 X189.363 Y97.563 E71.98792
G1 X189.756 Y98.114 E72.01324
G1 X190.059 Y98.678 E72.0372
G1 X190.39 Y99.537 E72.07164
G1 X190.545 Y100.226 E72.09807
G1 X190.625 Y101.09 E72.13053
G1 X190.596 Y249.31 E77.67658
G1 X190.461 Y250.176 E77.70937
G1 X190.367 Y250.535 E77.72326
G1 X190.05 Y251.337 E77.75553
G1 X189.624 Y252.078 E77.78751
G1 X189.256 Y252.556 E77.81008
G1 X188.513 Y253.282 E77.84895
G1 X187.917 Y253.704 E77.87628
G1 X187.435 Y253.959 E77.89668
G1 X186.601 Y254.286 E77.9302
G1 X185.728 Y254.479 E77.96365
G1 X185.337 Y254.519 E77.97836
G1 X164.404 Y254.206 E78.76171
G1 X163.984 Y254.139 E78.77762
G1 X163.073 Y253.884 E78.81302
G1 X162.512 Y253.636 E78.83597
G1 X161.829 Y253.233 E78.86565
G1 X160.976 Y252.525 E78.90713
G1 X160.509 Y251.989 E78.93373
G1 X160.278 Y251.651 E78.94905
G1 X159.878 Y250.895 E78.98105
G1 X159.546 Y249.955 E79.01835
G1 X159.451 Y249.482 E79.0364
G1 X159.377 Y248.665 E79.0671
G1 X159.404 Y101.036 E84.59103
G1 X159.539 Y100.17 E84.62382
G1 X159.633 Y99.813 E84.63764
G1 X159.946 Y99.014 E84.66975
G1 X160.337 Y98.329 E84.69926
G0 F7200 X160.695 Y98.602
G1 F1800 X161.104 Y98.066 E84.72449
G1 X161.878 Y97.324 E84.76461
G1 X162.291 Y97.041 E84.78334
G1 X162.808 Y96.764 E84.80529
G1 X163.339 Y96.551 E84.82669
G1 X164.106 Y96.352 E84.85634
G1 X164.908 Y96.261 E84.88654
G1 X184.908 Y95.915 E85.63501
G1 X185.893 Y96.01 E85.67204
G1 X186.691 Y96.214 E85.70286
G1 X187.132 Y96.391 E85.72064
G1 X187.685 Y96.694 E85.74423
G1 X188.397 Y97.219 E85.77733
G1 X189.041 Y97.878 E85.81181
G1 X189.361 Y98.329 E85.8325
G1 X189.639 Y98.84 E85.85427
G1 X189.97 Y99.699 E85.88871
G1 X190.105 Y100.321 E85.91253
G1 X190.175 Y101.09 E85.94142
G1 X190.151 Y249.241 E91.48489
G1 X190.016 Y250.107 E91.51768
G1 X189.947 Y250.372 E91.52793
G1 X189.659 Y251.114 E91.55771
G1 X189.267 Y251.803 E91.58737
G1 X188.899 Y252.281 E91.60994
G1 X188.2 Y252.959 E91.64638
G1 X187.704 Y253.307 E91.66905
G1 X187.268 Y253.541 E91.68757
G1 X186.502 Y253.847 E91.71843
G1 X185.682 Y254.031 E91.74988
G1 X185.291 Y254.071 E91.76458
G1 X164.472 Y253.761 E92.54367
G1 X164.103 Y253.705 E92.55763
G1 X163.253 Y253.472 E92.59061
G1 X162.741 Y253.248 E92.61152
G1 X162.058 Y252.845 E92.64119
G1 X161.314 Y252.228 E92.67736
G1 X160.881 Y251.735 E92.70191
G1 X160.65 Y251.397 E92.71723
G1 X160.302 Y250.743 E92.74495
G1 X159.987 Y249.863 E92.77992
G1 X159.899 Y249.44 E92.79609
G1 X159.827 Y248.665 E92.82521
G1 X159.849 Y101.105 E98.34656
G1 X159.984 Y100.239 E98.37936
G1 X160.053 Y99.975 E98.38957
G1 X160.338 Y99.235 E98.41924
G1 X160.695 Y98.602 E98.44643
G0 F7200 X161.053 Y98.875
G1 F1800 X161.462 Y98.339 E98.47166
G1 X162.135 Y97.694 E98.50654
G1 X162.504 Y97.438 E98.52334
G1 X163.021 Y97.161 E98.54529
G1 X163.452 Y96.987 E98.56268
G1 X164.219 Y96.788 E98.59233
G1 X164.916 Y96.711 E98.61857
G1 X184.916 Y96.365 E99.36704
G1 X185.784 Y96.447 E99.39966
G1 X186.523 Y96.632 E99.42816
G1 X186.964 Y96.809 E99.44595
G1 X187.42 Y97.058 E99.46539
G1 X188.077 Y97.536 E99.49579
G1 X188.675 Y98.14 E99.52759
G1 X188.967 Y98.547 E99.54633
G1 X189.22 Y99.004 E99.56588
G1 X189.531 Y99.797 E99.59775
G1 X189.657 Y100.363 E99.61945
G1 X189.725 Y101.09 E99.64677
G1 X189.706 Y249.172 E105.18765
G1 X189.571 Y250.038 E105.22045
G1 X189.526 Y250.212 E105.22717
G1 X189.267 Y250.893 E105.25443
G1 X188.91 Y251.528 E105.28169
G1 X188.542 Y252.006 E105.30426
G1 X187.94 Y252.592 E105.3357
G1 X187.489 Y252.912 E105.35639
G1 X187.101 Y253.123 E105.37291
G1 X186.335 Y253.429 E105.40378
G1 X185.636 Y253.583 E105.43056
G1 X185.245 Y253.623 E105.44527
G1 X164.535 Y253.315 E106.22027
G1 X164.222 Y253.271 E106.2321
G1 X163.372 Y253.038 E106.26508
G1 X162.97 Y252.86 E106.28153
G1 X162.287 Y252.457 E106.3112
G1 X161.651 Y251.929 E106.34213
G1 X161.251 Y251.478 E106.36469
G1 X161.046 Y251.183 E106.37813
G1 X160.725 Y250.589 E106.40339
G1 X160.428 Y249.771 E106.43596
G1 X160.34 Y249.348 E106.45212
G1 X160.277 Y248.665 E106.47779
G1 X160.294 Y101.174 E111.99655
G1 X160.429 Y100.308 E112.02935
G1 X160.474 Y100.134 E112.03607
G1 X160.731 Y99.454 E112.06328
G1 X161.053 Y98.875 E112.08807
G0 F7200 X161.411 Y99.148
G1 F1800 X161.82 Y98.612 E112.11329
G1 X162.392 Y98.064 E112.14293
G1 X162.761 Y97.808 E112.15974
G1 X163.193 Y97.577 E112.17807
G1 X163.565 Y97.423 E112.19313
G1 X164.332 Y97.224 E112.22278
G1 X164.924 Y97.161 E112.24506
G1 X184.924 Y96.815 E112.99352
G1 X185.675 Y96.884 E113.02174
G1 X186.414 Y97.069 E113.05025
G1 X186.792 Y97.225 E113.06555
G1 X187.158 Y97.424 E113.08114
G1 X187.759 Y97.855 E113.10881
G1 X188.311 Y98.405 E113.13797
G1 X188.575 Y98.768 E113.15476
G1 X188.802 Y99.171 E113.17207
G1 X189.092 Y99.898 E113.20136
G1 X189.209 Y100.406 E113.22086
G1 X189.275 Y101.09 E113.24657
G1 X189.261 Y249.103 E118.78487
G1 X189.126 Y249.969 E118.81767
G1 X189.092 Y250.094 E118.82252
G1 X188.874 Y250.675 E118.84573
G1 X188.553 Y251.253 E118.87047
G1 X188.185 Y251.731 E118.89305
G1 X187.678 Y252.226 E118.91956
G1 X187.271 Y252.518 E118.9383
G1 X186.931 Y252.706 E118.95284
G1 X186.236 Y252.99 E118.98093
G1 X185.59 Y253.135 E119.00571
G1 X185.199 Y253.175 E119.02041
G1 X164.598 Y252.869 E119.79134
G1 X164.285 Y252.825 E119.80316
G1 X163.551 Y252.625 E119.83163
G1 X163.196 Y252.471 E119.84611
G1 X162.572 Y252.109 E119.8731
G1 X161.986 Y251.629 E119.90145
G1 X161.621 Y251.221 E119.92193
G1 X161.416 Y250.926 E119.93537
G1 X161.122 Y250.377 E119.95867
G1 X160.869 Y249.679 E119.98645
G1 X160.781 Y249.256 E120.00262
G1 X160.727 Y248.665 E120.02483
G1 X160.739 Y101.243 E125.54101
G1 X160.874 Y100.377 E125.57381
G1 X160.908 Y100.252 E125.57865
G1 X161.126 Y99.67 E125.60191
G1 X161.411 Y99.148 E125.62416
G0 F7200 X161.806 Y99.364
G1 F1800 X162.134 Y98.935 E125.64437
G1 X162.649 Y98.434 E125.67125
G1 X163.018 Y98.178 E125.68806
G1 X163.365 Y97.993 E125.70277
G1 X163.737 Y97.839 E125.71784
G1 X164.381 Y97.671 E125.74274
G1 X164.932 Y97.611 E125.76348
G1 X184.932 Y97.265 E126.51194
G1 X185.568 Y97.321 E126.53583
G1 X186.245 Y97.486 E126.56191
G1 X186.58 Y97.622 E126.57544
G1 X186.899 Y97.792 E126.58896
G1 X187.444 Y98.176 E126.61391
G1 X187.949 Y98.672 E126.64039
G1 X188.185 Y98.992 E126.65527
G1 X188.385 Y99.341 E126.67032
G1 X188.653 Y99.999 E126.69691
G1 X188.77 Y100.507 E126.71641
G1 X188.825 Y101.09 E126.73832
G1 X188.816 Y249.035 E132.27408
G1 X188.689 Y249.86 E132.30531
G1 X188.669 Y249.94 E132.3084
G1 X188.479 Y250.46 E132.32911
G1 X188.195 Y250.981 E132.35132
G1 X187.868 Y251.411 E132.37153
G1 X187.413 Y251.862 E132.3955
G1 X187.05 Y252.126 E132.41229
G1 X186.757 Y252.291 E132.42488
G1 X186.135 Y252.551 E132.4501
G1 X185.544 Y252.687 E132.47279
G1 X185.153 Y252.727 E132.4875
G1 X164.605 Y252.419 E133.25645
G1 X164.354 Y252.38 E133.26595
G1 X163.727 Y252.211 E133.29025
G1 X163.419 Y252.08 E133.30277
G1 X162.855 Y251.759 E133.32705
G1 X162.32 Y251.327 E133.35278
G1 X161.988 Y250.96 E133.3713
G1 X161.813 Y250.714 E133.3826
G1 X161.519 Y250.165 E133.4059
G1 X161.309 Y249.584 E133.42902
G1 X161.229 Y249.214 E133.44318
G1 X161.177 Y248.665 E133.46381
G1 X161.184 Y101.311 E138.97746
G1 X161.311 Y100.486 E139.00869
G1 X161.331 Y100.406 E139.01177
G1 X161.521 Y99.886 E139.03249
G1 X161.806 Y99.364 E139.05474
G0 F7200 X162.166 Y99.634
G1 F1800 X162.45 Y99.255 E139.07246
G1 X162.908 Y98.802 E139.09657
G1 X163.232 Y98.574 E139.11139
G1 X163.537 Y98.409 E139.12437
