;FLAVOR:Marlin
;TIME:6454
;Filament used: 8.83069m
;Layer height: 0.2
;MINX:157.125
;MINY:93.226
;MINZ:0.2
;MAXX:192.873
;MAXY:256.734
;MAXZ:29.6
;TARGET_MACHINE.NAME:VORON2 350
;POSTPROCESSED
;  [CreateThumbnail]
;  [CreateThumbnail]
;  [InsertAtLayerChange]
;Generated with Cura_SteamEngine 5.8.0
;
;

;
;



; Pre-Processed for Cancel-Object support by preprocess_cancellation v0.2.0
; 1 known objects
EXCLUDE_OBJECT_DEFINE NAME=BOOM_MOUNT_L_STL CENTER=175.662,179.859 POLYGON=[[165.2,101.292],[165.2,248.705],[184.801,248.705],[184.801,101.292]]
M82 ;absolute extrusion mode
;Nozzle diameter = 0.4
;Filament type = ABS
;Filament name = ABS+ Black
;Filament weight = [23.364322265625002]
; M190 S100
; M109 S240
PRINT_START BED_TEMP=100 EXTRUDER_TEMP=240
M141 S40
G92 E0
G92 E0
G1 F1800 E-0.75
;LAYER_COUNT:147
TIMELAPSE_TAKE_FRAME
;LAYER:0
M107
G1 F600 Z0.4
G0 F7200 X158.393 Y96.841 Z0.4
;TYPE:SKIRT
G1 F600 Z0.2
G1 F720 E0
G1 F1800 X158.917 Y96.122 E0.03329
G1 X159.461 Y95.521 E0.06362
G1 X160.169 Y94.897 E0.09893
G1 X161.085 Y94.274 E0.14039
G1 X161.719 Y93.95 E0.16703
G1 X162.372 Y93.688 E0.19335
G1 X164.191 Y93.263 E0.26325
G1 X164.645 Y93.226 E0.28029
G1 X185.893 Y93.626 E1.07548
G1 X186.837 Y93.802 E1.11142
G1 X188.106 Y94.228 E1.1615
G1 X189.092 Y94.733 E1.20295
G1 X189.503 Y95.004 E1.22137
G1 X190.449 Y95.782 E1.2672
G1 X191.056 Y96.432 E1.30048
G1 X191.764 Y97.445 E1.34673
G1 X192.241 Y98.401 E1.3867
G1 X192.663 Y99.666 E1.4366
G1 X192.765 Y100.187 E1.45647
G1 X192.873 Y101.389 E1.50162
G1 X192.826 Y249.294 E7.03588
G1 X192.667 Y250.32 E7.07473
G1 X192.484 Y250.999 E7.10104
G1 X192.073 Y252.032 E7.14264
G1 X191.65 Y252.794 E7.17525
G1 X191.01 Y253.662 E7.21561
G1 X190.147 Y254.545 E7.2618
G1 X189.221 Y255.245 E7.30524
G1 X188.409 Y255.694 E7.33996
G1 X187.438 Y256.084 E7.37911
G1 X186.229 Y256.382 E7.4257
G1 X185.55 Y256.466 E7.4513
G1 X164.237 Y256.734 E8.24885
G1 X163.617 Y256.647 E8.27228
G1 X162.772 Y256.439 E8.30484
G1 X161.6 Y255.989 E8.35181
G1 X160.787 Y255.54 E8.38656
G1 X160.194 Y255.12 E8.41375
G1 X159.386 Y254.403 E8.45417
G1 X158.828 Y253.77 E8.48575
G1 X158.266 Y252.964 E8.52251
G1 X157.986 Y252.448 E8.54448
G1 X157.455 Y251.092 E8.59897
G1 X157.24 Y250.154 E8.63498
G1 X157.125 Y248.91 E8.68173
G1 X157.182 Y100.376 E14.23952
G1 X157.395 Y99.118 E14.28726
G1 X157.508 Y98.724 E14.3026
G1 X157.868 Y97.809 E14.33939
G1 X158.393 Y96.841 E14.38059
G0 F7200 X158.789 Y97.056
G1 F1800 X159.251 Y96.424 E14.40989
G1 X159.795 Y95.823 E14.44022
G1 X160.423 Y95.268 E14.47158
G1 X161.291 Y94.674 E14.51093
G1 X161.887 Y94.368 E14.536
G1 X162.54 Y94.106 E14.56233
G1 X164.228 Y93.712 E14.62719
G1 X164.682 Y93.675 E14.64423
G1 X185.813 Y94.069 E15.43504
G1 X186.695 Y94.229 E15.46858
G1 X187.902 Y94.629 E15.51616
G1 X188.844 Y95.109 E15.55572
G1 X189.255 Y95.38 E15.57414
G1 X190.122 Y96.091 E15.6161
G1 X190.688 Y96.691 E15.64696
G1 X191.361 Y97.646 E15.69068
G1 X191.838 Y98.602 E15.73065
G1 X192.221 Y99.752 E15.77601
G1 X192.323 Y100.273 E15.79587
G1 X192.423 Y101.389 E15.8378
G1 X192.381 Y249.225 E21.36947
G1 X192.222 Y250.251 E21.40832
G1 X192.05 Y250.88 E21.43272
G1 X191.679 Y251.815 E21.47036
G1 X191.287 Y252.528 E21.50081
G1 X190.688 Y253.347 E21.53877
G1 X189.825 Y254.23 E21.58497
G1 X189.002 Y254.852 E21.62357
G1 X188.241 Y255.276 E21.65617
G1 X187.27 Y255.666 E21.69532
G1 X186.174 Y255.935 E21.73755
G1 X185.495 Y256.019 E21.76315
G1 X164.3 Y256.288 E22.55628
G1 X163.68 Y256.201 E22.57971
G1 X162.932 Y256.018 E22.60852
G1 X161.816 Y255.594 E22.65319
G1 X161.046 Y255.172 E22.68604
G1 X160.492 Y254.783 E22.71137
G1 X159.724 Y254.105 E22.74971
G1 X159.166 Y253.472 E22.78128
G1 X158.662 Y252.749 E22.81426
G1 X158.382 Y252.233 E22.83623
G1 X157.894 Y250.991 E22.88616
G1 X157.679 Y250.053 E22.92216
G1 X157.575 Y248.91 E22.96511
G1 X157.632 Y100.376 E28.5229
G1 X157.828 Y99.242 E28.56596
G1 X157.941 Y98.848 E28.5813
G1 X158.264 Y98.024 E28.61442
G1 X158.789 Y97.056 E28.65562
G0 F7200 X159.185 Y97.271
G1 F1800 X159.586 Y96.725 E28.68097
G1 X160.095 Y96.159 E28.70945
G1 X160.678 Y95.639 E28.73868
G1 X161.498 Y95.074 E28.77594
G1 X162.055 Y94.786 E28.79941
G1 X162.708 Y94.524 E28.82573
G1 X164.265 Y94.161 E28.88556
G1 X164.719 Y94.124 E28.9026
G1 X185.735 Y94.512 E29.6891
G1 X186.555 Y94.657 E29.72026
G1 X187.699 Y95.031 E29.7653
G1 X188.596 Y95.485 E29.80291
G1 X189.007 Y95.756 E29.82134
G1 X189.796 Y96.402 E29.85949
G1 X190.321 Y96.952 E29.88794
G1 X190.958 Y97.847 E29.92905
G1 X191.435 Y98.803 E29.96902
G1 X191.779 Y99.838 E30.00983
G1 X191.881 Y100.359 E30.0297
G1 X191.973 Y101.389 E30.06839
G1 X191.936 Y249.156 E35.59749
G1 X191.777 Y250.182 E35.63633
G1 X191.631 Y250.716 E35.65705
G1 X191.284 Y251.6 E35.69258
G1 X190.923 Y252.264 E35.72086
G1 X190.366 Y253.032 E35.75636
G1 X189.503 Y253.915 E35.80256
G1 X188.781 Y254.46 E35.83641
G1 X188.073 Y254.858 E35.8668
G1 X187.102 Y255.248 E35.90595
G1 X186.119 Y255.488 E35.94382
G1 X185.44 Y255.572 E35.96942
G1 X164.363 Y255.842 E36.75813
G1 X163.743 Y255.755 E36.78156
G1 X163.09 Y255.597 E36.8067
G1 X162.031 Y255.199 E36.84903
G1 X161.303 Y254.803 E36.88004
G1 X160.789 Y254.445 E36.90348
G1 X160.062 Y253.807 E36.93967
G1 X159.504 Y253.174 E36.97124
G1 X159.058 Y252.534 E37.00043
G1 X158.778 Y252.018 E37.0224
G1 X158.333 Y250.89 E37.06777
G1 X158.118 Y249.952 E37.10378
G1 X158.025 Y248.91 E37.14292
G1 X158.076 Y100.452 E42.69787
G1 X158.261 Y99.366 E42.73909
G1 X158.374 Y98.972 E42.75443
G1 X158.66 Y98.239 E42.78387
G1 X159.185 Y97.271 E42.82508
G0 F7200 X159.581 Y97.486
G1 F1800 X159.921 Y97.026 E42.84648
G1 X160.43 Y96.46 E42.87496
G1 X160.933 Y96.01 E42.90022
G1 X161.753 Y95.445 E42.93748
G1 X162.223 Y95.204 E42.95724
G1 X162.876 Y94.942 E42.98357
G1 X164.302 Y94.61 E43.03835
G1 X164.756 Y94.573 E43.0554
G1 X185.659 Y94.956 E43.83767
G1 X186.415 Y95.085 E43.86636
G1 X187.559 Y95.459 E43.9114
G1 X188.35 Y95.862 E43.94462
G1 X188.723 Y96.105 E43.96127
G1 X189.47 Y96.713 E43.99731
G1 X189.995 Y97.263 E44.02576
G1 X190.555 Y98.048 E44.06184
G1 X191.032 Y99.004 E44.10182
G1 X191.337 Y99.924 E44.13809
G1 X191.439 Y100.445 E44.15795
G1 X191.523 Y101.389 E44.19341
G1 X191.491 Y249.087 E49.71993
G1 X191.332 Y250.113 E49.75878
G1 X191.212 Y250.553 E49.77584
G1 X190.887 Y251.387 E49.80933
G1 X190.557 Y252.002 E49.83545
G1 X190.044 Y252.717 E49.86838
G1 X189.181 Y253.6 E49.91458
G1 X188.512 Y254.099 E49.9458
G1 X187.905 Y254.44 E49.97186
G1 X186.934 Y254.83 E50.01101
G1 X186.064 Y255.041 E50.04451
G1 X185.385 Y255.125 E50.07011
G1 X164.426 Y255.396 E50.85441
G1 X163.806 Y255.309 E50.87783
G1 X163.197 Y255.16 E50.90129
G1 X162.245 Y254.803 E50.93934
G1 X161.559 Y254.433 E50.9685
G1 X161.085 Y254.106 E50.99005
G1 X160.4 Y253.509 E51.02405
G1 X159.842 Y252.876 E51.05562
G1 X159.454 Y252.319 E51.08102
G1 X159.174 Y251.803 E51.10299
G1 X158.771 Y250.788 E51.14385
G1 X158.566 Y249.911 E51.17755
G1 X158.475 Y248.91 E51.21516
G1 X158.52 Y100.528 E56.76727
G1 X158.705 Y99.442 E56.80849
G1 X158.794 Y99.134 E56.82048
G1 X159.056 Y98.454 E56.84775
G1 X159.581 Y97.486 E56.88896
G0 F7200 X159.944 Y97.752
G1 F1800 X160.256 Y97.327 E56.90868
G1 X160.765 Y96.761 E56.93717
G1 X161.19 Y96.38 E56.95852
G1 X161.96 Y95.845 E56.99361
G1 X162.391 Y95.622 E57.01177
G1 X163.044 Y95.36 E57.03809
G1 X164.339 Y95.059 E57.08784
G1 X164.793 Y95.022 E57.10488
G1 X185.586 Y95.4 E57.88304
G1 X186.277 Y95.513 E57.90924
G1 X187.356 Y95.861 E57.95166
G1 X188.107 Y96.241 E57.98315
G1 X188.44 Y96.455 E57.99796
G1 X189.146 Y97.026 E58.03194
G1 X189.63 Y97.527 E58.058
G1 X190.153 Y98.251 E58.09142
G1 X190.605 Y99.147 E58.12897
G1 X190.895 Y100.01 E58.16304
G1 X190.997 Y100.531 E58.1829
G1 X191.073 Y101.389 E58.21513
G1 X191.041 Y249.087 E63.74165
G1 X190.897 Y249.997 E63.77612
G1 X190.792 Y250.391 E63.79138
G1 X190.49 Y251.174 E63.82278
G1 X190.16 Y251.789 E63.84889
G1 X189.721 Y252.404 E63.87717
G1 X188.91 Y253.241 E63.92078
G1 X188.29 Y253.708 E63.94982
G1 X187.735 Y254.023 E63.9737
G1 X186.827 Y254.393 E64.01039
G1 X186.009 Y254.594 E64.0419
G1 X185.33 Y254.678 E64.0675
G1 X164.489 Y254.95 E64.84739
G1 X163.869 Y254.863 E64.87082
G1 X163.353 Y254.738 E64.89068
G1 X162.457 Y254.406 E64.92644
G1 X161.815 Y254.063 E64.95367
G1 X161.341 Y253.736 E64.97522
G1 X160.738 Y253.211 E65.00514
G1 X160.18 Y252.578 E65.03671
G1 X159.85 Y252.104 E65.05832
G1 X159.57 Y251.588 E65.08029
G1 X159.19 Y250.623 E65.1191
G1 X159.014 Y249.869 E65.14807
G1 X158.925 Y248.91 E65.1841
G1 X158.964 Y100.602 E70.73344
G1 X159.138 Y99.565 E70.77279
G1 X159.215 Y99.293 E70.78336
G1 X159.452 Y98.667 E70.80841
G1 X159.944 Y97.752 E70.84728
G0 F7200 X160.308 Y98.017
G1 F1800 X160.591 Y97.628 E70.86528
G1 X161.1 Y97.062 E70.89377
G1 X161.489 Y96.716 E70.91325
G1 X162.168 Y96.244 E70.94419
G1 X162.559 Y96.04 E70.96069
G1 X163.212 Y95.778 E70.98702
G1 X164.376 Y95.508 E71.03173
G1 X164.83 Y95.471 E71.04877
G1 X185.517 Y95.845 E71.82296
G1 X186.141 Y95.942 E71.84659
G1 X187.153 Y96.263 E71.88631
G1 X187.904 Y96.643 E71.9178
G1 X188.158 Y96.806 E71.9291
G1 X188.822 Y97.339 E71.96096
G1 X189.306 Y97.84 E71.98702
G1 X189.752 Y98.455 E72.01545
G1 X190.179 Y99.292 E72.05061
G1 X190.454 Y100.099 E72.08251
G1 X190.549 Y100.572 E72.10056
G1 X190.623 Y101.389 E72.13126
G1 X190.596 Y249.018 E77.65519
G1 X190.461 Y249.884 E77.68798
G1 X190.371 Y250.231 E77.70139
G1 X190.093 Y250.961 E77.73062
G1 X189.763 Y251.576 E77.75674
G1 X189.397 Y252.092 E77.78041
G1 X188.637 Y252.883 E77.82145
G1 X188.066 Y253.318 E77.84831
G1 X187.563 Y253.607 E77.87002
G1 X186.718 Y253.956 E77.90423
G1 X185.954 Y254.147 E77.9337
G1 X185.275 Y254.231 E77.9593
G1 X164.552 Y254.504 E78.73477
G1 X163.932 Y254.417 E78.7582
G1 X163.461 Y254.301 E78.77635
G1 X162.668 Y254.009 E78.80797
G1 X162.069 Y253.691 E78.83334
G1 X161.635 Y253.395 E78.853
G1 X161.076 Y252.913 E78.88062
G1 X160.518 Y252.28 E78.91219
G1 X160.244 Y251.887 E78.93012
G1 X159.989 Y251.423 E78.94993
G1 X159.609 Y250.458 E78.98873
G1 X159.462 Y249.826 E79.01301
G1 X159.375 Y248.91 E79.04744
G1 X159.408 Y100.676 E84.59401
G1 X159.582 Y99.639 E84.63336
G1 X159.637 Y99.45 E84.64072
G1 X159.849 Y98.879 E84.66351
G1 X160.308 Y98.017 E84.70005
G0 F7200 X160.673 Y98.28
G1 F1800 X160.926 Y97.929 E84.71624
G1 X161.435 Y97.363 E84.74473
G1 X161.786 Y97.054 E84.76222
G1 X162.378 Y96.642 E84.78921
G1 X162.727 Y96.458 E84.80397
G1 X163.38 Y96.196 E84.8303
G1 X164.413 Y95.957 E84.86997
G1 X164.867 Y95.92 E84.88702
G1 X185.448 Y96.29 E85.65723
G1 X186.072 Y96.387 E85.68086
G1 X187.015 Y96.691 E85.71794
G1 X187.661 Y97.022 E85.7451
G1 X187.915 Y97.185 E85.75639
G1 X188.498 Y97.652 E85.78434
G1 X188.982 Y98.153 E85.81041
G1 X189.352 Y98.662 E85.83395
G1 X189.754 Y99.439 E85.86669
G1 X190.013 Y100.191 E85.89645
G1 X190.101 Y100.614 E85.91261
G1 X190.173 Y101.389 E85.94174
G1 X190.151 Y248.949 E91.46308
G1 X190.016 Y249.815 E91.49588
G1 X189.95 Y250.073 E91.50584
G1 X189.696 Y250.748 E91.53283
G1 X189.366 Y251.363 E91.55895
G1 X189.071 Y251.782 E91.57812
G1 X188.364 Y252.525 E91.6165
G1 X187.793 Y252.96 E91.64335
G1 X187.389 Y253.192 E91.66079
G1 X186.607 Y253.52 E91.69252
G1 X185.899 Y253.7 E91.71985
G1 X185.22 Y253.784 E91.74545
G1 X164.615 Y254.058 E92.51651
G1 X163.995 Y253.971 E92.53994
G1 X163.614 Y253.878 E92.55461
G1 X162.878 Y253.611 E92.58391
G1 X162.323 Y253.319 E92.60737
G1 X161.889 Y253.023 E92.62703
G1 X161.414 Y252.615 E92.65046
G1 X160.856 Y251.982 E92.68203
G1 X160.637 Y251.668 E92.69636
G1 X160.408 Y251.258 E92.71393
G1 X160.028 Y250.293 E92.75274
G1 X159.91 Y249.782 E92.77236
G1 X159.825 Y248.91 E92.80514
G1 X159.852 Y100.749 E98.34898
G1 X160.015 Y99.762 E98.38641
G1 X160.059 Y99.607 E98.39244
G1 X160.271 Y99.036 E98.41523
G1 X160.673 Y98.28 E98.44727
G0 F7200 X161.04 Y98.541
G1 F1800 X161.261 Y98.23 E98.46154
G1 X161.77 Y97.664 E98.49003
G1 X162.045 Y97.422 E98.50373
G1 X162.59 Y97.039 E98.52866
G1 X162.895 Y96.876 E98.5416
G1 X163.548 Y96.614 E98.56793
G1 X164.45 Y96.406 E98.60256
G1 X164.904 Y96.369 E98.61961
G1 X185.379 Y96.735 E99.38586
G1 X186.003 Y96.832 E99.40948
G1 X186.811 Y97.092 E99.44124
G1 X187.42 Y97.402 E99.46681
G1 X187.635 Y97.538 E99.47633
G1 X188.176 Y97.967 E99.50217
G1 X188.62 Y98.421 E99.52593
G1 X188.953 Y98.871 E99.54688
G1 X189.329 Y99.588 E99.57717
G1 X189.572 Y100.283 E99.60472
G1 X189.66 Y100.706 E99.62089
G1 X189.723 Y101.389 E99.64655
G1 X189.706 Y248.88 E105.16532
G1 X189.571 Y249.746 E105.19811
G1 X189.515 Y249.958 E105.20632
G1 X189.299 Y250.535 E105.22937
G1 X188.969 Y251.15 E105.25549
G1 X188.743 Y251.474 E105.27027
G1 X188.091 Y252.167 E105.30587
G1 X187.52 Y252.602 E105.33273
G1 X187.213 Y252.778 E105.34597
G1 X186.494 Y253.084 E105.37521
G1 X185.844 Y253.253 E105.40034
G1 X185.165 Y253.337 E105.42594
G1 X164.676 Y253.612 E106.19266
G1 X164.099 Y253.533 E106.21445
G1 X163.765 Y253.454 E106.22729
G1 X163.086 Y253.212 E106.25426
G1 X162.575 Y252.946 E106.27582
G1 X162.18 Y252.679 E106.29366
G1 X161.752 Y252.317 E106.31463
G1 X161.194 Y251.684 E106.34621
G1 X161.028 Y251.444 E106.35713
G1 X160.827 Y251.093 E106.37226
G1 X160.447 Y250.128 E106.41107
G1 X160.35 Y249.686 E106.428
G1 X160.275 Y248.91 E106.45717
G1 X160.296 Y100.821 E111.99831
G1 X160.449 Y99.881 E112.03395
G1 X160.482 Y99.761 E112.03861
G1 X160.669 Y99.246 E112.05911
G1 X161.04 Y98.541 E112.08892
G0 F7200 X161.408 Y98.799
G1 F1800 X161.596 Y98.531 E112.10117
G1 X162.105 Y97.965 E112.12965
G1 X162.306 Y97.789 E112.13965
G1 X162.806 Y97.434 E112.16259
G1 X163.066 Y97.292 E112.17368
G1 X163.651 Y97.052 E112.19734
G1 X164.487 Y96.855 E112.22947
G1 X164.941 Y96.818 E112.24652
G1 X185.31 Y97.18 E113.0088
G1 X185.934 Y97.277 E113.03243
G1 X186.607 Y97.493 E113.05887
G1 X187.216 Y97.803 E113.08444
G1 X187.391 Y97.916 E113.09224
G1 X187.854 Y98.282 E113.11432
G1 X188.298 Y98.736 E113.13808
G1 X188.556 Y99.083 E113.15426
G1 X188.905 Y99.738 E113.18203
G1 X189.131 Y100.375 E113.20732
G1 X189.219 Y100.798 E113.22349
G1 X189.273 Y101.389 E113.2457
G1 X189.261 Y248.811 E118.76188
G1 X189.126 Y249.677 E118.79468
G1 X189.092 Y249.803 E118.79956
G1 X188.902 Y250.322 E118.82024
G1 X188.572 Y250.937 E118.84636
G1 X188.376 Y251.213 E118.85902
G1 X187.818 Y251.809 E118.88957
G1 X187.247 Y252.244 E118.91643
G1 X187.034 Y252.365 E118.9256
G1 X186.378 Y252.649 E118.95234
G1 X185.789 Y252.806 E118.97515
G1 X185.11 Y252.89 E119.00075
G1 X164.737 Y253.166 E119.76313
G1 X164.16 Y253.087 E119.78492
G1 X163.913 Y253.029 E119.79442
G1 X163.292 Y252.812 E119.81903
G1 X162.825 Y252.572 E119.83868
G1 X162.471 Y252.335 E119.85462
G1 X162.043 Y251.973 E119.87559
G1 X161.533 Y251.388 E119.90463
G1 X161.419 Y251.22 E119.91223
G1 X161.218 Y250.869 E119.92736
G1 X160.887 Y250.032 E119.96104
G1 X160.79 Y249.59 E119.97797
G1 X160.725 Y248.91 E120.00353
G1 X160.74 Y100.893 E125.54198
G1 X160.885 Y99.993 E125.57609
G1 X160.905 Y99.915 E125.57911
G1 X161.092 Y99.4 E125.59961
G1 X161.408 Y98.799 E125.62501
G0 F7200 X161.78 Y99.053
G1 F1800 X161.931 Y98.832 E125.63503
G1 X162.44 Y98.266 E125.66351
G1 X162.568 Y98.155 E125.66985
G1 X163.022 Y97.829 E125.69077
G1 X163.282 Y97.687 E125.70185
G1 X163.757 Y97.489 E125.72111
G1 X164.524 Y97.304 E125.75063
G1 X164.978 Y97.267 E125.76767
G1 X185.241 Y97.625 E126.52598
G1 X185.865 Y97.722 E126.54961
G1 X186.404 Y97.895 E126.5708
G1 X186.976 Y98.184 E126.59477
G1 X187.114 Y98.271 E126.60088
G1 X187.532 Y98.597 E126.62071
G1 X187.976 Y99.051 E126.64447
G1 X188.16 Y99.297 E126.65597
G1 X188.482 Y99.891 E126.68125
G1 X188.691 Y100.47 E126.70428
G1 X188.771 Y100.84 E126.71845
G1 X188.823 Y101.389 E126.73908
G1 X188.816 Y248.743 E132.25272
G1 X188.689 Y249.568 E132.28396
G1 X188.669 Y249.648 E132.28704
G1 X188.479 Y250.167 E132.30772
G1 X188.205 Y250.676 E132.32935
G1 X188.009 Y250.952 E132.34202
G1 X187.491 Y251.5 E132.37023
G1 X187.02 Y251.855 E132.3923
G1 X186.852 Y251.953 E132.39958
G1 X186.259 Y252.215 E132.42384
G1 X185.734 Y252.359 E132.44421
G1 X185.055 Y252.443 E132.46981
G1 X164.798 Y252.72 E133.22785
G1 X164.221 Y252.641 E133.24964
G1 X164.02 Y252.592 E133.25738
G1 X163.496 Y252.411 E133.27813
