;FLAVOR:Marlin
;TIME:7820
;Filament used: 3.35623m
;Layer height: 0.2
;MINX:142.445
;MINY:120.035
;MINZ:0.2
;MAXX:204.999
;MAXY:148.993
;MAXZ:93.6
;TARGET_MACHINE.NAME:VORON2 350
;POSTPROCESSED
;  [CreateThumbnail]
;  [InsertAtLayerChange]
;  [CreateThumbnail]
;Post-Processed by AutoTowersGenerator
;AutoTowersGenerator: Post-processing a TempTower
;AutoTowersGenerator: Base height = 1.0 mm
;AutoTowersGenerator: Section height = 8.4 mm
;AutoTowersGenerator: Initial printed layer height = 0.2 mm
;AutoTowersGenerator: Printed layer height = 0.2 mm
;AutoTowersGenerator: Starting temperature = 270.0%
;AutoTowersGenerator: Temperature change = -5.0%
;AutoTowersGenerator: Enable LCD messages = True
;Generated with Cura_SteamEngine 5.8.0
;
;

;
;



; Pre-Processed for Cancel-Object support by preprocess_cancellation v0.2.0
; 1 known objects
EXCLUDE_OBJECT_DEFINE NAME=AutoTowersGenerator CENTER=170.613,133.933 POLYGON=[[150.512,128.108],[150.512,140.916],[196.928,140.916],[196.928,128.108]]
M82 ;absolute extrusion mode
;Nozzle diameter = 0.4
;Filament type = ABS
;Filament name = ABS+ White
;Filament weight = [8.8799583984375]
; M190 S100
; M109 S250
PRINT_START BED_TEMP=100 EXTRUDER_TEMP=250
M141 S40
G92 E0
G92 E0
G1 F1800 E-0.75
;LAYER_COUNT:467
TIMELAPSE_TAKE_FRAME
;LAYER:0
M107
G1 F600 Z0.4
G0 F7200 X144.459 Y122.681 Z0.4
;TYPE:SKIRT
G1 F600 Z0.2
G1 F720 E0
G1 F1800 X145.158 Y121.985 E0.03691
G1 X145.916 Y121.398 E0.07278
G1 X146.918 Y120.828 E0.11592
G1 X147.937 Y120.423 E0.15695
G1 X148.939 Y120.166 E0.19565
G1 X149.523 Y120.083 E0.21772
G1 X197.13 Y120.035 E1.99907
G1 X198.651 Y120.204 E2.05633
G1 X199.447 Y120.403 E2.08703
G1 X200.231 Y120.699 E2.11839
G1 X201.506 Y121.394 E2.17272
G1 X202.307 Y122.01 E2.21053
G1 X203.059 Y122.76 E2.25027
G1 X203.646 Y123.518 E2.28614
G1 X204.157 Y124.402 E2.32435
G1 X204.635 Y125.587 E2.37216
G1 X204.863 Y126.481 E2.40668
G1 X204.961 Y127.179 E2.43306
G1 X204.999 Y141.222 E2.95852
G1 X204.786 Y142.885 E3.02125
G1 X204.606 Y143.52 E3.04595
G1 X204.15 Y144.624 E3.09064
G1 X203.501 Y145.703 E3.13775
G1 X202.861 Y146.488 E3.17565
G1 X202.414 Y146.934 E3.19928
G1 X201.297 Y147.782 E3.25175
G1 X200.646 Y148.143 E3.27961
G1 X199.589 Y148.578 E3.32238
G1 X198.674 Y148.827 E3.35786
G1 X198.324 Y148.891 E3.37117
G1 X197.13 Y148.993 E3.41601
G1 X149.569 Y148.939 E5.19563
G1 X148.703 Y148.804 E5.22843
G1 X147.864 Y148.582 E5.2609
G1 X147.173 Y148.314 E5.28864
G1 X145.917 Y147.62 E5.34233
G1 X145.085 Y146.973 E5.38177
G1 X144.389 Y146.274 E5.41867
G1 X143.802 Y145.516 E5.45455
G1 X143.286 Y144.624 E5.49311
G1 X142.809 Y143.441 E5.54083
G1 X142.581 Y142.547 E5.57536
G1 X142.483 Y141.849 E5.60173
G1 X142.445 Y127.806 E6.12719
G1 X142.656 Y126.155 E6.18947
G1 X142.85 Y125.46 E6.21647
G1 X143.118 Y124.769 E6.2442
G1 X143.812 Y123.513 E6.29789
G1 X144.459 Y122.681 E6.33733
G0 F7200 X144.777 Y122.999
G1 F1800 X145.434 Y122.341 E6.37212
G1 X146.192 Y121.754 E6.40799
G1 X147.086 Y121.246 E6.44647
G1 X148.05 Y120.859 E6.48534
G1 X149.002 Y120.612 E6.52214
G1 X149.586 Y120.529 E6.54421
G1 X197.13 Y120.485 E8.3232
G1 X198.601 Y120.651 E8.37859
G1 X199.29 Y120.825 E8.40518
G1 X200.017 Y121.095 E8.4342
G1 X201.233 Y121.752 E8.48591
G1 X201.99 Y122.33 E8.52155
G1 X202.703 Y123.036 E8.55909
G1 X203.29 Y123.794 E8.59497
G1 X203.767 Y124.626 E8.63085
G1 X204.199 Y125.699 E8.67413
G1 X204.417 Y126.544 E8.70679
G1 X204.515 Y127.242 E8.73316
G1 X204.549 Y141.223 E9.2563
G1 X204.353 Y142.762 E9.31435
G1 X204.173 Y143.397 E9.33904
G1 X203.764 Y144.393 E9.37933
G1 X203.152 Y145.419 E9.42403
G1 X202.543 Y146.169 E9.46018
G1 X202.096 Y146.615 E9.48381
G1 X201.077 Y147.389 E9.53169
G1 X200.473 Y147.727 E9.55759
G1 X199.47 Y148.144 E9.59823
G1 X198.593 Y148.384 E9.63226
G1 X198.243 Y148.448 E9.64557
G1 X197.13 Y148.543 E9.68737
G1 X149.638 Y148.494 E11.46441
G1 X148.772 Y148.359 E11.4972
G1 X148.027 Y148.162 E11.52604
G1 X147.336 Y147.894 E11.55377
G1 X146.192 Y147.264 E11.60264
G1 X145.403 Y146.655 E11.63993
G1 X144.745 Y145.998 E11.67472
G1 X144.158 Y145.24 E11.7106
G1 X143.676 Y144.4 E11.74683
G1 X143.245 Y143.329 E11.79003
G1 X143.027 Y142.484 E11.82268
G1 X142.929 Y141.786 E11.84906
G1 X142.895 Y127.805 E12.37219
G1 X143.09 Y126.275 E12.42991
G1 X143.27 Y125.623 E12.45522
G1 X143.538 Y124.932 E12.48295
G1 X144.168 Y123.788 E12.53182
G1 X144.777 Y122.999 E12.56911
G0 F7200 X145.097 Y123.316
G1 F1800 X145.71 Y122.697 E12.60171
G1 X146.468 Y122.11 E12.63758
G1 X147.255 Y121.663 E12.67145
G1 X148.164 Y121.294 E12.70815
G1 X149.065 Y121.058 E12.743
G1 X149.649 Y120.975 E12.76508
G1 X197.13 Y120.935 E14.5417
G1 X198.493 Y121.088 E14.59302
G1 X199.133 Y121.247 E14.6177
G1 X199.86 Y121.517 E14.64672
G1 X200.961 Y122.111 E14.69353
G1 X201.673 Y122.65 E14.72694
G1 X202.386 Y123.356 E14.76449
G1 X202.9 Y124.018 E14.79585
G1 X203.377 Y124.85 E14.83173
G1 X203.764 Y125.812 E14.87053
G1 X203.971 Y126.607 E14.90127
G1 X204.069 Y127.305 E14.92764
G1 X204.099 Y141.224 E15.44846
G1 X203.907 Y142.704 E15.5043
G1 X203.756 Y143.228 E15.52471
G1 X203.377 Y144.164 E15.56249
G1 X202.802 Y145.136 E15.60475
G1 X202.225 Y145.85 E15.6391
G1 X201.778 Y146.296 E15.66273
G1 X200.855 Y146.997 E15.7061
G1 X200.3 Y147.311 E15.72996
G1 X199.297 Y147.728 E15.7706
G1 X198.512 Y147.941 E15.80103
G1 X198.162 Y148.005 E15.81435
G1 X197.13 Y148.093 E15.8531
G1 X149.707 Y148.049 E17.62756
G1 X148.841 Y147.914 E17.66036
G1 X148.19 Y147.742 E17.68555
G1 X147.499 Y147.474 E17.71328
G1 X146.466 Y146.907 E17.75738
G1 X145.72 Y146.335 E17.79255
G1 X145.101 Y145.722 E17.82515
G1 X144.514 Y144.964 E17.86102
G1 X144.067 Y144.178 E17.89485
G1 X143.68 Y143.216 E17.93365
G1 X143.473 Y142.421 E17.96439
G1 X143.375 Y141.723 E17.99077
G1 X143.345 Y127.804 E18.51158
G1 X143.524 Y126.394 E18.56477
G1 X143.69 Y125.786 E18.58835
G1 X143.958 Y125.095 E18.61608
G1 X144.525 Y124.062 E18.66017
G1 X145.097 Y123.316 E18.69535
G0 F7200 X145.417 Y123.633
G1 F1800 X146.03 Y123.014 E18.72794
G1 X146.692 Y122.5 E18.7593
G1 X147.424 Y122.08 E18.79088
G1 X148.333 Y121.711 E18.82759
G1 X149.128 Y121.504 E18.85833
G1 X149.712 Y121.421 E18.8804
G1 X197.13 Y121.385 E20.65467
G1 X198.442 Y121.535 E20.70408
G1 X198.979 Y121.67 E20.7248
G1 X199.646 Y121.913 E20.75136
G1 X200.747 Y122.507 E20.79817
G1 X201.356 Y122.97 E20.8268
G1 X202.069 Y123.676 E20.86434
G1 X202.543 Y124.292 E20.89343
G1 X202.96 Y125.02 E20.92482
G1 X203.329 Y125.927 E20.96146
G1 X203.525 Y126.67 E20.99021
G1 X203.623 Y127.368 E21.01658
G1 X203.649 Y141.225 E21.53508
G1 X203.474 Y142.581 E21.58624
G1 X203.338 Y143.061 E21.60491
G1 X202.989 Y143.936 E21.64016
G1 X202.451 Y144.854 E21.67997
G1 X201.907 Y145.531 E21.71247
G1 X201.46 Y145.977 E21.73609
G1 X200.633 Y146.605 E21.77495
G1 X200.078 Y146.919 E21.79881
G1 X199.178 Y147.294 E21.83529
G1 X198.431 Y147.498 E21.86427
G1 X198.081 Y147.562 E21.87758
G1 X197.13 Y147.643 E21.91329
G1 X149.776 Y147.604 E23.68517
G1 X148.91 Y147.469 E23.71796
G1 X148.353 Y147.322 E23.73952
G1 X147.662 Y147.054 E23.76725
G1 X146.684 Y146.513 E23.80907
G1 X146.037 Y146.015 E23.83962
G1 X145.418 Y145.402 E23.87222
G1 X144.904 Y144.74 E23.90358
G1 X144.484 Y144.008 E23.93516
G1 X144.115 Y143.101 E23.9718
G1 X143.919 Y142.358 E24.00055
G1 X143.821 Y141.66 E24.02692
G1 X143.795 Y127.803 E24.54542
G1 X143.958 Y126.511 E24.59415
G1 X144.11 Y125.949 E24.61593
G1 X144.378 Y125.258 E24.64366
G1 X144.919 Y124.28 E24.68548
G1 X145.417 Y123.633 E24.71603
G0 F7200 X145.737 Y123.95
G1 F1800 X146.35 Y123.331 E24.74863
G1 X146.966 Y122.857 E24.77771
G1 X147.595 Y122.496 E24.80485
G1 X148.448 Y122.146 E24.83935
G1 X149.191 Y121.95 E24.8681
G1 X149.775 Y121.867 E24.89017
G1 X197.13 Y121.835 E26.66209
G1 X198.334 Y121.972 E26.70743
G1 X198.825 Y122.093 E26.72635
G1 X199.492 Y122.336 E26.75291
G1 X200.476 Y122.866 E26.79473
G1 X201.039 Y123.29 E26.8211
G1 X201.752 Y123.996 E26.85865
G1 X202.185 Y124.565 E26.8854
G1 X202.544 Y125.191 E26.9124
G1 X202.894 Y126.044 E26.9469
G1 X203.079 Y126.733 E26.9736
G1 X203.177 Y127.431 E26.99997
G1 X203.199 Y141.226 E27.51615
G1 X203.04 Y142.461 E27.56274
G1 X202.919 Y142.897 E27.57967
G1 X202.6 Y143.71 E27.61235
G1 X202.1 Y144.573 E27.64967
G1 X201.589 Y145.212 E27.68029
G1 X201.142 Y145.658 E27.70391
G1 X200.411 Y146.213 E27.73825
G1 X199.856 Y146.527 E27.76212
G1 X199.059 Y146.86 E27.79444
G1 X198.35 Y147.055 E27.82195
G1 X198 Y147.119 E27.83526
G1 X197.13 Y147.193 E27.86793
G1 X149.845 Y147.159 E29.63723
G1 X148.979 Y147.024 E29.67002
G1 X148.514 Y146.902 E29.68801
G1 X147.878 Y146.659 E29.71349
G1 X146.957 Y146.155 E29.75277
G1 X146.354 Y145.695 E29.78115
G1 X145.735 Y145.082 E29.81375
G1 X145.261 Y144.466 E29.84283
G1 X144.9 Y143.837 E29.86997
G1 X144.55 Y142.984 E29.90447
G1 X144.365 Y142.295 E29.93116
G1 X144.267 Y141.597 E29.95753
G1 X144.245 Y127.802 E30.47371
G1 X144.393 Y126.626 E30.51806
G1 X144.53 Y126.11 E30.53804
G1 X144.773 Y125.474 E30.56351
G1 X145.277 Y124.553 E30.6028
G1 X145.737 Y123.95 E30.63118
G0 F7200 X146.057 Y124.267
G1 F1800 X146.67 Y123.648 E30.66377
G1 X147.239 Y123.215 E30.69053
G1 X147.768 Y122.912 E30.71334
G1 X148.565 Y122.581 E30.74563
G1 X149.254 Y122.396 E30.77232
G1 X149.838 Y122.313 E30.79439
G1 X197.13 Y122.285 E32.56395
G1 X198.226 Y122.409 E32.60522
G1 X198.717 Y122.53 E32.62414
G1 X199.28 Y122.733 E32.64654
G1 X200.207 Y123.227 E32.68584
G1 X200.722 Y123.61 E32.70986
G1 X201.435 Y124.316 E32.7474
G1 X201.825 Y124.835 E32.77169
G1 X202.128 Y125.364 E32.7945
G1 X202.459 Y126.161 E32.82679
G1 X202.644 Y126.85 E32.85349
G1 X202.727 Y127.432 E32.87549
G1 X202.749 Y141.227 E33.39166
G1 X202.606 Y142.343 E33.43376
G1 X202.499 Y142.735 E33.44897
G1 X202.209 Y143.486 E33.47909
G1 X201.747 Y144.293 E33.51388
G1 X201.271 Y144.893 E33.54254
G1 X200.824 Y145.339 E33.56617
G1 X200.14 Y145.854 E33.59821
G1 X199.681 Y146.112 E33.61791
G1 X198.938 Y146.426 E33.64809
G1 X198.269 Y146.612 E33.67407
G1 X197.919 Y146.676 E33.68738
G1 X197.13 Y146.743 E33.71701
G1 X149.914 Y146.714 E35.48373
G1 X149.048 Y146.579 E35.51652
G1 X148.672 Y146.481 E35.53106
G1 X148.094 Y146.264 E35.55416
G1 X147.173 Y145.76 E35.59345
G1 X146.671 Y145.375 E35.61712
G1 X146.052 Y144.762 E35.64971
G1 X145.619 Y144.193 E35.67647
G1 X145.316 Y143.664 E35.69928
G1 X144.985 Y142.867 E35.73157
G1 X144.8 Y142.178 E35.75826
G1 X144.717 Y141.596 E35.78026
G1 X144.695 Y127.801 E36.29644
G1 X144.839 Y126.683 E36.33862
G1 X144.951 Y126.268 E36.3547
G1 X145.168 Y125.69 E36.3778
G1 X145.672 Y124.769 E36.41709
G1 X146.057 Y124.267 E36.44076
G0 F7200 X146.377 Y124.584
G1 F1800 X146.99 Y123.965 E36.47336
G1 X147.509 Y123.575 E36.49765
G1 X147.942 Y123.327 E36.51632
G1 X148.682 Y123.016 E36.54635
G1 X149.371 Y122.831 E36.57305
G1 X149.838 Y122.763 E36.59071
G1 X197.13 Y122.735 E38.36026
G1 X198.174 Y122.856 E38.39959
G1 X198.568 Y122.955 E38.41479
G1 X199.07 Y123.131 E38.43469
G1 X199.938 Y123.588 E38.4714
G1 X200.453 Y123.971 E38.49541
G1 X201.075 Y124.586 E38.52814
G1 X201.465 Y125.105 E38.55243
G1 X201.713 Y125.538 E38.5711
G1 X202.024 Y126.278 E38.60114
G1 X202.209 Y126.967 E38.62783
G1 X202.277 Y127.433 E38.64546
G1 X202.299 Y141.228 E39.16163
G1 X202.171 Y142.227 E39.19932
G1 X202.079 Y142.573 E39.21271
G1 X201.789 Y143.324 E39.24284
G1 X201.393 Y144.015 E39.27264
G1 X200.953 Y144.574 E39.29926
G1 X200.506 Y145.02 E39.32288
G1 X199.918 Y145.463 E39.35043
G1 X199.504 Y145.698 E39.36824
G1 X198.817 Y145.992 E39.3962
G1 X198.148 Y146.178 E39.42219
G1 X197.88 Y146.228 E39.43239
G1 X197.13 Y146.293 E39.46056
G1 X149.983 Y146.269 E41.22469
G1 X149.117 Y146.134 E41.25748
G1 X148.827 Y146.058 E41.2687
G1 X148.308 Y145.868 E41.28938
G1 X147.445 Y145.401 E41.32609
G1 X146.988 Y145.055 E41.34754
G1 X146.369 Y144.442 E41.38014
G1 X145.979 Y143.923 E41.40443
G1 X145.731 Y143.49 E41.4231
G1 X145.42 Y142.75 E41.45314
G1 X145.235 Y142.061 E41.47983
G1 X145.167 Y141.595 E41.49745
G1 X145.145 Y127.8 E42.01363
G1 X145.274 Y126.799 E42.05139
G1 X145.374 Y126.423 E42.06595
G1 X145.564 Y125.904 E42.08663
G1 X146.031 Y125.041 E42.12335
G1 X146.377 Y124.584 E42.1448
G0 F7200 X146.736 Y124.856
G1 F1800 X147.262 Y124.323 E42.17282
G1 X147.735 Y123.964 E42.19504
G1 X148.118 Y123.741 E42.21162
G1 X148.799 Y123.451 E42.23931
G1 X149.488 Y123.266 E42.26601
G1 X149.838 Y123.213 E42.27925
G1 X197.13 Y123.185 E44.04881
G1 X198.066 Y123.293 E44.08407
G1 X198.419 Y123.38 E44.09767
G1 X198.921 Y123.556 E44.11757
G1 X199.669 Y123.949 E44.14919
G1 X200.184 Y124.332 E44.17321
G1 X200.717 Y124.858 E44.20122
G1 X201.076 Y125.331 E44.22344
G1 X201.299 Y125.714 E44.24003
G1 X201.589 Y126.395 E44.26772
G1 X201.774 Y127.084 E44.29442
G1 X201.827 Y127.434 E44.30766
G1 X201.849 Y141.229 E44.82384
G1 X201.735 Y142.115 E44.85726
G1 X201.658 Y142.414 E44.86882
G1 X201.397 Y143.103 E44.89639
G1 X201.038 Y143.738 E44.92368
G1 X200.635 Y144.255 E44.94821
G1 X200.188 Y144.701 E44.97184
G1 X199.694 Y145.073 E44.99497
G1 X199.325 Y145.285 E45.0109
G1 X198.696 Y145.558 E45.03656
G1 X198.027 Y145.744 E45.06254
G1 X197.8 Y145.785 E45.07117
G1 X197.13 Y145.843 E45.09633
G1 X150.052 Y145.824 E46.85788
G1 X149.186 Y145.689 E46.89068
G1 X148.982 Y145.635 E46.89857
G1 X148.463 Y145.445 E46.91925
G1 X147.717 Y145.042 E46.95098
G1 X147.26 Y144.696 E46.97243
G1 X146.727 Y144.17 E47.00045
G1 X146.368 Y143.697 E47.02266
G1 X146.145 Y143.314 E47.03925
G1 X145.855 Y142.633 E47.06694
G1 X145.67 Y141.944 E47.09364
G1 X145.617 Y141.594 E47.10688
G1 X145.595 Y127.799 E47.62306
G1 X145.709 Y126.913 E47.65649
G1 X145.797 Y126.578 E47.66945
G1 X145.987 Y126.059 E47.69013
G1 X146.39 Y125.313 E47.72185
G1 X146.736 Y124.856 E47.7433
G0 F7200 X147.058 Y125.17
G1 F1800 X147.536 Y124.68 E47.76891
G1 X147.965 Y124.351 E47.78914
G1 X148.297 Y124.154 E47.80359
G1 X148.916 Y123.886 E47.82883
G1 X149.605 Y123.701 E47.85552
G1 X149.901 Y123.659 E47.86671
G1 X197.13 Y123.635 E49.63391
G1 X197.958 Y123.73 E49.66509
G1 X198.311 Y123.817 E49.67869
G1 X198.77 Y123.98 E49.69692
G1 X199.458 Y124.346 E49.72608
G1 X199.87 Y124.654 E49.74533
G1 X200.36 Y125.132 E49.77094
G1 X200.689 Y125.561 E49.79117
G1 X200.886 Y125.893 E49.80562
G1 X201.154 Y126.512 E49.83085
G1 X201.339 Y127.201 E49.85755
G1 X201.381 Y127.497 E49.86873
G1 X201.399 Y141.23 E50.38259
G1 X201.299 Y142.003 E50.41176
G1 X201.222 Y142.302 E50.42331
G1 X201.004 Y142.884 E50.44656
G1 X200.682 Y143.463 E50.47135
G1 X200.317 Y143.936 E50.49371
G1 X199.87 Y144.382 E50.51734
G1 X199.467 Y144.684 E50.53618
G1 X199.143 Y144.873 E50.55022
G1 X198.575 Y145.124 E50.57345
G1 X197.906 Y145.31 E50.59943
G1 X197.724 Y145.341 E50.60634
G1 X197.13 Y145.393 E50.62865
G1 X150.121 Y145.379 E52.38762
G1 X149.255 Y145.244 E52.42041
G1 X149.133 Y145.211 E52.42514
G1 X148.674 Y145.048 E52.44337
G1 X147.986 Y144.682 E52.47253
G1 X147.574 Y144.374 E52.49178
G1 X147.084 Y143.896 E52.51739
G1 X146.755 Y143.467 E52.53762
G1 X146.558 Y143.135 E52.55206
G1 X146.29 Y142.516 E52.5773
G1 X146.105 Y141.827 E52.604
G1 X146.063 Y141.531 E52.61518
G1 X146.045 Y127.798 E53.12904
G1 X146.145 Y127.025 E53.1582
G1 X146.221 Y126.729 E53.16964
G1 X146.384 Y126.27 E53.18786
G1 X146.75 Y125.582 E53.21702
G1 X147.058 Y125.17 E53.23627
G0 F7200 X147.382 Y125.482
G1 F1800 X147.812 Y125.036 E53.25945
G1 X148.199 Y124.736 E53.27778
G1 X148.479 Y124.566 E53.29003
G1 X149.035 Y124.32 E53.31278
G1 X149.668 Y124.147 E53.33734
G1 X149.964 Y124.105 E53.34852
G1 X197.13 Y124.085 E55.11336
G1 X197.905 Y124.177 E55.14257
G1 X198.16 Y124.241 E55.1524
G1 X198.619 Y124.404 E55.17063
G1 X199.191 Y124.708 E55.19487
G1 X199.558 Y124.978 E55.21191
G1 X200.004 Y125.408 E55.2351
G1 X200.304 Y125.795 E55.25342
G1 X200.474 Y126.075 E55.26567
G1 X200.72 Y126.631 E55.28842
G1 X200.893 Y127.264 E55.31298
G1 X200.935 Y127.56 E55.32416
G1 X200.949 Y141.23 E55.83566
G1 X200.863 Y141.893 E55.86068
G1 X200.799 Y142.148 E55.87052
G1 X200.609 Y142.668 E55.89123
G1 X200.324 Y143.19 E55.91349
G1 X199.999 Y143.617 E55.93357
G1 X199.552 Y144.063 E55.95719
G1 X199.237 Y144.297 E55.97188
G1 X198.961 Y144.461 E55.98389
G1 X198.393 Y144.712 E56.00712
G1 X197.825 Y144.867 E56.02915
