;FLAVOR:Marlin
;TIME:1778
;Filament used: 1.76912m
;Layer height: 0.2
;MINX:141.765
;MINY:140.004
;MINZ:0.2
;MAXX:208.229
;MAXY:207.713
;MAXZ:14.6
;TARGET_MACHINE.NAME:VORON2 350
;POSTPROCESSED
;  [CreateThumbnail]
;  [InsertAtLayerChange]
;  [CreateThumbnail]
;  [FlowTower]
;Generated with Cura_SteamEngine 5.8.0


; Pre-Processed for Cancel-Object support by preprocess_cancellation v0.2.0
; 3 known objects
EXCLUDE_OBJECT_DEFINE NAME=LOCK_1_STL CENTER=157.133,174.403 POLYGON=[[149.832,156.72],[149.832,193.332],[164.432,193.332],[164.432,156.72]]
EXCLUDE_OBJECT_DEFINE NAME=LOCK_2_STL CENTER=175.176,188.662 POLYGON=[[166.328,148.051],[166.328,201.876],[183.917,201.876],[183.917,148.051]]
EXCLUDE_OBJECT_DEFINE NAME=LOCK_3_STL CENTER=192.956,174.992 POLYGON=[[185.756,161.648],[185.756,188.448],[200.156,188.448],[200.156,161.648]]
M82 ;absolute extrusion mode
;Nozzle diameter = 0.4
;Filament type = ABS
;Filament name = ABS+ Black
;Filament weight = [4.680758349609376]
; M190 S100
; M109 S240
PRINT_START BED_TEMP=100 EXTRUDER_TEMP=240
M141 S40
G92 E0
G92 E0
G1 F1800 E-0.75
;LAYER_COUNT:73
TIMELAPSE_TAKE_FRAME
;LAYER:0
;TYPE:CUSTOM LAYER
M221 S110
M117 Flow S110
M107
G1 F600 Z0.4
G0 F7200 X161.514 Y142.849 Z0.4
;TYPE:SKIRT
G1 F600 Z0.2
G1 F720 E0
G1 F1800 X162.696 Y141.692 E0.06189
G1 X163.399 Y141.201 E0.09397
G1 X164.24 Y140.752 E0.12965
G1 X165.604 Y140.258 E0.18393
G1 X166.186 Y140.131 E0.20622
G1 X167.501 Y140.004 E0.25565
G1 X183.452 Y140.056 E0.8525
G1 X184.318 Y140.191 E0.8853
G1 X185.157 Y140.413 E0.91777
G1 X185.848 Y140.681 E0.9455
G1 X187.104 Y141.375 E0.9992
G1 X187.935 Y142.02 E1.03856
G1 X188.554 Y142.633 E1.07116
G1 X189.396 Y143.747 E1.12341
G1 X189.729 Y144.349 E1.14915
G1 X190.148 Y145.377 E1.19069
G1 X190.499 Y146.802 E1.2456
G1 X190.558 Y147.366 E1.26682
G1 X190.575 Y153.58 E1.49933
G1 X196.778 Y153.573 E1.73144
G1 X197.7 Y153.617 E1.76597
G1 X197.966 Y153.644 E1.77598
G1 X199.341 Y153.887 E1.82822
G1 X199.816 Y154.01 E1.84658
G1 X200.691 Y154.302 E1.8811
G1 X201.428 Y154.606 E1.91093
G1 X202.266 Y155.025 E1.94599
G1 X202.888 Y155.392 E1.97301
G1 X203.41 Y155.747 E1.99663
G1 X204.236 Y156.402 E2.03608
G1 X204.912 Y157.026 E2.0705
G1 X205.124 Y157.247 E2.08196
G1 X205.901 Y158.177 E2.1273
G1 X206.173 Y158.553 E2.14467
G1 X206.623 Y159.272 E2.17641
G1 X207.191 Y160.34 E2.22167
G1 X207.308 Y160.605 E2.23251
G1 X207.771 Y161.89 E2.28361
G1 X207.857 Y162.205 E2.29583
G1 X208.095 Y163.345 E2.33941
G1 X208.144 Y163.693 E2.35256
G1 X208.229 Y165.151 E2.40721
G1 X208.211 Y165.833 E2.43273
G1 X208.189 Y166.137 E2.44414
G1 X207.994 Y167.472 E2.49462
G1 X207.855 Y168.076 E2.51781
G1 X207.627 Y168.846 E2.54786
G1 X207.412 Y169.434 E2.57129
G1 X207.045 Y170.248 E2.6047
G1 X206.661 Y170.961 E2.635
G1 X206.163 Y171.74 E2.66959
G1 X206.623 Y172.472 E2.70194
G1 X207.191 Y173.54 E2.74721
G1 X207.308 Y173.805 E2.75804
G1 X207.771 Y175.09 E2.80915
G1 X207.857 Y175.405 E2.82137
G1 X208.095 Y176.545 E2.86495
G1 X208.144 Y176.893 E2.8781
G1 X208.229 Y178.351 E2.93274
G1 X208.211 Y179.033 E2.95827
G1 X208.189 Y179.337 E2.96968
G1 X207.994 Y180.672 E3.02016
G1 X207.855 Y181.276 E3.04335
G1 X207.627 Y182.046 E3.0734
G1 X207.412 Y182.634 E3.09682
G1 X207.045 Y183.448 E3.13023
G1 X206.964 Y183.6 E3.13668
G1 X207.409 Y184.385 E3.17044
G1 X207.799 Y185.336 E3.2089
G1 X208.058 Y186.3 E3.24625
G1 X208.225 Y187.798 E3.30265
G1 X208.191 Y189.289 E3.35846
G1 X208.065 Y190.177 E3.39202
G1 X207.849 Y191.004 E3.424
G1 X207.542 Y191.812 E3.45634
G1 X206.825 Y193.092 E3.51124
G1 X206.143 Y193.949 E3.55222
G1 X205.396 Y194.67 E3.59107
G1 X204.402 Y195.389 E3.63697
G1 X203.983 Y195.621 E3.65489
G1 X203.004 Y196.054 E3.69494
G1 X202.324 Y196.266 E3.7216
G1 X201.695 Y196.397 E3.74564
G1 X200.356 Y196.523 E3.79596
G1 X190.594 Y196.515 E4.16123
G1 X190.571 Y199.73 E4.28153
G1 X190.426 Y200.771 E4.32086
G1 X190.236 Y201.554 E4.35101
G1 X189.971 Y202.3 E4.38063
G1 X189.115 Y203.933 E4.44962
G1 X188.474 Y204.784 E4.48949
G1 X188.017 Y205.269 E4.51442
G1 X187.147 Y206.007 E4.55711
G1 X186.382 Y206.513 E4.59143
G1 X184.978 Y207.181 E4.6496
G1 X184.058 Y207.461 E4.68559
G1 X183.336 Y207.603 E4.71312
G1 X182.082 Y207.713 E4.76022
G1 X167.421 Y207.665 E5.30881
G1 X166.336 Y207.495 E5.3499
G1 X165.5 Y207.26 E5.38239
G1 X164.459 Y206.842 E5.42437
G1 X164.004 Y206.604 E5.44358
G1 X163.076 Y205.994 E5.48513
G1 X162.413 Y205.445 E5.51734
G1 X161.745 Y204.758 E5.5532
G1 X161.156 Y203.983 E5.58962
G1 X160.586 Y202.998 E5.6322
G1 X160.081 Y201.75 E5.68258
G1 X159.789 Y200.583 E5.72759
G1 X159.715 Y200.012 E5.74914
G1 X151.39 Y199.969 E6.06064
G1 X150.524 Y199.834 E6.09344
G1 X149.685 Y199.612 E6.12591
G1 X148.994 Y199.344 E6.15364
G1 X147.738 Y198.65 E6.20734
G1 X146.907 Y198.005 E6.2467
G1 X146.288 Y197.392 E6.2793
G1 X145.446 Y196.278 E6.33155
G1 X145.113 Y195.676 E6.35729
G1 X144.694 Y194.648 E6.39883
G1 X144.343 Y193.223 E6.45374
G1 X144.284 Y192.659 E6.47496
G1 X144.266 Y187.213 E6.67874
G1 X143.574 Y186.521 E6.71535
G1 X143.109 Y185.903 E6.74429
G1 X142.551 Y184.913 E6.78682
G1 X142.167 Y183.958 E6.82533
G1 X141.949 Y183.163 E6.85617
G1 X141.775 Y181.807 E6.90733
G1 X141.765 Y170.573 E7.32768
G1 X141.975 Y168.931 E7.38962
G1 X142.157 Y168.278 E7.41498
G1 X142.492 Y167.43 E7.4491
G1 X143.171 Y166.228 E7.50076
G1 X143.742 Y165.497 E7.53546
G1 X144.478 Y164.76 E7.57444
G1 X145.234 Y164.174 E7.61023
G1 X146.183 Y163.631 E7.65114
G1 X147.302 Y163.183 E7.69624
G1 X147.995 Y162.998 E7.72308
G1 X149.337 Y162.826 E7.7737
G1 X159.663 Y162.814 E8.16008
G1 X159.716 Y147.195 E8.74451
G1 X159.873 Y146.191 E8.78253
G1 X160.059 Y145.486 E8.80981
G1 X160.34 Y144.746 E8.83943
G1 X161.013 Y143.518 E8.89183
G1 X161.514 Y142.849 E8.9231
G0 F7200 X161.874 Y143.119
G1 F1800 X162.955 Y142.06 E8.97973
G1 X163.613 Y141.597 E9.00983
G1 X164.394 Y141.175 E9.04305
G1 X165.7 Y140.698 E9.09507
G1 X166.282 Y140.571 E9.11736
G1 X167.5 Y140.454 E9.16315
G1 X183.383 Y140.501 E9.75745
G1 X184.249 Y140.636 E9.79025
G1 X184.994 Y140.833 E9.81908
G1 X185.685 Y141.101 E9.84682
G1 X186.829 Y141.731 E9.89568
G1 X187.618 Y142.34 E9.93298
G1 X188.237 Y142.953 E9.96557
G1 X189.002 Y143.965 E10.01304
G1 X189.335 Y144.567 E10.03879
G1 X189.711 Y145.486 E10.07594
G1 X190.051 Y146.849 E10.1285
G1 X190.11 Y147.413 E10.14972
G1 X190.126 Y154.03 E10.39731
G1 X196.778 Y154.023 E10.64622
G1 X197.655 Y154.065 E10.67907
G1 X197.921 Y154.092 E10.68907
G1 X199.228 Y154.323 E10.73874
G1 X199.703 Y154.446 E10.7571
G1 X200.519 Y154.718 E10.78928
G1 X201.256 Y155.022 E10.81911
G1 X202.037 Y155.413 E10.85179
G1 X202.659 Y155.78 E10.87881
G1 X203.13 Y156.1 E10.90012
G1 X203.956 Y156.755 E10.93957
G1 X204.587 Y157.338 E10.97171
G1 X204.799 Y157.559 E10.98317
G1 X205.536 Y158.441 E11.02618
G1 X205.808 Y158.817 E11.04354
G1 X206.226 Y159.484 E11.073
G1 X206.779 Y160.522 E11.117
G1 X206.896 Y160.787 E11.12784
G1 X207.337 Y162.009 E11.17645
G1 X207.416 Y162.297 E11.18763
G1 X207.654 Y163.437 E11.2312
G1 X207.695 Y163.72 E11.2419
G1 X207.779 Y165.139 E11.29509
G1 X207.762 Y165.801 E11.31987
G1 X207.74 Y166.105 E11.33128
G1 X207.555 Y167.371 E11.37915
G1 X207.416 Y167.975 E11.40234
G1 X207.204 Y168.691 E11.43028
G1 X206.989 Y169.279 E11.45371
G1 X206.635 Y170.063 E11.48589
G1 X206.282 Y170.719 E11.51377
G1 X205.76 Y171.536 E11.55005
G1 X205.608 Y171.74 E11.55956
G1 X205.808 Y172.017 E11.57235
G1 X206.226 Y172.684 E11.6018
G1 X206.779 Y173.722 E11.64581
G1 X206.896 Y173.987 E11.65665
G1 X207.337 Y175.209 E11.70526
G1 X207.416 Y175.497 E11.71643
G1 X207.654 Y176.637 E11.76001
G1 X207.695 Y176.92 E11.77071
G1 X207.779 Y178.339 E11.8239
G1 X207.762 Y179.001 E11.84868
G1 X207.74 Y179.305 E11.86008
G1 X207.555 Y180.571 E11.90796
G1 X207.416 Y181.175 E11.93115
G1 X207.204 Y181.891 E11.95909
G1 X206.989 Y182.479 E11.98251
G1 X206.635 Y183.263 E12.0147
G1 X206.439 Y183.628 E12.0302
G1 X206.552 Y183.786 E12.03747
G1 X207.017 Y184.607 E12.07278
G1 X207.364 Y185.453 E12.10699
G1 X207.623 Y186.417 E12.14434
G1 X207.775 Y187.789 E12.19599
G1 X207.745 Y189.226 E12.24977
G1 X207.619 Y190.114 E12.28333
G1 X207.428 Y190.844 E12.31157
G1 X207.121 Y191.652 E12.34391
G1 X206.433 Y192.871 E12.39628
G1 X205.83 Y193.625 E12.43241
G1 X205.083 Y194.346 E12.47126
G1 X204.183 Y194.996 E12.5128
G1 X203.801 Y195.209 E12.52916
G1 X202.822 Y195.642 E12.56922
G1 X202.232 Y195.825 E12.59233
G1 X201.603 Y195.956 E12.61637
G1 X200.356 Y196.073 E12.66324
G1 X190.147 Y196.065 E13.04523
G1 X190.125 Y199.668 E13.18005
G1 X189.98 Y200.709 E13.21938
G1 X189.811 Y201.406 E13.24622
G1 X189.572 Y202.092 E13.2734
G1 X188.755 Y203.663 E13.33965
G1 X188.146 Y204.475 E13.37763
G1 X187.689 Y204.96 E13.40257
G1 X186.857 Y205.663 E13.44332
G1 X186.135 Y206.137 E13.47564
G1 X184.847 Y206.75 E13.52902
G1 X183.927 Y207.03 E13.565
G1 X183.296 Y207.155 E13.58907
G1 X182.083 Y207.263 E13.63464
G1 X167.422 Y207.215 E14.18322
G1 X166.456 Y207.061 E14.21982
G1 X165.667 Y206.842 E14.25046
G1 X164.668 Y206.443 E14.29071
G1 X164.213 Y206.205 E14.30992
G1 X163.362 Y205.646 E14.34802
G1 X162.736 Y205.131 E14.37835
G1 X162.068 Y204.444 E14.41421
G1 X161.545 Y203.756 E14.44654
G1 X161.003 Y202.828 E14.48676
G1 X160.518 Y201.641 E14.53474
G1 X160.226 Y200.474 E14.57975
G1 X160.113 Y199.564 E14.61406
G1 X151.459 Y199.524 E14.93788
G1 X150.593 Y199.389 E14.97067
G1 X149.848 Y199.192 E14.99951
G1 X149.157 Y198.924 E15.02724
G1 X148.013 Y198.294 E15.0761
G1 X147.224 Y197.685 E15.1134
G1 X146.605 Y197.072 E15.146
G1 X145.84 Y196.06 E15.19346
G1 X145.507 Y195.458 E15.21921
G1 X145.131 Y194.539 E15.25636
G1 X144.791 Y193.176 E15.30892
G1 X144.732 Y192.612 E15.33014
G1 X144.715 Y187.026 E15.53916
G1 X143.934 Y186.25 E15.58035
G1 X143.469 Y185.632 E15.60929
G1 X142.969 Y184.745 E15.64739
G1 X142.585 Y183.79 E15.68591
G1 X142.383 Y183.045 E15.71479
G1 X142.225 Y181.807 E15.76149
G1 X142.215 Y170.573 E16.18184
G1 X142.409 Y169.05 E16.23928
G1 X142.576 Y168.443 E16.26284
G1 X142.911 Y167.595 E16.29696
G1 X143.526 Y166.505 E16.34379
G1 X144.097 Y165.774 E16.37849
G1 X144.754 Y165.116 E16.41329
G1 X145.51 Y164.53 E16.44908
G1 X146.351 Y164.048 E16.48535
G1 X147.418 Y163.618 E16.52839
G1 X148.111 Y163.433 E16.55523
G1 X149.338 Y163.276 E16.60152
G1 X160.112 Y163.264 E17.00466
G1 X160.161 Y147.265 E17.6033
G1 X160.318 Y146.261 E17.64133
G1 X160.48 Y145.646 E17.66512
G1 X160.761 Y144.906 E17.69474
G1 X161.373 Y143.788 E17.74243
G1 X161.874 Y143.119 E17.77371
G0 F7200 X162.234 Y143.389
G1 F1800 X163.215 Y142.427 E17.82512
G1 X163.829 Y141.992 E17.85327
G1 X164.55 Y141.597 E17.88403
G1 X165.796 Y141.138 E17.93372
G1 X166.378 Y141.011 E17.95601
G1 X167.499 Y140.904 E17.99815
G1 X183.314 Y140.946 E18.58991
G1 X184.18 Y141.081 E18.6227
G1 X184.831 Y141.253 E18.6479
G1 X185.522 Y141.521 E18.67563
G1 X186.555 Y142.088 E18.71972
G1 X187.301 Y142.66 E18.7549
G1 X187.92 Y143.273 E18.78749
G1 X188.608 Y144.183 E18.83018
G1 X188.941 Y144.785 E18.85592
G1 X189.275 Y145.596 E18.88874
G1 X189.603 Y146.896 E18.93891
G1 X189.662 Y147.46 E18.96013
G1 X189.677 Y154.481 E19.22284
G1 X196.779 Y154.473 E19.48858
G1 X197.61 Y154.513 E19.51971
G1 X197.876 Y154.54 E19.52971
G1 X199.115 Y154.759 E19.57679
G1 X199.59 Y154.882 E19.59515
G1 X200.347 Y155.134 E19.625
G1 X201.084 Y155.438 E19.65483
G1 X201.809 Y155.801 E19.68517
G1 X202.407 Y156.153 E19.71114
G1 X202.85 Y156.453 E19.73116
G1 X203.676 Y157.108 E19.7706
G1 X204.262 Y157.65 E19.80047
G1 X204.474 Y157.871 E19.81193
G1 X205.171 Y158.705 E19.8526
G1 X205.443 Y159.081 E19.86996
G1 X205.845 Y159.723 E19.8983
G1 X206.367 Y160.704 E19.93988
G1 X206.484 Y160.969 E19.95072
G1 X206.903 Y162.13 E19.99691
G1 X206.975 Y162.389 E20.00697
G1 X207.213 Y163.529 E20.05054
G1 X207.249 Y163.783 E20.06014
G1 X207.329 Y165.128 E20.11056
G1 X207.313 Y165.769 E20.13455
G1 X207.291 Y166.073 E20.14595
G1 X207.116 Y167.27 E20.19122
G1 X206.977 Y167.874 E20.21441
G1 X206.781 Y168.536 E20.24024
G1 X206.566 Y169.124 E20.26367
G1 X206.225 Y169.877 E20.2946
G1 X205.886 Y170.505 E20.3213
G1 X205.399 Y171.267 E20.35514
G1 X205.041 Y171.748 E20.37758
G1 X205.172 Y171.906 E20.38526
G1 X205.443 Y172.281 E20.40257
G1 X205.845 Y172.923 E20.43091
G1 X206.367 Y173.904 E20.47249
G1 X206.484 Y174.169 E20.48333
G1 X206.903 Y175.33 E20.52951
G1 X206.975 Y175.589 E20.53957
G1 X207.213 Y176.729 E20.58315
G1 X207.249 Y176.983 E20.59275
G1 X207.329 Y178.328 E20.64316
G1 X207.313 Y178.969 E20.66716
G1 X207.291 Y179.273 E20.67856
G1 X207.116 Y180.47 E20.72382
G1 X206.977 Y181.074 E20.74702
G1 X206.781 Y181.736 E20.77285
G1 X206.566 Y182.324 E20.79628
G1 X206.225 Y183.077 E20.82721
G1 X205.906 Y183.667 E20.8523
G1 X206.161 Y184.009 E20.86826
G1 X206.601 Y184.78 E20.90148
G1 X206.929 Y185.57 E20.93349
G1 X207.188 Y186.534 E20.97084
G1 X207.325 Y187.781 E21.01778
G1 X207.299 Y189.163 E21.0695
G1 X207.173 Y190.051 E21.10306
G1 X207.007 Y190.684 E21.12754
G1 X206.7 Y191.492 E21.15989
G1 X206.081 Y192.591 E21.20708
G1 X205.517 Y193.301 E21.24101
G1 X204.77 Y194.022 E21.27986
G1 X203.962 Y194.604 E21.31712
G1 X203.619 Y194.797 E21.33184
G1 X202.64 Y195.23 E21.3719
G1 X202.14 Y195.384 E21.39147
G1 X201.511 Y195.515 E21.41552
G1 X200.356 Y195.623 E21.45892
G1 X189.699 Y195.615 E21.85768
G1 X189.679 Y199.606 E22.00702
G1 X189.534 Y200.647 E22.04635
G1 X189.385 Y201.261 E22.06999
G1 X189.173 Y201.884 E22.09461
G1 X188.356 Y203.455 E22.16087
G1 X187.817 Y204.168 E22.19431
G1 X187.398 Y204.617 E22.21729
G1 X186.61 Y205.287 E22.25599
G1 X185.888 Y205.761 E22.28831
G1 X184.716 Y206.319 E22.33688
G1 X183.796 Y206.599 E22.37286
G1 X183.255 Y206.707 E22.39351
G1 X182.084 Y206.813 E22.4375
G1 X167.491 Y206.77 E22.98354
G1 X166.575 Y206.627 E23.01823
G1 X165.833 Y206.424 E23.04701
G1 X164.875 Y206.043 E23.08559
G1 X164.459 Y205.828 E23.10311
G1 X163.647 Y205.297 E23.13942
G1 X163.059 Y204.817 E23.16782
G1 X162.391 Y204.13 E23.20367
G1 X161.904 Y203.485 E23.23391
G1 X161.419 Y202.656 E23.26985
G1 X160.954 Y201.531 E23.3154
G1 X160.673 Y200.418 E23.35835
G1 X160.561 Y199.524 E23.39206
G1 X160.554 Y199.116 E23.40733
G1 X151.528 Y199.079 E23.74507
G1 X150.662 Y198.944 E23.77786
G1 X150.011 Y198.772 E23.80306
G1 X149.32 Y198.504 E23.83079
G1 X148.287 Y197.937 E23.87488
G1 X147.541 Y197.365 E23.91006
G1 X146.922 Y196.752 E23.94265
G1 X146.234 Y195.842 E23.98534
G1 X145.901 Y195.24 E24.01108
G1 X145.567 Y194.429 E24.0439
G1 X145.239 Y193.129 E24.09407
G1 X145.18 Y192.565 E24.11529
G1 X145.164 Y186.838 E24.32958
G1 X144.294 Y185.979 E24.37533
G1 X143.829 Y185.361 E24.40426
G1 X143.387 Y184.577 E24.43794
G1 X143.003 Y183.622 E24.47645
G1 X142.818 Y182.929 E24.50329
G1 X142.675 Y181.807 E24.54562
G1 X142.665 Y170.573 E24.96597
G1 X142.843 Y169.168 E25.01896
G1 X142.995 Y168.607 E25.04071
G1 X143.304 Y167.815 E25.07252
G1 X143.882 Y166.781 E25.11684
G1 X144.417 Y166.091 E25.14951
G1 X145.03 Y165.472 E25.18211
G1 X145.786 Y164.886 E25.2179
G1 X146.521 Y164.465 E25.24959
G1 X147.534 Y164.053 E25.29051
G1 X148.227 Y163.868 E25.31735
G1 X149.339 Y163.726 E25.3593
G1 X160.561 Y163.713 E25.7792
G1 X160.606 Y147.335 E26.39203
G1 X160.763 Y146.331 E26.43005
G1 X160.901 Y145.806 E26.45036
G1 X161.182 Y145.066 E26.47998
G1 X161.733 Y144.058 E26.52296
G1 X162.234 Y143.389 E26.55424
G0 F7200 X162.594 Y143.659
G1 F1800 X163.477 Y142.793 E26.60052
G1 X164.045 Y142.387 E26.62664
G1 X164.766 Y141.992 E26.6574
G1 X165.892 Y141.578 E26.70229
G1 X166.474 Y141.451 E26.72458
G1 X167.498 Y141.354 E26.76307
G1 X183.245 Y141.391 E27.35228
G1 X184.111 Y141.526 E27.38508
G1 X184.668 Y141.673 E27.40664
G1 X185.359 Y141.941 E27.43437
G1 X186.337 Y142.482 E27.47619
G1 X186.984 Y142.98 E27.50674
G1 X187.603 Y143.593 E27.53933
G1 X188.215 Y144.402 E27.57729
G1 X188.526 Y144.959 E27.60116
G1 X188.839 Y145.707 E27.6315
G1 X189.155 Y146.943 E27.67924
G1 X189.214 Y147.507 E27.70046
G1 X189.228 Y154.931 E27.97825
G1 X196.758 Y154.923 E28.26
G1 X197.565 Y154.961 E28.29023
G1 X197.831 Y154.988 E28.30023
G1 X199.002 Y155.195 E28.34473
G1 X199.477 Y155.318 E28.36309
G1 X200.204 Y155.561 E28.39177
G1 X200.912 Y155.854 E28.42044
G1 X201.581 Y156.189 E28.44844
