;FLAVOR:Marlin
;TIME:1778
;Filament used: 1.769m
;Layer height: 0.2
;MINX:141.727
;MINY:140.025
;MINZ:0.2
;MAXX:208.238
;MAXY:207.736
;MAXZ:14.6
;TARGET_MACHINE.NAME:VORON2 350
;POSTPROCESSED
;  [CreateThumbnail]
;  [CreateThumbnail]
;  [InsertAtLayerChange]
;Generated with Cura_SteamEngine 5.8.0


; Pre-Processed for Cancel-Object support by preprocess_cancellation v0.2.0
; 3 known objects
EXCLUDE_OBJECT_DEFINE NAME=LOCK_1_STL CENTER=157.081,174.385 POLYGON=[[149.796,156.72],[149.796,193.332],[164.396,193.332],[164.396,156.72]]
EXCLUDE_OBJECT_DEFINE NAME=LOCK_2_STL CENTER=175.178,188.686 POLYGON=[[166.328,148.075],[166.328,201.9],[183.917,201.9],[183.917,148.075]]
EXCLUDE_OBJECT_DEFINE NAME=LOCK_3_STL CENTER=192.811,175.206 POLYGON=[[185.764,161.636],[185.764,188.436],[200.164,188.436],[200.164,161.636]]
M82 ;absolute extrusion mode
;Nozzle diameter = 0.4
;Filament type = ABS
;Filament name = ABS+ Black
;Filament weight = [4.680433935546875]
; M190 S100
; M109 S240
PRINT_START BED_TEMP=100 EXTRUDER_TEMP=240
M141 S40
G92 E0
G92 E0
G1 F1800 E-0.75
;LAYER_COUNT:73
TIMELAPSE_TAKE_FRAME
;LAYER:0
M107
G1 F600 Z0.4
G0 F7200 X161.644 Y142.721 Z0.4
;TYPE:SKIRT
G1 F600 Z0.2
G1 F720 E0
G1 F1800 X162.512 Y141.868 E0.04554
G1 X163.246 Y141.324 E0.07972
G1 X164.567 Y140.628 E0.13559
G1 X165.425 Y140.333 E0.16954
G1 X166.556 Y140.093 E0.2128
G1 X166.985 Y140.049 E0.22894
G1 X182.704 Y140.025 E0.81711
G1 X184.228 Y140.194 E0.87448
G1 X185.026 Y140.394 E0.90526
G1 X185.859 Y140.712 E0.93863
G1 X186.902 Y141.269 E0.98287
G1 X187.843 Y141.969 E1.02675
G1 X188.819 Y142.964 E1.07891
G1 X189.325 Y143.658 E1.11104
G1 X189.699 Y144.313 E1.13927
G1 X190.105 Y145.271 E1.1782
G1 X190.499 Y146.825 E1.23818
G1 X190.558 Y147.389 E1.2594
G1 X190.575 Y153.57 E1.49068
G1 X196.766 Y153.563 E1.72234
G1 X197.763 Y153.617 E1.7597
G1 X198.31 Y153.681 E1.7803
G1 X199.19 Y153.845 E1.8138
G1 X200.134 Y154.092 E1.85031
G1 X200.394 Y154.177 E1.86054
G1 X201.543 Y154.642 E1.90692
G1 X202.039 Y154.886 E1.92761
G1 X203.048 Y155.48 E1.97142
G1 X203.501 Y155.794 E1.99204
G1 X204.138 Y156.299 E2.02246
G1 X204.918 Y157.015 E2.06208
G1 X205.154 Y157.261 E2.07483
G1 X205.891 Y158.143 E2.11784
G1 X206.199 Y158.569 E2.13751
G1 X206.772 Y159.489 E2.17806
G1 X207.006 Y159.93 E2.19674
G1 X207.365 Y160.728 E2.22949
G1 X207.78 Y161.88 E2.2753
G1 X207.866 Y162.195 E2.28752
G1 X208.104 Y163.335 E2.3311
G1 X208.153 Y163.683 E2.34425
G1 X208.238 Y165.141 E2.39889
G1 X208.22 Y165.825 E2.4245
G1 X208.195 Y166.16 E2.43707
G1 X208.009 Y167.456 E2.48606
G1 X207.944 Y167.754 E2.49747
G1 X207.595 Y168.963 E2.54455
G1 X207.479 Y169.28 E2.55718
G1 X206.967 Y170.419 E2.60391
G1 X206.687 Y170.935 E2.62588
G1 X206.173 Y171.734 E2.66143
G1 X206.772 Y172.689 E2.70361
G1 X207.006 Y173.13 E2.72229
G1 X207.365 Y173.928 E2.75503
G1 X207.78 Y175.08 E2.80085
G1 X207.866 Y175.395 E2.81306
G1 X208.104 Y176.535 E2.85664
G1 X208.153 Y176.883 E2.86979
G1 X208.238 Y178.341 E2.92444
G1 X208.22 Y179.025 E2.95004
G1 X208.195 Y179.36 E2.96261
G1 X208.009 Y180.656 E3.0116
G1 X207.944 Y180.954 E3.02301
G1 X207.595 Y182.163 E3.0701
G1 X207.479 Y182.48 E3.08273
G1 X206.977 Y183.596 E3.12852
G1 X207.418 Y184.375 E3.16201
G1 X207.808 Y185.326 E3.20047
G1 X208.067 Y186.29 E3.23782
G1 X208.234 Y187.798 E3.29459
G1 X208.192 Y189.39 E3.35418
G1 X208.101 Y190.026 E3.37822
G1 X207.88 Y190.923 E3.41279
G1 X207.48 Y191.949 E3.45399
G1 X206.828 Y193.095 E3.50333
G1 X206.257 Y193.826 E3.53804
G1 X205.521 Y194.563 E3.57701
G1 X204.765 Y195.149 E3.6128
G1 X203.816 Y195.692 E3.65371
G1 X202.697 Y196.14 E3.69881
G1 X202.004 Y196.325 E3.72565
G1 X200.662 Y196.497 E3.77628
G1 X190.586 Y196.51 E4.1533
G1 X190.565 Y199.809 E4.27674
G1 X190.345 Y201.205 E4.32962
G1 X190.185 Y201.77 E4.35159
G1 X189.841 Y202.634 E4.38639
G1 X189.138 Y203.928 E4.44149
G1 X188.689 Y204.549 E4.47017
G1 X187.897 Y205.405 E4.5138
G1 X187.187 Y206.001 E4.54849
G1 X186.328 Y206.566 E4.58696
G1 X184.978 Y207.204 E4.64283
G1 X184.058 Y207.484 E4.67881
G1 X183.336 Y207.626 E4.70635
G1 X182.082 Y207.736 E4.75345
G1 X167.421 Y207.688 E5.30203
G1 X166.336 Y207.518 E5.34313
G1 X165.5 Y207.283 E5.37562
G1 X164.459 Y206.865 E5.41759
G1 X164.004 Y206.627 E5.43681
G1 X163.076 Y206.017 E5.47836
G1 X162.413 Y205.468 E5.51057
G1 X161.745 Y204.781 E5.54642
G1 X161.156 Y204.006 E5.58285
G1 X160.586 Y203.021 E5.62543
G1 X160.081 Y201.773 E5.67581
G1 X159.779 Y200.552 E5.72287
G1 X159.713 Y200.015 E5.74311
G1 X151.374 Y199.976 E6.05514
G1 X150.463 Y199.834 E6.08964
G1 X149.541 Y199.58 E6.12543
G1 X148.773 Y199.264 E6.1565
G1 X147.686 Y198.651 E6.20319
G1 X147.221 Y198.309 E6.22479
G1 X146.032 Y197.138 E6.28724
G1 X145.408 Y196.279 E6.32696
G1 X145.075 Y195.677 E6.35271
G1 X144.656 Y194.649 E6.39424
G1 X144.305 Y193.224 E6.44916
G1 X144.246 Y192.66 E6.47038
G1 X144.228 Y187.214 E6.67415
G1 X143.536 Y186.522 E6.71077
G1 X143.071 Y185.904 E6.73971
G1 X142.513 Y184.914 E6.78223
G1 X142.129 Y183.959 E6.82075
G1 X141.911 Y183.164 E6.85159
G1 X141.737 Y181.808 E6.90275
G1 X141.727 Y170.574 E7.3231
G1 X141.937 Y168.932 E7.38504
G1 X142.119 Y168.279 E7.4104
G1 X142.454 Y167.431 E7.44452
G1 X143.133 Y166.229 E7.49617
G1 X143.704 Y165.498 E7.53088
G1 X144.44 Y164.761 E7.56986
G1 X145.198 Y164.174 E7.60573
G1 X146.145 Y163.631 E7.64657
G1 X147.262 Y163.182 E7.69162
G1 X147.951 Y162.997 E7.71831
G1 X149.238 Y162.831 E7.76687
G1 X159.663 Y162.819 E8.15695
G1 X159.716 Y147.218 E8.74071
G1 X159.873 Y146.214 E8.77873
G1 X160.06 Y145.507 E8.80609
G1 X160.39 Y144.661 E8.84007
G1 X160.908 Y143.705 E8.88076
G1 X161.644 Y142.721 E8.92674
G0 F7200 X162.003 Y142.992
G1 F1800 X162.78 Y142.23 E8.96746
G1 X163.514 Y141.686 E9.00164
G1 X164.713 Y141.054 E9.05236
G1 X165.571 Y140.759 E9.08631
G1 X166.602 Y140.541 E9.12574
G1 X167.031 Y140.497 E9.14187
G1 X182.705 Y140.475 E9.72836
G1 X184.178 Y140.641 E9.78382
G1 X184.867 Y140.815 E9.81041
G1 X185.647 Y141.109 E9.8416
G1 X186.69 Y141.666 E9.88585
G1 X187.523 Y142.285 E9.92468
G1 X188.456 Y143.23 E9.97437
G1 X188.934 Y143.881 E10.00459
G1 X189.308 Y144.536 E10.03281
G1 X189.69 Y145.445 E10.0697
G1 X190.051 Y146.872 E10.12478
G1 X190.11 Y147.436 E10.146
G1 X190.126 Y154.02 E10.39236
G1 X196.766 Y154.013 E10.64081
G1 X197.711 Y154.064 E10.67622
G1 X198.258 Y154.128 E10.69683
G1 X199.076 Y154.28 E10.72796
G1 X199.994 Y154.52 E10.76347
G1 X200.254 Y154.605 E10.7737
G1 X201.344 Y155.046 E10.8177
G1 X201.84 Y155.29 E10.83838
G1 X202.792 Y155.85 E10.87971
G1 X203.221 Y156.147 E10.89923
G1 X203.858 Y156.652 E10.92965
G1 X204.593 Y157.327 E10.96699
G1 X204.829 Y157.573 E10.97974
G1 X205.526 Y158.407 E11.02041
G1 X205.834 Y158.833 E11.04008
G1 X206.374 Y159.7 E11.0783
G1 X206.608 Y160.141 E11.09698
G1 X206.954 Y160.912 E11.1286
G1 X207.346 Y161.999 E11.17184
G1 X207.425 Y162.287 E11.18301
G1 X207.663 Y163.427 E11.22659
G1 X207.704 Y163.71 E11.23729
G1 X207.788 Y165.129 E11.29048
G1 X207.771 Y165.792 E11.3153
G1 X207.746 Y166.127 E11.32786
G1 X207.569 Y167.36 E11.37447
G1 X207.504 Y167.658 E11.38589
G1 X207.172 Y168.808 E11.43067
G1 X207.056 Y169.125 E11.4433
G1 X206.571 Y170.204 E11.48757
G1 X206.291 Y170.72 E11.50954
G1 X205.866 Y171.392 E11.53929
G1 X205.617 Y171.732 E11.55506
G1 X205.834 Y172.033 E11.56894
G1 X206.374 Y172.9 E11.60716
G1 X206.608 Y173.341 E11.62584
G1 X206.954 Y174.112 E11.65746
G1 X207.346 Y175.199 E11.7007
G1 X207.425 Y175.487 E11.71187
G1 X207.663 Y176.627 E11.75545
G1 X207.704 Y176.91 E11.76615
G1 X207.788 Y178.329 E11.81934
G1 X207.771 Y178.992 E11.84415
G1 X207.746 Y179.327 E11.85672
G1 X207.569 Y180.56 E11.90333
G1 X207.504 Y180.858 E11.91474
G1 X207.172 Y182.008 E11.95953
G1 X207.056 Y182.325 E11.97216
G1 X206.571 Y183.404 E12.01643
G1 X206.452 Y183.624 E12.02579
G1 X206.561 Y183.776 E12.03278
G1 X207.026 Y184.597 E12.06809
G1 X207.373 Y185.443 E12.1023
G1 X207.632 Y186.407 E12.13965
G1 X207.784 Y187.786 E12.19157
G1 X207.742 Y189.378 E12.25115
G1 X207.664 Y189.918 E12.27157
G1 X207.443 Y190.815 E12.30614
G1 X207.088 Y191.728 E12.34279
G1 X206.473 Y192.818 E12.38962
G1 X205.902 Y193.549 E12.42433
G1 X205.245 Y194.207 E12.45912
G1 X204.489 Y194.793 E12.49491
G1 X203.648 Y195.275 E12.53118
G1 X202.581 Y195.705 E12.57423
G1 X201.888 Y195.89 E12.60107
G1 X200.661 Y196.047 E12.64735
G1 X190.139 Y196.061 E13.04106
G1 X190.115 Y199.806 E13.18119
G1 X189.912 Y201.082 E13.22954
G1 X189.752 Y201.647 E13.25151
G1 X189.445 Y202.42 E13.28263
G1 X188.773 Y203.664 E13.33554
G1 X188.324 Y204.285 E13.36421
G1 X187.608 Y205.06 E13.40369
G1 X186.898 Y205.656 E13.43838
G1 X186.135 Y206.16 E13.47259
G1 X184.847 Y206.773 E13.52597
G1 X183.927 Y207.053 E13.56195
G1 X183.296 Y207.178 E13.58602
G1 X182.083 Y207.286 E13.63159
G1 X167.422 Y207.238 E14.18017
G1 X166.456 Y207.084 E14.21677
G1 X165.667 Y206.865 E14.24741
G1 X164.668 Y206.466 E14.28766
G1 X164.213 Y206.228 E14.30687
G1 X163.362 Y205.669 E14.34497
G1 X162.736 Y205.154 E14.3753
G1 X162.068 Y204.467 E14.41116
G1 X161.545 Y203.779 E14.44349
G1 X161.003 Y202.851 E14.48371
G1 X160.518 Y201.664 E14.53169
G1 X160.226 Y200.497 E14.5767
G1 X160.112 Y199.567 E14.61176
G1 X151.376 Y199.526 E14.93864
G1 X150.581 Y199.4 E14.96876
G1 X149.711 Y199.163 E15.0025
G1 X148.993 Y198.871 E15.0315
G1 X147.953 Y198.288 E15.07611
G1 X147.488 Y197.946 E15.09771
G1 X146.395 Y196.872 E15.15505
G1 X145.802 Y196.061 E15.19264
G1 X145.469 Y195.459 E15.21838
G1 X145.093 Y194.54 E15.25554
G1 X144.753 Y193.177 E15.3081
G1 X144.694 Y192.613 E15.32932
G1 X144.677 Y187.027 E15.53834
G1 X143.896 Y186.251 E15.57953
G1 X143.431 Y185.633 E15.60847
G1 X142.931 Y184.746 E15.64657
G1 X142.547 Y183.791 E15.68508
G1 X142.345 Y183.046 E15.71397
G1 X142.187 Y181.808 E15.76067
G1 X142.177 Y170.574 E16.18102
G1 X142.371 Y169.051 E16.23846
G1 X142.538 Y168.444 E16.26202
G1 X142.873 Y167.596 E16.29614
G1 X143.488 Y166.506 E16.34296
G1 X144.059 Y165.775 E16.37767
G1 X144.716 Y165.117 E16.41247
G1 X145.474 Y164.53 E16.44834
G1 X146.314 Y164.048 E16.48458
G1 X147.379 Y163.617 E16.52757
G1 X148.068 Y163.432 E16.55426
G1 X149.238 Y163.281 E16.5984
G1 X160.112 Y163.269 E17.00528
G1 X160.161 Y147.288 E17.60325
G1 X160.318 Y146.284 E17.64128
G1 X160.48 Y145.669 E17.66508
G1 X160.786 Y144.875 E17.69692
G1 X161.304 Y143.919 E17.7376
G1 X162.003 Y142.992 E17.78104
G0 F7200 X162.319 Y143.312
G1 F1800 X163.048 Y142.592 E17.81938
G1 X163.782 Y142.048 E17.85357
G1 X164.861 Y141.479 E17.89921
G1 X165.665 Y141.199 E17.93107
G1 X166.648 Y140.989 E17.96868
G1 X167.077 Y140.945 E17.98481
G1 X182.706 Y140.925 E18.56961
G1 X184.07 Y141.078 E18.62097
G1 X184.71 Y141.237 E18.64565
G1 X185.435 Y141.506 E18.67458
G1 X186.478 Y142.063 E18.71883
G1 X187.253 Y142.645 E18.75509
G1 X188.094 Y143.498 E18.79991
G1 X188.544 Y144.106 E18.82822
G1 X188.893 Y144.71 E18.85432
G1 X189.275 Y145.619 E18.89121
G1 X189.603 Y146.919 E18.94138
G1 X189.662 Y147.483 E18.9626
G1 X189.677 Y154.471 E19.22407
G1 X196.767 Y154.463 E19.48936
G1 X197.659 Y154.511 E19.52279
G1 X198.206 Y154.575 E19.5434
G1 X198.962 Y154.715 E19.57216
G1 X199.854 Y154.948 E19.60666
G1 X200.114 Y155.033 E19.6169
G1 X201.145 Y155.45 E19.65851
G1 X201.641 Y155.694 E19.67919
G1 X202.536 Y156.22 E19.71804
G1 X202.941 Y156.5 E19.73646
G1 X203.578 Y157.005 E19.76688
G1 X204.268 Y157.639 E19.80194
G1 X204.504 Y157.885 E19.81469
G1 X205.161 Y158.671 E19.85303
G1 X205.469 Y159.097 E19.8727
G1 X205.976 Y159.911 E19.90858
G1 X206.21 Y160.352 E19.92726
G1 X206.531 Y161.065 E19.95652
G1 X206.912 Y162.12 E19.99849
G1 X206.984 Y162.379 E20.00855
G1 X207.222 Y163.519 E20.05212
G1 X207.258 Y163.773 E20.06172
G1 X207.338 Y165.118 E20.11214
G1 X207.322 Y165.759 E20.13613
G1 X207.297 Y166.094 E20.1487
G1 X207.129 Y167.264 E20.19293
G1 X207.064 Y167.562 E20.20434
G1 X206.749 Y168.653 E20.24683
G1 X206.633 Y168.97 E20.25946
G1 X206.175 Y169.989 E20.30126
G1 X205.895 Y170.505 E20.32323
G1 X205.486 Y171.151 E20.35184
G1 X205.052 Y171.74 E20.37921
G1 X205.161 Y171.871 E20.38559
G1 X205.469 Y172.297 E20.40526
G1 X205.976 Y173.111 E20.44114
G1 X206.21 Y173.552 E20.45982
G1 X206.531 Y174.265 E20.48908
G1 X206.912 Y175.32 E20.53105
G1 X206.984 Y175.579 E20.54111
G1 X207.222 Y176.719 E20.58469
G1 X207.258 Y176.973 E20.59429
G1 X207.338 Y178.318 E20.6447
G1 X207.322 Y178.959 E20.66869
G1 X207.297 Y179.294 E20.68126
G1 X207.129 Y180.464 E20.72549
G1 X207.064 Y180.762 E20.7369
G1 X206.749 Y181.853 E20.77939
G1 X206.633 Y182.17 E20.79203
G1 X206.175 Y183.189 E20.83383
G1 X205.919 Y183.661 E20.85392
G1 X206.17 Y183.999 E20.86967
G1 X206.61 Y184.77 E20.90289
G1 X206.938 Y185.56 E20.9349
G1 X207.197 Y186.524 E20.97225
G1 X207.334 Y187.775 E21.01933
G1 X207.296 Y189.316 E21.07701
G1 X207.227 Y189.81 E21.09568
G1 X207.006 Y190.707 E21.13024
G1 X206.695 Y191.508 E21.16239
G1 X206.117 Y192.542 E21.20672
G1 X205.582 Y193.232 E21.23939
G1 X204.969 Y193.851 E21.27199
G1 X204.213 Y194.437 E21.30778
G1 X203.478 Y194.858 E21.33947
G1 X202.465 Y195.27 E21.38039
G1 X201.772 Y195.455 E21.40723
G1 X200.66 Y195.597 E21.44917
G1 X189.691 Y195.612 E21.85961
G1 X189.67 Y199.736 E22.01392
G1 X189.478 Y200.961 E22.06032
G1 X189.333 Y201.482 E22.08055
G1 X189.048 Y202.207 E22.1097
G1 X188.408 Y203.4 E22.16036
G1 X187.959 Y204.021 E22.18903
G1 X187.319 Y204.715 E22.22436
G1 X186.609 Y205.311 E22.25904
G1 X185.888 Y205.784 E22.29131
G1 X184.716 Y206.342 E22.33988
G1 X183.796 Y206.622 E22.37586
G1 X183.255 Y206.73 E22.3965
G1 X182.084 Y206.836 E22.4405
G1 X167.491 Y206.793 E22.98654
G1 X166.575 Y206.65 E23.02123
G1 X165.833 Y206.447 E23.05001
G1 X164.875 Y206.066 E23.08859
G1 X164.459 Y205.851 E23.10611
G1 X163.647 Y205.32 E23.14241
G1 X163.059 Y204.84 E23.17081
G1 X162.391 Y204.153 E23.20667
G1 X161.904 Y203.508 E23.23691
G1 X161.419 Y202.679 E23.27285
G1 X160.954 Y201.554 E23.3184
G1 X160.673 Y200.441 E23.36135
G1 X160.561 Y199.547 E23.39506
G1 X160.554 Y199.119 E23.41108
G1 X151.445 Y199.081 E23.75192
G1 X150.698 Y198.965 E23.78021
G1 X149.881 Y198.746 E23.81186
G1 X149.163 Y198.454 E23.84086
G1 X148.22 Y197.925 E23.88132
G1 X147.755 Y197.583 E23.90291
G1 X146.757 Y196.605 E23.9552
G1 X146.196 Y195.843 E23.9906
G1 X145.863 Y195.241 E24.01635
G1 X145.529 Y194.43 E24.04916
G1 X145.201 Y193.13 E24.09933
G1 X145.142 Y192.566 E24.12055
G1 X145.126 Y186.839 E24.33484
G1 X144.256 Y185.98 E24.38059
G1 X143.791 Y185.362 E24.40953
G1 X143.349 Y184.578 E24.4432
G1 X142.965 Y183.623 E24.48172
G1 X142.78 Y182.93 E24.50856
G1 X142.637 Y181.808 E24.55088
G1 X142.627 Y170.574 E24.97123
G1 X142.805 Y169.169 E25.02422
G1 X142.957 Y168.608 E25.04597
G1 X143.266 Y167.816 E25.07778
G1 X143.844 Y166.782 E25.1221
G1 X144.379 Y166.092 E25.15477
G1 X144.992 Y165.473 E25.18737
G1 X145.75 Y164.886 E25.22324
G1 X146.536 Y164.439 E25.25708
G1 X147.496 Y164.052 E25.29581
G1 X148.185 Y163.867 E25.3225
G1 X149.239 Y163.731 E25.36227
G1 X160.561 Y163.718 E25.78591
G1 X160.606 Y147.358 E26.39807
G1 X160.763 Y146.354 E26.43609
G1 X160.901 Y145.829 E26.4564
G1 X161.182 Y145.089 E26.48602
G1 X161.7 Y144.133 E26.5267
G1 X162.319 Y143.312 E26.56518
G0 F7200 X162.637 Y143.631
G1 F1800 X163.316 Y142.954 E26.60105
G1 X164.05 Y142.41 E26.63524
G1 X165.011 Y141.903 E26.6759
G1 X165.76 Y141.639 E26.70561
G1 X166.694 Y141.437 E26.74137
G1 X167.123 Y141.393 E26.7575
G1 X182.707 Y141.375 E27.34062
G1 X184.019 Y141.525 E27.39003
G1 X184.556 Y141.66 E27.41075
G1 X185.223 Y141.903 E27.43731
G1 X186.266 Y142.46 E27.48156
G1 X186.934 Y142.962 E27.51282
G1 X187.733 Y143.767 E27.55526
G1 X188.154 Y144.331 E27.5816
G1 X188.503 Y144.935 E27.6077
G1 X188.839 Y145.73 E27.63999
G1 X189.155 Y146.966 E27.68773
G1 X189.214 Y147.53 E27.70895
G1 X189.228 Y154.921 E27.9855
G1 X196.767 Y154.913 E28.26759
G1 X197.607 Y154.958 E28.29907
G1 X198.125 Y155.018 E28.31858
G1 X198.849 Y155.151 E28.34613
G1 X199.714 Y155.376 E28.37957
G1 X199.974 Y155.461 E28.3898
G1 X200.946 Y155.854 E28.42903
G1 X201.442 Y156.098 E28.44972
G1 X202.28 Y156.59 E28.48608
G1 X202.661 Y156.853 E28.5034
G1 X203.298 Y157.358 E28.53382
G1 X203.943 Y157.951 E28.5666
G1 X204.179 Y158.197 E28.57936
G1 X204.796 Y158.935 E28.61535
