;FLAVOR:Marlin
;TIME:1770
;Filament used: 1.76314m
;Layer height: 0.2
;MINX:141.691
;MINY:140.071
;MINZ:0.2
;MAXX:208.273
;MAXY:207.782
;MAXZ:14.4
;TARGET_MACHINE.NAME:VORON2 350
;POSTPROCESSED
;  [CreateThumbnail]
;  [CreateThumbnail]
;  [InsertAtLayerChange]
;Generated with Cura_SteamEngine 5.8.0
;
;

;
;



; Pre-Processed for Cancel-Object support by preprocess_cancellation v0.2.0
; 3 known objects
EXCLUDE_OBJECT_DEFINE NAME=LOCK_1_STL CENTER=157.077,174.257 POLYGON=[[149.76,156.712],[149.76,193.312],[164.356,193.312],[164.356,156.712]]
EXCLUDE_OBJECT_DEFINE NAME=LOCK_2_STL CENTER=175.258,188.733 POLYGON=[[166.336,148.119],[166.336,201.944],[183.921,201.944],[183.921,148.119]]
EXCLUDE_OBJECT_DEFINE NAME=LOCK_3_STL CENTER=192.992,174.958 POLYGON=[[185.8,161.588],[185.8,188.388],[200.2,188.388],[200.2,161.588]]
M82 ;absolute extrusion mode
;Nozzle diameter = 0.4
;Filament type = ABS
;Filament name = ABS+ Black
;Filament weight = [4.6649302734375]
; M190 S100
; M109 S240
PRINT_START BED_TEMP=100 EXTRUDER_TEMP=240
M141 S40
G92 E0
G92 E0
G1 F1800 E-0.75
;LAYER_COUNT:72
TIMELAPSE_TAKE_FRAME
;LAYER:0
M107
G1 F600 Z0.4
G0 F7200 X144.404 Y150.589 Z0.4
;TYPE:SKIRT
G1 F600 Z0.2
G1 F720 E0
G1 F1800 X145.162 Y150.002 E0.03587
G1 X146.054 Y149.486 E0.07443
G1 X147.237 Y149.009 E0.12216
G1 X148.131 Y148.781 E0.15668
G1 X148.829 Y148.683 E0.18306
G1 X159.698 Y148.651 E0.58975
G1 X159.721 Y147.26 E0.6418
G1 X159.878 Y146.26 E0.67968
G1 X160.065 Y145.553 E0.70704
G1 X160.395 Y144.707 E0.74102
G1 X160.913 Y143.751 E0.78171
G1 X161.649 Y142.767 E0.82769
G1 X162.517 Y141.914 E0.87322
G1 X163.251 Y141.37 E0.90741
G1 X164.572 Y140.674 E0.96328
G1 X165.43 Y140.379 E0.99723
G1 X166.561 Y140.139 E1.04049
G1 X166.99 Y140.095 E1.05663
G1 X182.709 Y140.071 E1.64479
G1 X184.233 Y140.24 E1.70217
G1 X185.031 Y140.44 E1.73295
G1 X185.864 Y140.758 E1.76631
G1 X186.907 Y141.315 E1.81056
G1 X187.848 Y142.015 E1.85444
G1 X188.824 Y143.01 E1.90659
G1 X189.33 Y143.704 E1.93873
G1 X189.704 Y144.359 E1.96695
G1 X190.11 Y145.317 E2.00588
G1 X190.504 Y146.871 E2.06587
G1 X190.563 Y147.435 E2.08709
G1 X190.581 Y153.52 E2.31478
G1 X196.822 Y153.513 E2.5483
G1 X197.744 Y153.557 E2.58284
G1 X198.01 Y153.584 E2.59284
G1 X199.385 Y153.827 E2.64509
G1 X199.86 Y153.95 E2.66345
G1 X200.721 Y154.236 E2.6974
G1 X201.369 Y154.501 E2.72359
G1 X202.388 Y155.012 E2.76625
G1 X203.056 Y155.412 E2.79538
G1 X203.536 Y155.744 E2.81722
G1 X204.173 Y156.249 E2.84764
G1 X204.953 Y156.965 E2.88725
G1 X205.189 Y157.211 E2.90001
G1 X205.946 Y158.118 E2.94421
G1 X206.217 Y158.493 E2.96153
G1 X206.667 Y159.212 E2.99326
G1 X207.235 Y160.28 E3.03853
G1 X207.352 Y160.545 E3.04937
G1 X207.815 Y161.83 E3.10047
G1 X207.901 Y162.145 E3.11269
G1 X208.139 Y163.285 E3.15627
G1 X208.188 Y163.633 E3.16942
G1 X208.273 Y165.091 E3.22406
G1 X208.255 Y165.773 E3.24959
G1 X208.233 Y166.077 E3.261
G1 X208.038 Y167.412 E3.31148
G1 X207.899 Y168.016 E3.33467
G1 X207.671 Y168.786 E3.36472
G1 X207.456 Y169.374 E3.38814
G1 X207.089 Y170.188 E3.42155
G1 X206.705 Y170.901 E3.45186
G1 X206.207 Y171.68 E3.48645
G1 X206.667 Y172.412 E3.5188
G1 X207.235 Y173.48 E3.56406
G1 X207.352 Y173.745 E3.5749
G1 X207.815 Y175.03 E3.62601
G1 X207.901 Y175.345 E3.63823
G1 X208.139 Y176.485 E3.6818
G1 X208.188 Y176.833 E3.69495
G1 X208.273 Y178.291 E3.7496
G1 X208.255 Y178.973 E3.77513
G1 X208.233 Y179.277 E3.78653
G1 X208.038 Y180.612 E3.83702
G1 X207.899 Y181.216 E3.86021
G1 X207.671 Y181.986 E3.89026
G1 X207.456 Y182.574 E3.91368
G1 X207.089 Y183.388 E3.94709
G1 X207.008 Y183.54 E3.95354
G1 X207.453 Y184.325 E3.9873
G1 X207.843 Y185.276 E4.02576
G1 X208.102 Y186.24 E4.06311
G1 X208.269 Y187.738 E4.11951
G1 X208.235 Y189.229 E4.17531
G1 X208.109 Y190.118 E4.20891
G1 X207.879 Y190.977 E4.24218
G1 X207.422 Y192.095 E4.28738
G1 X206.791 Y193.152 E4.33344
G1 X206.331 Y193.729 E4.36105
G1 X205.102 Y194.884 E4.42416
G1 X204.466 Y195.314 E4.45288
G1 X203.549 Y195.784 E4.49144
G1 X202.622 Y196.124 E4.52839
G1 X201.671 Y196.342 E4.56489
G1 X200.4 Y196.463 E4.61267
G1 X190.59 Y196.455 E4.97973
G1 X190.556 Y200.029 E5.11347
G1 X190.415 Y200.93 E5.14759
G1 X189.983 Y202.378 E5.20413
G1 X189.612 Y203.197 E5.23778
G1 X189.32 Y203.711 E5.2599
G1 X188.706 Y204.575 E5.29956
G1 X188.031 Y205.325 E5.33731
G1 X187.061 Y206.143 E5.38479
G1 X186.278 Y206.643 E5.41955
G1 X184.983 Y207.25 E5.47307
G1 X184.063 Y207.53 E5.50905
G1 X183.341 Y207.672 E5.53658
G1 X182.086 Y207.782 E5.58372
G1 X167.336 Y207.731 E6.13564
G1 X166.711 Y207.643 E6.15925
G1 X165.65 Y207.383 E6.20013
G1 X164.947 Y207.126 E6.22814
G1 X163.973 Y206.639 E6.26888
G1 X162.931 Y205.942 E6.31579
G1 X162.343 Y205.434 E6.34486
G1 X161.143 Y204.02 E6.41426
G1 X160.598 Y203.109 E6.45398
G1 X160.343 Y202.564 E6.47649
G1 X160.013 Y201.639 E6.51324
G1 X159.901 Y201.207 E6.52994
G1 X159.742 Y200 E6.57549
G1 X151.337 Y199.961 E6.88999
G1 X150.426 Y199.819 E6.92449
G1 X149.504 Y199.565 E6.96028
G1 X148.736 Y199.249 E6.99135
G1 X147.649 Y198.636 E7.03805
G1 X147.184 Y198.294 E7.05964
G1 X145.995 Y197.123 E7.12209
G1 X145.371 Y196.264 E7.16181
G1 X145.038 Y195.662 E7.18756
G1 X144.619 Y194.634 E7.22909
G1 X144.268 Y193.209 E7.28401
G1 X144.209 Y192.645 E7.30523
G1 X144.191 Y187.21 E7.50859
G1 X143.494 Y186.506 E7.54566
G1 X142.906 Y185.7 E7.58299
G1 X142.528 Y185.017 E7.6122
G1 X142.073 Y183.891 E7.65764
G1 X141.816 Y182.889 E7.69635
G1 X141.733 Y182.305 E7.71842
G1 X141.691 Y156.405 E8.68754
G1 X141.901 Y154.76 E8.74959
G1 X142.083 Y154.107 E8.77496
G1 X142.418 Y153.259 E8.80907
G1 X143.097 Y152.057 E8.86073
G1 X143.668 Y151.326 E8.89544
G1 X144.404 Y150.589 E8.93441
G0 F7200 X144.68 Y150.945
G1 F1800 X145.438 Y150.358 E8.97028
G1 X146.278 Y149.876 E9.00652
G1 X147.349 Y149.445 E9.04972
G1 X148.194 Y149.227 E9.08237
G1 X148.892 Y149.129 E9.10874
G1 X160.142 Y149.1 E9.52969
G1 X160.166 Y147.33 E9.59593
G1 X160.323 Y146.33 E9.63381
G1 X160.485 Y145.715 E9.6576
G1 X160.791 Y144.921 E9.68944
G1 X161.309 Y143.965 E9.73013
G1 X162.008 Y143.038 E9.77357
G1 X162.785 Y142.276 E9.81429
G1 X163.519 Y141.732 E9.84848
G1 X164.718 Y141.1 E9.89919
G1 X165.576 Y140.805 E9.93314
G1 X166.607 Y140.587 E9.97257
G1 X167.036 Y140.543 E9.98871
G1 X182.71 Y140.521 E10.57519
G1 X184.183 Y140.687 E10.63066
G1 X184.872 Y140.861 E10.65725
G1 X185.652 Y141.155 E10.68844
G1 X186.695 Y141.712 E10.73268
G1 X187.528 Y142.331 E10.77151
G1 X188.461 Y143.276 E10.8212
G1 X188.939 Y143.927 E10.85142
G1 X189.313 Y144.582 E10.87964
G1 X189.695 Y145.491 E10.91654
G1 X190.056 Y146.918 E10.97161
G1 X190.115 Y147.482 E10.99283
G1 X190.132 Y153.97 E11.2356
G1 X196.822 Y153.963 E11.48592
G1 X197.699 Y154.005 E11.51878
G1 X197.965 Y154.032 E11.52878
G1 X199.272 Y154.263 E11.57844
G1 X199.747 Y154.386 E11.5968
G1 X200.551 Y154.653 E11.6285
G1 X201.199 Y154.918 E11.6547
G1 X202.157 Y155.398 E11.69479
G1 X202.8 Y155.782 E11.72282
G1 X203.256 Y156.097 E11.74355
G1 X203.893 Y156.602 E11.77397
G1 X204.628 Y157.277 E11.81131
G1 X204.864 Y157.523 E11.82407
G1 X205.581 Y158.382 E11.86593
G1 X205.852 Y158.757 E11.88325
G1 X206.27 Y159.424 E11.9127
G1 X206.823 Y160.462 E11.95671
G1 X206.94 Y160.727 E11.96755
G1 X207.381 Y161.949 E12.01616
G1 X207.46 Y162.237 E12.02733
G1 X207.698 Y163.377 E12.07091
G1 X207.739 Y163.66 E12.08161
G1 X207.823 Y165.079 E12.13479
G1 X207.806 Y165.741 E12.15957
G1 X207.784 Y166.045 E12.17098
G1 X207.599 Y167.311 E12.21885
G1 X207.46 Y167.915 E12.24204
G1 X207.248 Y168.631 E12.26998
G1 X207.033 Y169.219 E12.29341
G1 X206.679 Y170.003 E12.3256
G1 X206.326 Y170.659 E12.35347
G1 X205.804 Y171.476 E12.38975
G1 X205.652 Y171.68 E12.39927
G1 X205.852 Y171.957 E12.41205
G1 X206.27 Y172.624 E12.44151
G1 X206.823 Y173.662 E12.48551
G1 X206.94 Y173.927 E12.49635
G1 X207.381 Y175.149 E12.54496
G1 X207.46 Y175.437 E12.55614
G1 X207.698 Y176.577 E12.59971
G1 X207.739 Y176.86 E12.61041
G1 X207.823 Y178.279 E12.6636
G1 X207.806 Y178.941 E12.68838
G1 X207.784 Y179.245 E12.69978
G1 X207.599 Y180.511 E12.74766
G1 X207.46 Y181.115 E12.77085
G1 X207.248 Y181.831 E12.79879
G1 X207.033 Y182.419 E12.82222
G1 X206.679 Y183.203 E12.8544
G1 X206.483 Y183.568 E12.86991
G1 X206.596 Y183.726 E12.87717
G1 X207.061 Y184.547 E12.91248
G1 X207.408 Y185.393 E12.94669
G1 X207.667 Y186.357 E12.98404
G1 X207.819 Y187.729 E13.03569
G1 X207.789 Y189.166 E13.08948
G1 X207.663 Y190.055 E13.12307
G1 X207.462 Y190.807 E13.1522
G1 X207.005 Y191.925 E13.19739
G1 X206.439 Y192.871 E13.23864
G1 X205.979 Y193.448 E13.26625
G1 X204.85 Y194.511 E13.32427
G1 X204.214 Y194.941 E13.353
G1 X203.393 Y195.362 E13.38752
G1 X202.521 Y195.685 E13.42232
G1 X201.57 Y195.903 E13.45883
G1 X200.4 Y196.013 E13.5028
G1 X190.144 Y196.005 E13.88655
G1 X190.111 Y199.959 E14.03451
G1 X189.97 Y200.86 E14.06863
G1 X189.573 Y202.192 E14.12064
G1 X189.202 Y203.011 E14.15428
G1 X188.953 Y203.45 E14.17317
G1 X188.339 Y204.314 E14.21283
G1 X187.74 Y204.982 E14.2464
G1 X186.817 Y205.765 E14.29169
G1 X186.086 Y206.236 E14.32423
G1 X184.852 Y206.819 E14.37529
G1 X183.932 Y207.099 E14.41128
G1 X183.301 Y207.224 E14.43535
G1 X182.087 Y207.332 E14.48095
G1 X167.399 Y207.285 E15.03054
G1 X166.774 Y207.197 E15.05416
G1 X165.803 Y206.96 E15.09156
G1 X165.147 Y206.723 E15.11766
G1 X164.222 Y206.264 E15.1563
G1 X163.225 Y205.601 E15.2011
G1 X162.637 Y205.093 E15.23017
G1 X161.529 Y203.788 E15.29423
G1 X161.006 Y202.918 E15.33221
G1 X160.751 Y202.373 E15.35473
G1 X160.449 Y201.526 E15.38837
G1 X160.337 Y201.094 E15.40507
G1 X160.138 Y199.552 E15.46325
G1 X151.339 Y199.511 E15.79249
G1 X150.544 Y199.385 E15.82261
G1 X149.674 Y199.148 E15.85635
G1 X148.956 Y198.856 E15.88535
G1 X147.916 Y198.273 E15.92996
G1 X147.451 Y197.931 E15.95156
G1 X146.358 Y196.857 E16.0089
G1 X145.765 Y196.046 E16.04649
G1 X145.432 Y195.444 E16.07223
G1 X145.056 Y194.525 E16.10939
G1 X144.716 Y193.162 E16.16195
G1 X144.657 Y192.598 E16.18317
G1 X144.64 Y187.023 E16.39177
G1 X143.857 Y186.24 E16.43321
G1 X143.299 Y185.48 E16.46849
G1 X142.945 Y184.847 E16.49562
G1 X142.509 Y183.778 E16.53882
G1 X142.262 Y182.826 E16.57562
G1 X142.179 Y182.242 E16.59769
G1 X142.141 Y156.404 E17.56449
G1 X142.335 Y154.879 E17.62201
G1 X142.502 Y154.272 E17.64557
G1 X142.837 Y153.424 E17.67969
G1 X143.452 Y152.334 E17.72652
G1 X144.023 Y151.603 E17.76122
G1 X144.68 Y150.945 E17.79602
G0 F7200 X144.956 Y151.301
G1 F1800 X145.714 Y150.714 E17.83189
G1 X146.5 Y150.267 E17.86572
G1 X147.462 Y149.88 E17.90452
G1 X148.257 Y149.673 E17.93526
G1 X148.955 Y149.575 E17.96163
G1 X160.587 Y149.549 E18.39688
G1 X160.611 Y147.4 E18.47729
G1 X160.768 Y146.4 E18.51517
G1 X160.906 Y145.875 E18.53548
G1 X161.187 Y145.135 E18.5651
G1 X161.705 Y144.179 E18.60578
G1 X162.324 Y143.358 E18.64426
G1 X163.053 Y142.638 E18.6826
G1 X163.787 Y142.094 E18.71678
G1 X164.866 Y141.525 E18.76242
G1 X165.67 Y141.245 E18.79428
G1 X166.653 Y141.035 E18.83189
G1 X167.082 Y140.991 E18.84803
G1 X182.711 Y140.971 E19.43283
G1 X184.075 Y141.124 E19.48419
G1 X184.715 Y141.283 E19.50886
G1 X185.44 Y141.552 E19.5378
G1 X186.483 Y142.109 E19.58204
G1 X187.258 Y142.691 E19.61831
G1 X188.099 Y143.544 E19.66313
G1 X188.549 Y144.152 E19.69143
G1 X188.898 Y144.756 E19.71753
G1 X189.28 Y145.665 E19.75443
G1 X189.608 Y146.965 E19.80459
G1 X189.667 Y147.529 E19.82581
G1 X189.683 Y154.421 E20.0837
G1 X196.823 Y154.413 E20.35086
G1 X197.654 Y154.453 E20.38199
G1 X197.92 Y154.48 E20.39199
G1 X199.159 Y154.699 E20.43907
G1 X199.634 Y154.822 E20.45743
G1 X200.381 Y155.07 E20.48688
G1 X201.029 Y155.335 E20.51308
G1 X201.927 Y155.785 E20.55066
G1 X202.545 Y156.153 E20.57757
G1 X202.976 Y156.45 E20.59716
G1 X203.613 Y156.955 E20.62758
G1 X204.303 Y157.589 E20.66264
G1 X204.539 Y157.835 E20.67539
G1 X205.216 Y158.646 E20.71492
G1 X205.487 Y159.021 E20.73224
G1 X205.889 Y159.663 E20.76058
G1 X206.411 Y160.644 E20.80216
G1 X206.528 Y160.909 E20.813
G1 X206.947 Y162.07 E20.85918
G1 X207.019 Y162.329 E20.86924
G1 X207.257 Y163.469 E20.91282
G1 X207.293 Y163.723 E20.92242
G1 X207.373 Y165.068 E20.97283
G1 X207.357 Y165.709 E20.99682
G1 X207.335 Y166.013 E21.00823
G1 X207.16 Y167.21 E21.05349
G1 X207.021 Y167.814 E21.07668
G1 X206.825 Y168.476 E21.10252
G1 X206.61 Y169.064 E21.12594
G1 X206.269 Y169.817 E21.15687
G1 X205.93 Y170.445 E21.18358
G1 X205.443 Y171.207 E21.21741
G1 X205.085 Y171.688 E21.23985
G1 X205.216 Y171.846 E21.24753
G1 X205.487 Y172.221 E21.26484
G1 X205.889 Y172.863 E21.29319
G1 X206.411 Y173.844 E21.33477
G1 X206.528 Y174.109 E21.3456
G1 X206.947 Y175.27 E21.39179
G1 X207.019 Y175.529 E21.40185
G1 X207.257 Y176.669 E21.44542
G1 X207.293 Y176.923 E21.45502
G1 X207.373 Y178.268 E21.50544
G1 X207.357 Y178.909 E21.52943
G1 X207.335 Y179.213 E21.54083
G1 X207.16 Y180.41 E21.5861
G1 X207.021 Y181.014 E21.60929
G1 X206.825 Y181.676 E21.63512
G1 X206.61 Y182.264 E21.65855
G1 X206.269 Y183.017 E21.68948
G1 X205.95 Y183.607 E21.71458
G1 X206.205 Y183.949 E21.73054
G1 X206.645 Y184.72 E21.76376
G1 X206.973 Y185.51 E21.79576
G1 X207.232 Y186.474 E21.83311
G1 X207.369 Y187.721 E21.88005
G1 X207.343 Y189.103 E21.93177
G1 X207.217 Y189.992 E21.96537
G1 X207.045 Y190.638 E21.99038
G1 X206.618 Y191.695 E22.03304
G1 X206.087 Y192.59 E22.07198
G1 X205.627 Y193.167 E22.09959
G1 X204.598 Y194.138 E22.15253
G1 X203.962 Y194.568 E22.18126
G1 X203.235 Y194.941 E22.21183
G1 X202.42 Y195.246 E22.24439
G1 X201.469 Y195.464 E22.2809
G1 X200.4 Y195.563 E22.32107
G1 X189.697 Y195.555 E22.72155
G1 X189.666 Y199.889 E22.88372
G1 X189.525 Y200.79 E22.91784
G1 X189.163 Y202.007 E22.96535
G1 X188.809 Y202.791 E22.99754
G1 X188.586 Y203.189 E23.01461
G1 X187.972 Y204.053 E23.05427
G1 X187.406 Y204.68 E23.08588
G1 X186.572 Y205.388 E23.12681
G1 X185.893 Y205.83 E23.15713
G1 X184.721 Y206.388 E23.2057
G1 X183.801 Y206.668 E23.24168
G1 X183.26 Y206.776 E23.26232
G1 X182.088 Y206.882 E23.30636
G1 X167.462 Y206.839 E23.85363
G1 X166.837 Y206.751 E23.87725
G1 X165.954 Y206.536 E23.91125
G1 X165.345 Y206.319 E23.93544
G1 X164.47 Y205.889 E23.97192
G1 X163.519 Y205.26 E24.01459
G1 X162.931 Y204.752 E24.04366
G1 X161.914 Y203.555 E24.10243
G1 X161.414 Y202.727 E24.13863
G1 X161.159 Y202.182 E24.16114
G1 X160.885 Y201.413 E24.19169
G1 X160.773 Y200.981 E24.20839
G1 X160.546 Y199.201 E24.27553
G1 X160.542 Y199.104 E24.27916
G1 X151.408 Y199.066 E24.62094
G1 X150.661 Y198.95 E24.64922
G1 X149.844 Y198.731 E24.68087
G1 X149.126 Y198.439 E24.70987
G1 X148.183 Y197.91 E24.75033
G1 X147.718 Y197.568 E24.77193
G1 X146.72 Y196.59 E24.82421
G1 X146.159 Y195.828 E24.85962
G1 X145.826 Y195.226 E24.88536
G1 X145.492 Y194.415 E24.91818
G1 X145.164 Y193.115 E24.96835
G1 X145.105 Y192.551 E24.98957
G1 X145.089 Y186.836 E25.20341
G1 X144.219 Y185.972 E25.24929
G1 X143.691 Y185.258 E25.28252
G1 X143.362 Y184.677 E25.3075
G1 X142.926 Y183.608 E25.3507
G1 X142.708 Y182.763 E25.38335
G1 X142.625 Y182.179 E25.40542
G1 X142.591 Y156.403 E26.3699
G1 X142.769 Y154.997 E26.42293
G1 X142.921 Y154.436 E26.44468
G1 X143.23 Y153.644 E26.47649
G1 X143.808 Y152.61 E26.52081
G1 X144.343 Y151.92 E26.55348
G1 X144.956 Y151.301 E26.58608
G0 F7200 X145.276 Y151.618
G1 F1800 X145.938 Y151.104 E26.61744
G1 X146.67 Y150.684 E26.64902
G1 X147.577 Y150.315 E26.68566
G1 X148.32 Y150.119 E26.71441
G1 X149.018 Y150.021 E26.74078
G1 X161.033 Y149.998 E27.19036
G1 X161.056 Y147.47 E27.28495
G1 X161.213 Y146.47 E27.32283
G1 X161.327 Y146.035 E27.33966
G1 X161.608 Y145.295 E27.36927
G1 X162.1 Y144.395 E27.40765
G1 X162.642 Y143.677 E27.44131
G1 X163.321 Y143 E27.47719
G1 X164.055 Y142.456 E27.51138
G1 X165.016 Y141.949 E27.55203
G1 X165.765 Y141.685 E27.58175
G1 X166.699 Y141.483 E27.6175
G1 X167.128 Y141.439 E27.63364
G1 X182.712 Y141.421 E28.21676
G1 X184.024 Y141.571 E28.26617
G1 X184.561 Y141.706 E28.28689
G1 X185.228 Y141.949 E28.31345
G1 X186.271 Y142.506 E28.35769
G1 X186.939 Y143.008 E28.38896
G1 X187.738 Y143.813 E28.4314
G1 X188.159 Y144.377 E28.45773
G1 X188.508 Y144.981 E28.48384
G1 X188.844 Y145.776 E28.51613
G1 X189.16 Y147.012 E28.56387
G1 X189.219 Y147.576 E28.58508
G1 X189.234 Y154.871 E28.85805
G1 X196.802 Y154.863 E29.14122
