;FLAVOR:Marlin
;TIME:1844
;Filament used: 1.84046m
;Layer height: 0.2
;MINX:125.727
;MINY:138.325
;MINZ:0.2
;MAXX:218.238
;MAXY:206.036
;MAXZ:14.6
;TARGET_MACHINE.NAME:VORON2 350
;POSTPROCESSED
;  [CreateThumbnail]
;  [CreateThumbnail]
;  [InsertAtLayerChange]
;Generated with Cura_SteamEngine 5.8.0
;
;

;
;



; Pre-Processed for Cancel-Object support by preprocess_cancellation v0.2.0
; 3 known objects
EXCLUDE_OBJECT_DEFINE NAME=LOCK_1_STL CENTER=141.077,175.292 POLYGON=[[133.796,157.62],[133.796,194.232],[148.396,194.232],[148.396,157.62]]
EXCLUDE_OBJECT_DEFINE NAME=LOCK_2_STL CENTER=175.181,186.993 POLYGON=[[166.328,146.375],[166.328,200.2],[183.917,200.2],[183.917,146.375]]
EXCLUDE_OBJECT_DEFINE NAME=LOCK_3_STL CENTER=202.810,173.310 POLYGON=[[195.764,159.736],[195.764,186.536],[210.164,186.536],[210.164,159.736]]
M82 ;absolute extrusion mode
;Nozzle diameter = 0.4
;Filament type = ABS
;Filament name = ABS+ Black
;Filament weight = [4.869499658203125]
; M190 S100
; M109 S240
PRINT_START BED_TEMP=100 EXTRUDER_TEMP=240
M141 S40
G92 E0
G92 E0
G1 F1800 E-0.75
;LAYER_COUNT:73
TIMELAPSE_TAKE_FRAME
;LAYER:0
M107
G1 F600 Z0.4
G0 F7200 X128.44 Y165.661 Z0.4
;TYPE:SKIRT
G1 F600 Z0.2
G1 F720 E0
G1 F1800 X129.196 Y165.075 E0.03579
G1 X130.145 Y164.532 E0.0767
G1 X131.264 Y164.084 E0.1218
G1 X131.957 Y163.899 E0.14864
G1 X133.299 Y163.727 E0.19927
G1 X148.586 Y163.71 E0.77127
G1 X150.117 Y163.879 E0.82891
G1 X150.913 Y164.078 E0.85961
G1 X151.697 Y164.374 E0.89096
G1 X152.972 Y165.069 E0.9453
G1 X153.773 Y165.685 E0.98311
G1 X154.486 Y166.391 E1.02065
G1 X155.215 Y167.344 E1.06555
G1 X155.6 Y168.025 E1.09482
G1 X156.097 Y169.25 E1.14429
G1 X156.282 Y169.943 E1.17112
G1 X156.455 Y171.297 E1.2222
G1 X156.465 Y182.531 E1.64255
G1 X156.255 Y184.173 E1.70449
G1 X156.072 Y184.827 E1.7299
G1 X155.708 Y185.735 E1.7665
G1 X155.051 Y186.888 E1.81616
G1 X154.517 Y187.572 E1.84863
G1 X153.961 Y188.13 E1.8781
G1 X153.921 Y193.726 E2.0875
G1 X153.754 Y194.789 E2.12776
G1 X153.587 Y195.407 E2.15171
G1 X153.225 Y196.334 E2.18895
G1 X152.765 Y197.186 E2.22518
G1 X151.929 Y198.296 E2.27718
G1 X151.175 Y199.034 E2.31665
G1 X150.117 Y199.796 E2.36544
G1 X149.353 Y200.194 E2.39767
G1 X148.271 Y200.601 E2.44093
G1 X147.514 Y200.783 E2.47006
G1 X146.681 Y200.892 E2.5015
G1 X146.119 Y200.922 E2.52256
G1 X135.352 Y200.87 E2.92544
G1 X134.486 Y200.735 E2.95823
G1 X133.647 Y200.513 E2.99071
G1 X132.956 Y200.245 E3.01844
G1 X131.7 Y199.551 E3.07213
G1 X130.869 Y198.906 E3.11149
G1 X130.25 Y198.293 E3.14409
G1 X129.408 Y197.179 E3.19634
G1 X129.075 Y196.577 E3.22208
G1 X128.656 Y195.549 E3.26362
G1 X128.305 Y194.124 E3.31853
G1 X128.246 Y193.56 E3.33975
G1 X128.228 Y188.114 E3.54353
G1 X127.536 Y187.422 E3.58015
G1 X127.071 Y186.804 E3.60909
G1 X126.513 Y185.814 E3.65161
G1 X126.129 Y184.859 E3.69012
G1 X125.911 Y184.064 E3.72097
G1 X125.737 Y182.708 E3.77212
G1 X125.727 Y171.474 E4.19247
G1 X125.937 Y169.832 E4.25441
G1 X126.119 Y169.179 E4.27978
G1 X126.454 Y168.331 E4.31389
G1 X127.133 Y167.129 E4.36555
G1 X127.704 Y166.398 E4.40026
G1 X128.44 Y165.661 E4.43923
G0 F7200 X128.716 Y166.017
G1 F1800 X129.472 Y165.431 E4.47502
G1 X130.313 Y164.949 E4.51129
G1 X131.38 Y164.519 E4.55434
G1 X132.073 Y164.334 E4.58118
G1 X133.3 Y164.177 E4.62746
G1 X148.587 Y164.16 E5.19947
G1 X150.067 Y164.326 E5.25519
G1 X150.756 Y164.5 E5.28178
G1 X151.483 Y164.77 E5.3108
G1 X152.699 Y165.427 E5.36252
G1 X153.456 Y166.005 E5.39815
G1 X154.169 Y166.711 E5.4357
G1 X154.824 Y167.568 E5.47606
G1 X155.183 Y168.195 E5.50309
G1 X155.662 Y169.366 E5.55043
G1 X155.847 Y170.059 E5.57727
G1 X156.005 Y171.297 E5.62397
G1 X156.015 Y182.531 E6.04432
G1 X155.821 Y184.054 E6.10177
G1 X155.654 Y184.661 E6.12532
G1 X155.316 Y185.514 E6.15966
G1 X154.696 Y186.611 E6.2068
G1 X154.162 Y187.295 E6.23927
G1 X153.512 Y187.942 E6.27359
G1 X153.476 Y193.657 E6.48744
G1 X153.319 Y194.673 E6.5259
G1 X153.167 Y195.245 E6.54805
G1 X152.829 Y196.12 E6.58315
G1 X152.369 Y196.972 E6.61938
G1 X151.614 Y197.974 E6.66632
G1 X150.86 Y198.712 E6.7058
G1 X149.909 Y199.397 E6.74965
G1 X149.145 Y199.795 E6.78189
G1 X148.166 Y200.163 E6.82102
G1 X147.409 Y200.345 E6.85015
G1 X146.657 Y200.443 E6.87853
G1 X146.121 Y200.472 E6.89862
G1 X135.421 Y200.425 E7.29899
G1 X134.555 Y200.29 E7.33178
G1 X133.81 Y200.093 E7.36062
G1 X133.119 Y199.825 E7.38835
G1 X131.975 Y199.195 E7.43722
G1 X131.186 Y198.586 E7.47451
G1 X130.567 Y197.973 E7.50711
G1 X129.802 Y196.961 E7.55458
G1 X129.469 Y196.359 E7.58032
G1 X129.093 Y195.44 E7.61747
G1 X128.753 Y194.077 E7.67004
G1 X128.694 Y193.513 E7.69125
G1 X128.677 Y187.927 E7.90027
G1 X127.896 Y187.151 E7.94147
G1 X127.431 Y186.533 E7.97041
G1 X126.931 Y185.646 E8.0085
G1 X126.547 Y184.691 E8.04702
G1 X126.345 Y183.946 E8.0759
G1 X126.187 Y182.708 E8.1226
G1 X126.177 Y171.474 E8.54295
G1 X126.371 Y169.951 E8.6004
G1 X126.538 Y169.344 E8.62395
G1 X126.873 Y168.496 E8.65807
G1 X127.488 Y167.406 E8.7049
G1 X128.059 Y166.675 E8.73961
G1 X128.716 Y166.017 E8.7744
G0 F7200 X128.992 Y166.373
G1 F1800 X129.748 Y165.787 E8.81019
G1 X130.483 Y165.366 E8.84189
G1 X131.496 Y164.954 E8.8828
G1 X132.189 Y164.769 E8.90964
G1 X133.301 Y164.627 E8.95159
G1 X148.588 Y164.61 E9.52359
G1 X149.959 Y164.763 E9.57521
G1 X150.599 Y164.922 E9.59989
G1 X151.326 Y165.192 E9.6289
G1 X152.427 Y165.786 E9.67571
G1 X153.139 Y166.325 E9.70913
G1 X153.852 Y167.031 E9.74667
G1 X154.433 Y167.792 E9.7825
G1 X154.792 Y168.419 E9.80953
G1 X155.227 Y169.482 E9.85251
G1 X155.412 Y170.175 E9.87935
G1 X155.555 Y171.297 E9.92167
G1 X155.565 Y182.531 E10.34202
G1 X155.387 Y183.936 E10.39501
G1 X155.235 Y184.497 E10.41676
G1 X154.924 Y185.293 E10.44874
G1 X154.304 Y186.39 E10.49589
G1 X153.845 Y186.976 E10.52374
G1 X153.063 Y187.754 E10.56501
G1 X153.031 Y193.588 E10.78331
G1 X152.874 Y194.604 E10.82178
G1 X152.747 Y195.084 E10.84036
G1 X152.432 Y195.908 E10.87337
G1 X152.008 Y196.703 E10.90708
G1 X151.299 Y197.652 E10.9514
G1 X150.545 Y198.39 E10.99088
G1 X149.701 Y198.998 E11.0298
G1 X148.937 Y199.396 E11.06204
G1 X148.061 Y199.725 E11.09705
G1 X147.304 Y199.907 E11.12618
G1 X146.632 Y199.994 E11.15154
G1 X146.123 Y200.022 E11.17061
G1 X135.49 Y199.98 E11.56848
G1 X134.624 Y199.845 E11.60127
G1 X133.973 Y199.673 E11.62647
G1 X133.282 Y199.405 E11.6542
G1 X132.249 Y198.838 E11.69829
G1 X131.503 Y198.266 E11.73347
G1 X130.884 Y197.653 E11.76606
G1 X130.196 Y196.743 E11.80875
G1 X129.863 Y196.141 E11.83449
G1 X129.529 Y195.33 E11.86731
G1 X129.201 Y194.03 E11.91748
G1 X129.142 Y193.466 E11.9387
G1 X129.126 Y187.739 E12.15299
G1 X128.256 Y186.88 E12.19873
G1 X127.791 Y186.262 E12.22767
G1 X127.349 Y185.478 E12.26135
G1 X126.965 Y184.523 E12.29986
G1 X126.78 Y183.83 E12.3267
G1 X126.637 Y182.708 E12.36902
G1 X126.627 Y171.474 E12.78938
G1 X126.805 Y170.069 E12.84237
G1 X126.957 Y169.508 E12.86412
G1 X127.266 Y168.716 E12.89593
G1 X127.844 Y167.682 E12.94025
G1 X128.379 Y166.992 E12.97292
G1 X128.992 Y166.373 E13.00552
G0 F7200 X129.312 Y166.69
G1 F1800 X129.974 Y166.176 E13.03688
G1 X130.654 Y165.782 E13.06628
G1 X131.612 Y165.389 E13.10503
G1 X132.305 Y165.204 E13.13187
G1 X133.302 Y165.077 E13.16947
G1 X148.589 Y165.06 E13.74148
G1 X149.908 Y165.21 E13.79115
G1 X150.445 Y165.345 E13.81187
G1 X151.112 Y165.588 E13.83843
G1 X152.213 Y166.182 E13.88524
G1 X152.822 Y166.645 E13.91387
G1 X153.535 Y167.351 E13.95141
G1 X154.042 Y168.016 E13.9827
G1 X154.401 Y168.643 E14.00973
G1 X154.792 Y169.598 E14.04835
G1 X154.977 Y170.291 E14.07519
G1 X155.105 Y171.297 E14.11313
G1 X155.115 Y182.531 E14.53348
G1 X154.952 Y183.82 E14.5821
G1 X154.815 Y184.335 E14.60204
G1 X154.531 Y185.073 E14.63163
G1 X153.948 Y186.114 E14.67627
G1 X153.526 Y186.658 E14.70203
G1 X152.796 Y187.391 E14.74074
G1 X152.614 Y187.537 E14.74947
G1 X152.586 Y193.519 E14.97331
G1 X152.429 Y194.535 E15.01177
G1 X152.326 Y194.925 E15.02687
G1 X152.035 Y195.696 E15.0577
G1 X151.611 Y196.491 E15.09142
G1 X150.984 Y197.33 E15.13061
G1 X150.23 Y198.068 E15.17008
G1 X149.493 Y198.599 E15.20407
G1 X148.729 Y198.997 E15.23631
G1 X147.956 Y199.287 E15.2672
G1 X147.199 Y199.469 E15.29633
G1 X146.607 Y199.545 E15.31866
G1 X146.125 Y199.572 E15.33673
G1 X135.559 Y199.535 E15.73209
G1 X134.693 Y199.4 E15.76488
G1 X134.136 Y199.253 E15.78644
G1 X133.445 Y198.985 E15.81417
G1 X132.467 Y198.444 E15.85599
G1 X131.82 Y197.946 E15.88654
G1 X131.201 Y197.333 E15.91914
G1 X130.589 Y196.524 E15.95709
G1 X130.278 Y195.967 E15.98096
G1 X129.965 Y195.219 E16.0113
G1 X129.649 Y193.983 E16.05904
G1 X129.59 Y193.419 E16.08026
G1 X129.575 Y187.529 E16.30065
G1 X129.474 Y187.451 E16.30542
G1 X128.616 Y186.609 E16.3504
G1 X128.151 Y185.991 E16.37934
G1 X127.766 Y185.309 E16.40865
G1 X127.4 Y184.407 E16.44507
G1 X127.215 Y183.714 E16.47191
G1 X127.087 Y182.708 E16.50985
G1 X127.077 Y171.474 E16.9302
G1 X127.24 Y170.185 E16.97882
G1 X127.377 Y169.67 E16.99876
G1 X127.66 Y168.934 E17.02827
G1 X128.201 Y167.956 E17.07009
G1 X128.699 Y167.309 E17.10064
G1 X129.312 Y166.69 E17.13323
G0 F7200 X129.632 Y167.007
G1 F1800 X130.248 Y166.533 E17.16232
G1 X130.878 Y166.172 E17.18948
G1 X131.728 Y165.824 E17.22385
G1 X132.421 Y165.639 E17.25069
G1 X133.303 Y165.527 E17.28396
G1 X148.59 Y165.51 E17.85596
G1 X149.8 Y165.647 E17.90153
G1 X150.291 Y165.768 E17.92045
G1 X150.958 Y166.011 E17.94701
G1 X151.942 Y166.541 E17.98883
G1 X152.505 Y166.965 E18.0152
G1 X153.218 Y167.671 E18.05275
G1 X153.651 Y168.24 E18.0795
G1 X154.01 Y168.867 E18.10654
G1 X154.357 Y169.714 E18.14079
G1 X154.542 Y170.407 E18.16762
G1 X154.655 Y171.297 E18.20119
G1 X154.665 Y182.531 E18.62154
G1 X154.517 Y183.704 E18.66578
G1 X154.38 Y184.219 E18.68572
G1 X154.137 Y184.855 E18.7112
G1 X153.592 Y185.838 E18.75325
G1 X153.17 Y186.382 E18.77902
G1 X152.478 Y187.073 E18.81561
G1 X152.165 Y187.316 E18.83043
G1 X152.136 Y193.517 E19.06246
G1 X151.993 Y194.423 E19.09678
G1 X151.904 Y194.768 E19.11012
G1 X151.638 Y195.484 E19.1387
G1 X151.214 Y196.279 E19.17241
G1 X150.669 Y197.008 E19.20647
G1 X149.915 Y197.746 E19.24594
G1 X149.232 Y198.232 E19.27731
G1 X148.569 Y198.576 E19.30526
G1 X147.851 Y198.849 E19.334
G1 X147.094 Y199.031 E19.36313
G1 X146.581 Y199.096 E19.38248
G1 X146.126 Y199.122 E19.39953
G1 X135.628 Y199.09 E19.79235
G1 X134.762 Y198.955 E19.82514
G1 X134.297 Y198.833 E19.84313
G1 X133.661 Y198.59 E19.86861
G1 X132.74 Y198.086 E19.90789
G1 X132.137 Y197.626 E19.93627
G1 X131.518 Y197.013 E19.96887
G1 X130.981 Y196.303 E20.00218
G1 X130.692 Y195.791 E20.02417
G1 X130.401 Y195.106 E20.05202
G1 X130.097 Y193.936 E20.09725
G1 X130.038 Y193.372 E20.11847
G1 X130.024 Y187.302 E20.3456
G1 X129.788 Y187.128 E20.35657
G1 X128.976 Y186.338 E20.39896
G1 X128.511 Y185.72 E20.4279
G1 X128.182 Y185.138 E20.45291
G1 X127.835 Y184.291 E20.48716
G1 X127.65 Y183.598 E20.514
G1 X127.537 Y182.708 E20.54757
G1 X127.527 Y171.474 E20.96792
G1 X127.675 Y170.301 E21.01216
G1 X127.812 Y169.786 E21.0321
G1 X128.055 Y169.15 E21.05758
G1 X128.559 Y168.229 E21.09686
G1 X129.019 Y167.626 E21.12524
G1 X129.632 Y167.007 E21.15784
G0 F7200 X129.952 Y167.324
G1 F1800 X130.521 Y166.891 E21.18459
G1 X131.05 Y166.588 E21.2074
G1 X131.844 Y166.259 E21.23956
G1 X132.537 Y166.074 E21.2664
G1 X133.304 Y165.977 E21.29533
G1 X148.591 Y165.96 E21.86733
G1 X149.692 Y166.084 E21.90879
G1 X150.183 Y166.205 E21.92771
G1 X150.746 Y166.408 E21.9501
G1 X151.673 Y166.902 E21.98941
G1 X152.188 Y167.285 E22.01342
G1 X152.901 Y167.991 E22.05097
G1 X153.291 Y168.51 E22.07526
G1 X153.594 Y169.039 E22.09807
G1 X153.922 Y169.83 E22.13011
G1 X154.107 Y170.523 E22.15695
G1 X154.205 Y171.297 E22.18614
G1 X154.215 Y182.531 E22.60649
G1 X154.071 Y183.646 E22.64856
G1 X153.959 Y184.061 E22.66464
G1 X153.742 Y184.639 E22.68774
G1 X153.236 Y185.562 E22.72713
G1 X152.814 Y186.106 E22.75289
G1 X152.202 Y186.717 E22.78525
G1 X151.815 Y187.017 E22.80357
G1 X151.716 Y187.081 E22.80798
G1 X151.691 Y193.448 E23.04622
G1 X151.556 Y194.314 E23.07902
G1 X151.482 Y194.611 E23.09047
G1 X151.216 Y195.327 E23.11905
G1 X150.818 Y196.065 E23.15043
G1 X150.352 Y196.688 E23.17954
G1 X149.654 Y197.379 E23.21629
G1 X148.971 Y197.865 E23.24765
G1 X148.407 Y198.156 E23.2714
G1 X147.744 Y198.412 E23.29799
G1 X147.036 Y198.585 E23.32526
G1 X146.555 Y198.647 E23.34341
G1 X146.127 Y198.672 E23.35945
G1 X135.697 Y198.645 E23.74972
G1 X134.831 Y198.51 E23.78252
G1 X134.455 Y198.412 E23.79705
G1 X133.877 Y198.195 E23.82016
G1 X132.956 Y197.691 E23.85944
G1 X132.454 Y197.306 E23.88311
G1 X131.835 Y196.693 E23.91571
G1 X131.372 Y196.08 E23.94445
G1 X131.105 Y195.612 E23.96461
G1 X130.836 Y194.991 E23.98994
G1 X130.545 Y193.889 E24.03258
G1 X130.486 Y193.325 E24.0538
G1 X130.474 Y187.073 E24.28774
G1 X130.055 Y186.765 E24.3072
G1 X129.336 Y186.067 E24.34469
G1 X128.871 Y185.449 E24.37363
G1 X128.598 Y184.966 E24.39439
G1 X128.27 Y184.175 E24.42643
G1 X128.085 Y183.482 E24.45327
G1 X127.987 Y182.708 E24.48246
G1 X127.977 Y171.474 E24.90281
G1 X128.121 Y170.359 E24.94488
G1 X128.233 Y169.944 E24.96096
G1 X128.45 Y169.366 E24.98407
G1 X128.954 Y168.445 E25.02335
G1 X129.339 Y167.943 E25.04702
G1 X129.952 Y167.324 E25.07962
G0 F7200 X130.272 Y167.641
G1 F1800 X130.791 Y167.251 E25.10391
G1 X131.224 Y167.003 E25.12258
G1 X131.96 Y166.694 E25.15245
G1 X132.653 Y166.509 E25.17929
G1 X133.305 Y166.427 E25.20388
G1 X148.592 Y166.41 E25.77588
G1 X149.64 Y166.531 E25.81535
G1 X150.034 Y166.63 E25.83056
G1 X150.536 Y166.806 E25.85046
G1 X151.404 Y167.263 E25.88716
G1 X151.919 Y167.646 E25.91118
G1 X152.541 Y168.261 E25.94391
G1 X152.931 Y168.78 E25.9682
G1 X153.179 Y169.213 E25.98687
G1 X153.488 Y169.949 E26.01674
G1 X153.661 Y170.582 E26.04129
G1 X153.755 Y171.297 E26.06828
G1 X153.765 Y182.531 E26.48863
G1 X153.636 Y183.53 E26.52632
G1 X153.536 Y183.906 E26.54088
G1 X153.346 Y184.425 E26.56156
G1 X152.879 Y185.288 E26.59827
G1 X152.495 Y185.789 E26.62189
G1 X151.926 Y186.361 E26.65208
G1 X151.539 Y186.661 E26.6704
G1 X151.267 Y186.833 E26.68244
G1 X151.246 Y193.379 E26.92738
G1 X151.111 Y194.245 E26.96018
G1 X151.046 Y194.499 E26.96999
G1 X150.82 Y195.113 E26.99447
G1 X150.422 Y195.851 E27.02584
G1 X150.034 Y196.37 E27.05009
G1 X149.391 Y197.014 E27.08414
G1 X148.763 Y197.466 E27.11309
G1 X148.245 Y197.736 E27.13495
G1 X147.582 Y197.992 E27.16154
G1 X146.978 Y198.139 E27.1848
G1 X146.528 Y198.198 E27.20179
G1 X146.128 Y198.222 E27.21678
G1 X135.766 Y198.2 E27.6045
G1 X134.9 Y198.065 E27.6373
G1 X134.61 Y197.989 E27.64851
G1 X134.091 Y197.799 E27.66919
G1 X133.228 Y197.332 E27.70591
G1 X132.771 Y196.986 E27.72736
G1 X132.152 Y196.373 E27.75996
G1 X131.762 Y195.855 E27.78422
G1 X131.517 Y195.43 E27.80257
G1 X131.271 Y194.874 E27.82532
G1 X130.993 Y193.842 E27.86531
G1 X130.934 Y193.278 E27.88653
G1 X130.924 Y186.824 E28.12803
G1 X130.787 Y186.744 E28.13396
G1 X130.322 Y186.402 E28.15556
G1 X129.694 Y185.794 E28.18827
G1 X129.261 Y185.225 E28.21502
G1 X129.013 Y184.792 E28.23369
G1 X128.704 Y184.056 E28.26356
G1 X128.531 Y183.423 E28.28812
G1 X128.437 Y182.708 E28.3151
G1 X128.427 Y171.474 E28.73545
G1 X128.556 Y170.475 E28.77314
G1 X128.656 Y170.099 E28.7877
G1 X128.846 Y169.58 E28.80838
G1 X129.313 Y168.717 E28.84509
G1 X129.659 Y168.26 E28.86654
G1 X130.272 Y167.641 E28.89914
G0 F7200 X130.544 Y167.999
G1 F1800 X131.017 Y167.64 E28.92136
G1 X131.4 Y167.417 E28.93794
G1 X132.079 Y167.128 E28.96555
G1 X132.712 Y166.955 E28.99011
G1 X133.306 Y166.877 E29.01252
G1 X148.593 Y166.86 E29.58453
G1 X149.532 Y166.968 E29.6199
G1 X149.885 Y167.055 E29.6335
G1 X150.387 Y167.231 E29.6534
G1 X151.135 Y167.624 E29.68502
G1 X151.65 Y168.007 E29.70904
G1 X152.183 Y168.533 E29.73706
G1 X152.542 Y169.006 E29.75927
G1 X152.765 Y169.389 E29.77586
G1 X153.054 Y170.068 E29.80347
G1 X153.227 Y170.701 E29.82802
G1 X153.305 Y171.297 E29.85051
G1 X153.315 Y182.531 E30.27086
G1 X153.201 Y183.416 E30.30425
G1 X153.113 Y183.751 E30.31721
G1 X152.923 Y184.27 E30.33789
G1 X152.52 Y185.016 E30.36962
G1 X152.174 Y185.473 E30.39107
G1 X151.65 Y186.005 E30.41901
G1 X151.263 Y186.305 E30.43733
G1 X150.905 Y186.528 E30.45311
G1 X150.818 Y186.571 E30.45674
