;FLAVOR:Marlin
;TIME:293
;Filament used: 0.270522m
;Layer height: 0.2
;MINX:151.424
;MINY:154.357
;MINZ:0.2
;MAXX:198.613
;MAXY:195.561
;MAXZ:1.6
;TARGET_MACHINE.NAME:VORON2 350
;POSTPROCESSED
;  [CreateThumbnail]
;  [CreateThumbnail]
;  [InsertAtLayerChange]
;Generated with Cura_SteamEngine 5.8.0
;
;

;
;



; Pre-Processed for Cancel-Object support by preprocess_cancellation v0.2.0
; 2 known objects
EXCLUDE_OBJECT_DEFINE NAME=hinge CENTER=166.783,173.162 POLYGON=[[159.477,162.432],[159.477,179.528],[187.012,179.528],[187.012,162.432]]
EXCLUDE_OBJECT_DEFINE NAME=hinge_1 CENTER=183.242,176.848 POLYGON=[[163.061,170.385],[163.061,187.484],[190.595,187.484],[190.595,170.385]]
M82 ;absolute extrusion mode
;Nozzle diameter = 0.4
;Filament type = ABS
;Filament name = ABS+ Black
;Filament weight = [0.7157510131835938]
; M190 S100
; M109 S270
PRINT_START BED_TEMP=100 EXTRUDER_TEMP=270
M141 S40
G92 E0
G92 E0
G1 F1800 E-0.75
;LAYER_COUNT:7
TIMELAPSE_TAKE_FRAME
;LAYER:0
M107
G1 F600 Z0.4
G0 F7200 X157.034 Y156.385 Z0.4
;TYPE:SKIRT
G1 F600 Z0.2
G1 F720 E0
G1 F1800 X158.148 Y155.543 E0.05068
G1 X158.75 Y155.21 E0.07565
G1 X159.778 Y154.791 E0.11594
G1 X161.203 Y154.44 E0.16921
G1 X161.767 Y154.381 E0.18979
G1 X169.066 Y154.357 E0.45471
G1 X170.599 Y154.526 E0.51069
G1 X171.397 Y154.726 E0.54055
G1 X172.23 Y155.044 E0.57291
G1 X173.273 Y155.601 E0.61583
G1 X174.267 Y156.347 E0.66093
G1 X175.197 Y157.305 E0.70939
G1 X175.737 Y158.052 E0.74285
G1 X176.118 Y158.738 E0.77133
G1 X176.451 Y159.529 E0.80248
G1 X176.676 Y160.364 E0.83387
G1 X188.023 Y160.411 E1.24571
G1 X188.889 Y160.546 E1.27752
G1 X189.732 Y160.77 E1.30918
G1 X190.539 Y161.093 E1.34073
G1 X191.749 Y161.778 E1.3912
G1 X192.475 Y162.349 E1.42472
G1 X193.324 Y163.212 E1.46866
G1 X193.744 Y163.762 E1.49378
G1 X193.847 Y163.923 E1.50071
G1 X193.966 Y163.997 E1.5058
G1 X194.804 Y164.622 E1.54374
G1 X196.138 Y165.917 E1.61122
G1 X196.931 Y166.947 E1.6584
G1 X197.532 Y167.976 E1.70165
G1 X198.038 Y169.151 E1.74809
G1 X198.423 Y170.491 E1.79869
G1 X198.6 Y171.614 E1.83995
G1 X198.613 Y173.667 E1.91447
G1 X198.471 Y174.664 E1.95102
G1 X198.094 Y176.108 E2.00519
G1 X195.669 Y183.046 E2.27194
G1 X195.623 Y188.376 E2.4654
G1 X195.462 Y189.398 E2.50295
G1 X195.261 Y190.136 E2.53071
G1 X194.993 Y190.827 E2.55761
G1 X194.299 Y192.083 E2.6097
G1 X193.657 Y192.908 E2.64764
G1 X192.921 Y193.639 E2.68529
G1 X192.215 Y194.19 E2.71779
G1 X191.576 Y194.58 E2.74496
G1 X190.488 Y195.071 E2.78829
G1 X189.616 Y195.338 E2.82139
G1 X189.037 Y195.452 E2.84281
G1 X187.778 Y195.561 E2.88867
G1 X180.349 Y195.521 E3.15831
G1 X179.524 Y195.405 E3.18855
G1 X178.441 Y195.117 E3.22922
G1 X177.673 Y194.801 E3.25937
G1 X176.586 Y194.188 E3.30466
G1 X176.121 Y193.846 E3.32561
G1 X174.932 Y192.675 E3.38618
G1 X174.309 Y191.82 E3.42458
G1 X173.957 Y191.18 E3.45109
G1 X173.624 Y190.389 E3.48224
G1 X173.399 Y189.554 E3.51363
G1 X162.052 Y189.507 E3.92547
G1 X161.186 Y189.372 E3.95728
G1 X160.347 Y189.15 E3.98878
G1 X159.654 Y188.881 E4.01576
G1 X158.262 Y188.094 E4.0738
G1 X157.552 Y187.524 E4.10685
G1 X156.745 Y186.696 E4.14881
G1 X156.27 Y186.064 E4.17751
G1 X156.208 Y185.965 E4.18175
G1 X155.962 Y185.807 E4.19236
G1 X154.708 Y184.817 E4.25035
G1 X154.208 Y184.319 E4.27596
G1 X153.06 Y182.853 E4.34354
G1 X152.691 Y182.232 E4.36976
G1 X152.059 Y180.826 E4.42571
G1 X151.745 Y179.82 E4.46396
G1 X151.424 Y177.577 E4.5462
G1 X151.454 Y176.319 E4.59187
G1 X151.609 Y175.231 E4.63176
G1 X151.981 Y173.807 E4.68518
G1 X154.406 Y166.87 E4.9519
G1 X154.452 Y161.542 E5.14528
G1 X154.613 Y160.52 E5.18284
G1 X154.814 Y159.782 E5.2106
G1 X155.082 Y159.091 E5.2375
G1 X155.776 Y157.835 E5.28958
G1 X156.421 Y157.004 E5.32776
G1 X157.034 Y156.385 E5.35938
G0 F7200 X157.354 Y156.702
G1 F1800 X158.366 Y155.937 E5.40542
G1 X158.968 Y155.604 E5.43039
G1 X159.887 Y155.228 E5.46643
G1 X161.25 Y154.888 E5.51742
G1 X161.814 Y154.829 E5.538
G1 X169.067 Y154.807 E5.80125
G1 X170.549 Y154.973 E5.85538
G1 X171.238 Y155.147 E5.88117
G1 X172.018 Y155.441 E5.91142
G1 X173.061 Y155.998 E5.95434
G1 X173.945 Y156.661 E5.99444
G1 X174.832 Y157.569 E6.04052
G1 X175.372 Y158.316 E6.07397
G1 X175.703 Y158.913 E6.09875
G1 X176.036 Y159.704 E6.1299
G1 X176.329 Y160.813 E6.17153
G1 X187.954 Y160.856 E6.59346
G1 X188.82 Y160.991 E6.62527
G1 X189.567 Y161.189 E6.65332
G1 X190.317 Y161.485 E6.68259
G1 X191.527 Y162.17 E6.73305
G1 X192.155 Y162.666 E6.7621
G1 X192.966 Y163.485 E6.80393
G1 X193.386 Y164.035 E6.82905
G1 X193.523 Y164.253 E6.83839
G1 X193.698 Y164.359 E6.84582
G1 X194.491 Y164.946 E6.88163
G1 X195.781 Y166.192 E6.94672
G1 X196.574 Y167.222 E6.9939
G1 X197.143 Y168.202 E7.03503
G1 X197.606 Y169.276 E7.07748
G1 X197.978 Y170.561 E7.12604
G1 X198.155 Y171.684 E7.1673
G1 X198.167 Y173.604 E7.23699
G1 X198.025 Y174.601 E7.27354
G1 X197.669 Y175.96 E7.32453
G1 X195.22 Y182.968 E7.59397
G1 X195.178 Y188.306 E7.78772
G1 X195.017 Y189.328 E7.82527
G1 X194.841 Y189.973 E7.84954
G1 X194.573 Y190.664 E7.87644
G1 X193.943 Y191.808 E7.92384
G1 X193.339 Y192.59 E7.9597
G1 X192.644 Y193.284 E7.99535
G1 X191.938 Y193.835 E8.02785
G1 X191.389 Y194.17 E8.0512
G1 X190.355 Y194.641 E8.09244
G1 X189.529 Y194.896 E8.12381
G1 X188.95 Y195.01 E8.14523
G1 X187.78 Y195.111 E8.18785
G1 X180.412 Y195.075 E8.45528
G1 X179.587 Y194.959 E8.48552
G1 X178.611 Y194.7 E8.52217
G1 X177.893 Y194.408 E8.5503
G1 X176.853 Y193.825 E8.59357
G1 X176.388 Y193.483 E8.61452
G1 X175.295 Y192.409 E8.67014
G1 X174.703 Y191.602 E8.70647
G1 X174.372 Y191.005 E8.73124
G1 X174.039 Y190.214 E8.76239
G1 X173.746 Y189.105 E8.80402
G1 X162.121 Y189.062 E9.22596
G1 X161.255 Y188.927 E9.25777
G1 X160.51 Y188.73 E9.28574
G1 X159.817 Y188.461 E9.31272
G1 X158.542 Y187.742 E9.36585
G1 X157.873 Y187.209 E9.39689
G1 X157.105 Y186.426 E9.4367
G1 X156.63 Y185.794 E9.46539
G1 X156.538 Y185.642 E9.47184
G1 X156.24 Y185.453 E9.48465
G1 X155.026 Y184.498 E9.54071
G1 X154.526 Y184 E9.56633
G1 X153.447 Y182.623 E9.62982
G1 X153.078 Y182.002 E9.65604
G1 X152.489 Y180.692 E9.70817
G1 X152.175 Y179.686 E9.74642
G1 X151.874 Y177.587 E9.82338
G1 X151.9 Y176.382 E9.86713
G1 X152.055 Y175.294 E9.90702
G1 X152.406 Y173.955 E9.95726
G1 X154.855 Y166.948 E10.22666
G1 X154.897 Y161.612 E10.42034
G1 X155.058 Y160.59 E10.45789
G1 X155.234 Y159.945 E10.48216
G1 X155.502 Y159.254 E10.50906
G1 X156.132 Y158.11 E10.55646
G1 X156.741 Y157.321 E10.59263
G1 X157.354 Y156.702 E10.62425
G0 F7200 X157.674 Y157.019
G1 F1800 X158.584 Y156.331 E10.66566
G1 X159.186 Y155.998 E10.69063
G1 X159.997 Y155.664 E10.72246
G1 X161.297 Y155.336 E10.77113
G1 X161.861 Y155.277 E10.79171
G1 X169.068 Y155.257 E11.05329
G1 X170.441 Y155.41 E11.10343
G1 X171.081 Y155.569 E11.12736
G1 X171.806 Y155.838 E11.15543
G1 X172.849 Y156.395 E11.19835
G1 X173.624 Y156.977 E11.23352
G1 X174.468 Y157.834 E11.27718
G1 X174.979 Y158.536 E11.3087
G1 X175.288 Y159.088 E11.33166
G1 X175.621 Y159.879 E11.36281
G1 X175.961 Y161.183 E11.41172
G1 X175.975 Y161.262 E11.41463
G1 X187.885 Y161.301 E11.84691
G1 X188.751 Y161.436 E11.87872
G1 X189.402 Y161.608 E11.90316
G1 X190.152 Y161.904 E11.93242
G1 X191.249 Y162.524 E11.97816
G1 X191.836 Y162.984 E12.00522
G1 X192.608 Y163.758 E12.0449
G1 X193.028 Y164.308 E12.07002
G1 X193.199 Y164.586 E12.08186
G1 X193.43 Y164.721 E12.09158
G1 X194.223 Y165.308 E12.12738
G1 X195.424 Y166.467 E12.18796
G1 X196.217 Y167.497 E12.23514
G1 X196.73 Y168.381 E12.27224
G1 X197.174 Y169.402 E12.31265
G1 X197.533 Y170.631 E12.35912
G1 X197.71 Y171.754 E12.40038
G1 X197.717 Y173.606 E12.4676
G1 X197.59 Y174.487 E12.49991
G1 X197.244 Y175.812 E12.54961
G1 X194.771 Y182.89 E12.82174
G1 X194.728 Y188.302 E13.01817
G1 X194.583 Y189.211 E13.05158
G1 X194.421 Y189.81 E13.0741
G1 X194.153 Y190.501 E13.101
G1 X193.586 Y191.534 E13.14377
G1 X193.02 Y192.273 E13.17756
G1 X192.367 Y192.929 E13.21115
G1 X191.661 Y193.48 E13.24366
G1 X191.202 Y193.76 E13.26317
G1 X190.168 Y194.231 E13.30441
G1 X189.442 Y194.454 E13.33198
G1 X188.863 Y194.568 E13.3534
G1 X187.782 Y194.661 E13.39278
G1 X180.475 Y194.629 E13.65799
G1 X179.65 Y194.513 E13.68822
G1 X178.781 Y194.283 E13.72085
G1 X178.063 Y193.991 E13.74898
G1 X177.12 Y193.462 E13.78823
G1 X176.655 Y193.12 E13.80918
G1 X175.657 Y192.142 E13.85989
G1 X175.096 Y191.382 E13.89418
G1 X174.787 Y190.83 E13.91714
G1 X174.454 Y190.039 E13.94829
G1 X174.114 Y188.735 E13.9972
G1 X174.1 Y188.656 E14.00011
G1 X162.19 Y188.617 E14.43239
G1 X161.324 Y188.482 E14.4642
G1 X160.673 Y188.31 E14.48864
G1 X159.98 Y188.041 E14.51562
G1 X158.821 Y187.389 E14.56389
G1 X158.193 Y186.893 E14.59293
G1 X157.464 Y186.155 E14.63058
G1 X157.015 Y185.561 E14.65761
G1 X156.867 Y185.317 E14.66796
G1 X156.518 Y185.099 E14.6829
G1 X155.344 Y184.179 E14.73704
G1 X154.844 Y183.681 E14.76265
G1 X153.834 Y182.393 E14.82206
G1 X153.465 Y181.772 E14.84827
G1 X152.919 Y180.558 E14.89659
G1 X152.605 Y179.552 E14.93484
G1 X152.324 Y177.596 E15.00656
G1 X152.346 Y176.445 E15.04834
G1 X152.501 Y175.357 E15.08823
G1 X152.831 Y174.103 E15.13529
G1 X155.304 Y167.026 E15.40739
G1 X155.347 Y161.616 E15.60375
G1 X155.492 Y160.707 E15.63716
G1 X155.654 Y160.108 E15.65968
G1 X155.922 Y159.417 E15.68658
G1 X156.489 Y158.384 E15.72935
G1 X157.061 Y157.638 E15.76347
G1 X157.674 Y157.019 E15.79509
G0 F7200 X157.994 Y157.336
G1 F1800 X158.803 Y156.724 E15.83191
G1 X159.36 Y156.413 E15.85506
G1 X160.108 Y156.1 E15.88449
G1 X161.344 Y155.784 E15.93079
G1 X161.908 Y155.725 E15.95138
G1 X169.069 Y155.707 E16.21129
G1 X170.39 Y155.857 E16.25954
G1 X170.927 Y155.992 E16.27964
G1 X171.594 Y156.235 E16.3054
G1 X172.637 Y156.792 E16.34832
G1 X173.305 Y157.294 E16.37865
G1 X174.105 Y158.1 E16.41986
G1 X174.586 Y158.756 E16.44939
G1 X174.895 Y159.308 E16.47235
G1 X175.186 Y159.993 E16.49936
G1 X175.526 Y161.297 E16.54827
G1 X175.569 Y161.711 E16.56338
G1 X187.816 Y161.746 E17.00789
G1 X188.682 Y161.881 E17.0397
G1 X189.239 Y162.028 E17.06061
G1 X189.932 Y162.297 E17.08759
G1 X190.973 Y162.88 E17.13089
G1 X191.517 Y163.302 E17.15588
G1 X192.289 Y164.076 E17.19556
G1 X192.644 Y164.543 E17.21685
G1 X192.876 Y164.921 E17.23295
G1 X193.162 Y165.083 E17.24488
G1 X193.955 Y165.67 E17.28069
G1 X195.067 Y166.742 E17.33675
G1 X195.86 Y167.772 E17.38393
G1 X196.318 Y168.562 E17.41707
G1 X196.742 Y169.53 E17.45543
G1 X197.088 Y170.701 E17.49975
G1 X197.265 Y171.824 E17.54101
G1 X197.271 Y173.543 E17.6034
G1 X197.154 Y174.374 E17.63386
G1 X196.819 Y175.664 E17.68223
G1 X194.322 Y182.812 E17.95704
G1 X194.283 Y188.232 E18.15377
G1 X194.148 Y189.095 E18.18547
G1 X194.001 Y189.647 E18.20621
G1 X193.733 Y190.338 E18.23311
G1 X193.192 Y191.316 E18.27367
G1 X192.7 Y191.957 E18.303
G1 X192.09 Y192.574 E18.33449
G1 X191.384 Y193.125 E18.367
G1 X191.015 Y193.35 E18.38268
G1 X189.981 Y193.821 E18.42392
G1 X189.355 Y194.012 E18.44768
G1 X188.776 Y194.126 E18.46909
G1 X187.784 Y194.211 E18.50523
G1 X180.538 Y194.183 E18.76823
G1 X179.713 Y194.067 E18.79847
G1 X178.948 Y193.865 E18.82718
G1 X178.282 Y193.598 E18.85323
G1 X177.387 Y193.099 E18.89042
G1 X176.922 Y192.757 E18.91137
G1 X176.018 Y191.874 E18.95723
G1 X175.489 Y191.162 E18.98943
G1 X175.18 Y190.61 E19.01239
G1 X174.889 Y189.925 E19.0394
G1 X174.549 Y188.621 E19.08831
G1 X174.506 Y188.207 E19.10342
G1 X162.259 Y188.172 E19.54793
G1 X161.393 Y188.037 E19.57974
G1 X160.836 Y187.89 E19.60065
G1 X160.143 Y187.621 E19.62763
G1 X159.1 Y187.036 E19.67103
G1 X158.472 Y186.54 E19.70008
G1 X157.822 Y185.882 E19.73365
G1 X157.4 Y185.328 E19.75892
G1 X157.196 Y184.991 E19.77322
G1 X156.795 Y184.744 E19.79032
G1 X155.662 Y183.86 E19.84247
G1 X155.162 Y183.362 E19.86809
G1 X154.221 Y182.163 E19.92341
G1 X153.852 Y181.542 E19.94962
G1 X153.349 Y180.424 E19.99412
G1 X153.035 Y179.418 E20.03237
G1 X152.774 Y177.603 E20.09892
G1 X152.792 Y176.508 E20.13867
G1 X152.947 Y175.42 E20.17856
G1 X153.256 Y174.251 E20.22245
G1 X155.753 Y167.104 E20.49722
G1 X155.792 Y161.686 E20.69388
G1 X155.927 Y160.823 E20.72558
G1 X156.074 Y160.271 E20.74631
G1 X156.342 Y159.58 E20.77321
G1 X156.883 Y158.602 E20.81378
G1 X157.381 Y157.955 E20.84341
G1 X157.994 Y157.336 E20.87503
G0 F7200 X158.314 Y157.653
G1 F1800 X159.024 Y157.116 E20.90734
G1 X159.536 Y156.827 E20.92868
G1 X160.221 Y156.536 E20.95569
G1 X161.391 Y156.232 E20.99957
G1 X161.955 Y156.173 E21.02015
G1 X169.07 Y156.157 E21.27839
G1 X170.282 Y156.294 E21.32266
G1 X170.773 Y156.415 E21.34101
G1 X171.44 Y156.658 E21.36678
G1 X172.424 Y157.188 E21.40735
G1 X172.987 Y157.612 E21.43293
G1 X173.743 Y158.368 E21.47173
G1 X174.194 Y158.978 E21.49927
G1 X174.482 Y159.487 E21.52049
G1 X174.751 Y160.108 E21.54505
G1 X175.078 Y161.344 E21.59146
G1 X175.137 Y161.908 E21.61204
G1 X175.14 Y162.16 E21.62119
G1 X187.747 Y162.191 E22.07876
G1 X188.613 Y162.326 E22.11057
G1 X189.078 Y162.448 E22.12802
G1 X189.714 Y162.691 E22.15273
G1 X190.697 Y163.236 E22.19353
G1 X191.241 Y163.658 E22.21852
G1 X191.932 Y164.35 E22.25401
G1 X192.26 Y164.778 E22.27358
G1 X192.553 Y165.256 E22.29393
G1 X192.94 Y165.475 E22.31007
G1 X193.644 Y165.995 E22.34184
G1 X194.711 Y167.017 E22.39546
G1 X195.471 Y167.999 E22.44053
G1 X195.906 Y168.744 E22.47184
G1 X196.31 Y169.658 E22.50811
G1 X196.656 Y170.829 E22.55243
G1 X196.82 Y171.893 E22.59151
G1 X196.825 Y173.48 E22.64911
G1 X196.708 Y174.311 E22.67956
G1 X196.394 Y175.516 E22.72476
G1 X193.872 Y182.734 E23.00227
G1 X193.838 Y188.162 E23.19928
G1 X193.703 Y189.025 E23.23099
G1 X193.581 Y189.486 E23.2483
G1 X193.338 Y190.122 E23.27301
G1 X192.834 Y191.043 E23.31111
G1 X192.378 Y191.642 E23.33844
G1 X191.813 Y192.219 E23.36775
G1 X191.107 Y192.77 E23.40025
G1 X190.828 Y192.94 E23.41211
G1 X189.794 Y193.411 E23.45335
G1 X189.268 Y193.57 E23.47329
G1 X188.689 Y193.684 E23.49471
G1 X187.786 Y193.761 E23.5276
G1 X180.54 Y193.733 E23.7906
G1 X179.826 Y193.631 E23.81678
G1 X179.113 Y193.446 E23.84351
G1 X178.5 Y193.204 E23.86743
G1 X177.654 Y192.736 E23.90253
G1 X177.189 Y192.394 E23.92348
G1 X176.378 Y191.604 E23.96457
G1 X175.881 Y190.94 E23.99467
G1 X175.593 Y190.431 E24.0159
G1 X175.324 Y189.81 E24.04046
G1 X174.997 Y188.574 E24.08686
G1 X174.938 Y188.01 E24.10745
G1 X174.935 Y187.758 E24.11659
G1 X162.328 Y187.727 E24.57417
G1 X161.462 Y187.592 E24.60598
G1 X160.997 Y187.47 E24.62343
G1 X160.361 Y187.227 E24.64814
G1 X159.378 Y186.682 E24.68893
G1 X158.791 Y186.222 E24.716
G1 X158.179 Y185.608 E24.74747
G1 X157.785 Y185.095 E24.77094
G1 X157.524 Y184.663 E24.78926
G1 X157.071 Y184.389 E24.80848
G1 X155.98 Y183.541 E24.85863
G1 X155.48 Y183.043 E24.88424
G1 X154.608 Y181.933 E24.93548
G1 X154.239 Y181.312 E24.96169
G1 X153.779 Y180.29 E25.00237
G1 X153.465 Y179.284 E25.04062
G1 X153.224 Y177.61 E25.10201
G1 X153.242 Y176.515 E25.14176
G1 X153.382 Y175.535 E25.17769
G1 X153.681 Y174.399 E25.22032
G1 X156.203 Y167.182 E25.4978
G1 X156.237 Y161.756 E25.69474
G1 X156.372 Y160.893 E25.72644
G1 X156.494 Y160.432 E25.74375
G1 X156.737 Y159.796 E25.76846
G1 X157.241 Y158.875 E25.80657
G1 X157.701 Y158.272 E25.83409
G1 X158.314 Y157.653 E25.86571
G0 F7200 X158.634 Y157.97
G1 F1800 X159.247 Y157.507 E25.89359
G1 X159.715 Y157.24 E25.91315
G1 X160.336 Y156.971 E25.93771
G1 X161.438 Y156.68 E25.97908
G1 X162.002 Y156.621 E25.99966
G1 X169.071 Y156.607 E26.25623
G1 X170.174 Y156.731 E26.29652
G1 X170.665 Y156.852 E26.31487
G1 X171.228 Y157.055 E26.3366
G1 X172.155 Y157.549 E26.37472
G1 X172.67 Y157.932 E26.39802
G1 X173.382 Y158.637 E26.43438
G1 X173.803 Y159.201 E26.45993
G1 X174.07 Y159.669 E26.47948
G1 X174.316 Y160.225 E26.50155
G1 X174.63 Y161.391 E26.54538
G1 X174.689 Y161.955 E26.56596
G1 X174.693 Y162.609 E26.5897
G1 X187.678 Y162.636 E27.06099
G1 X188.544 Y162.771 E27.0928
G1 X188.92 Y162.869 E27.1069
G1 X189.498 Y163.086 E27.12931
G1 X190.421 Y163.592 E27.16752
G1 X190.965 Y164.014 E27.19251
G1 X191.576 Y164.626 E27.22389
G1 X191.876 Y165.013 E27.24167
G1 X192.23 Y165.591 E27.26627
G1 X192.718 Y165.867 E27.28662
G1 X193.334 Y166.321 E27.31439
G1 X194.356 Y167.294 E27.36561
G1 X195.082 Y168.226 E27.40848
G1 X195.517 Y168.971 E27.4398
G1 X195.879 Y169.787 E27.4722
G1 X196.211 Y170.898 E27.51428
