;FLAVOR:Marlin
;TIME:3331
;Filament used: 0.742698m
;Layer height: 0.1
;MINX:159.69
;MINY:161.847
;MINZ:0.2
;MAXX:191.738
;MAXY:183.372
;MAXZ:15.1
;TARGET_MACHINE.NAME:VORON2 350
;POSTPROCESSED
;  [CreateThumbnail]
;  [CreateThumbnail]
;  [InsertAtLayerChange]
;Generated with Cura_SteamEngine 5.10.2
;
;

;
;

;Nozzle diameter = 0.25
;Filament type = ABS
;Filament name = ABS+ Black
;Filament weight = [1.965036669921875]; M190 S90
; M109 S270


; Pre-Processed for Cancel-Object support by preprocess_cancellation v0.2.0
; 2 known objects
EXCLUDE_OBJECT_DEFINE NAME=WING_LOCK_BASE_STL_3 CENTER=182.023,170.714 POLYGON=[[166.149,166.889],[166.149,173.639],[186.699,173.639],[186.699,166.889]]
EXCLUDE_OBJECT_DEFINE NAME=WING_LOCK_BASE_STL_1 CENTER=171.430,173.842 POLYGON=[[164.047,168.095],[164.047,178.327],[187.384,178.327],[187.384,168.095]]
PRINT_START BED_TEMP=90 EXTRUDER_TEMP=270
M82 ;absolute extrusion mode
M141 S40
G92 E0
G92 E0
G1 F1800 E-2
;LAYER_COUNT:148
;LAYER:0
TIMELAPSE_TAKE_FRAME
M107
G1 F600 Z0.4
G0 F7200 X162.491 Y163.387 Z0.4
;TYPE:SKIRT
G1 F600 Z0.2
G1 F720 E0
G1 F900 X163.404 Y162.63 E0.02688
G1 X164.046 Y162.283 E0.04342
G1 X164.76 Y162.039 E0.06052
G1 X166.029 Y161.847 E0.08961
G1 X187.378 Y161.9 E0.57347
G1 X187.438 Y161.907 E0.57484
G1 X188.36 Y162.117 E0.59627
G1 X189.165 Y162.458 E0.61609
G1 X189.632 Y162.753 E0.6286
G1 X190.273 Y163.306 E0.64779
G1 X190.991 Y164.198 E0.67374
G1 X191.295 Y164.764 E0.68831
G1 X191.592 Y165.65 E0.70948
G1 X191.705 Y166.319 E0.72486
G1 X191.738 Y171.912 E0.85162
G1 X191.698 Y172.568 E0.86652
G1 X191.674 Y172.753 E0.87075
G1 X191.477 Y173.647 E0.8915
G1 X191.269 Y174.291 E0.90683
G1 X191.159 Y174.556 E0.91334
G1 X190.787 Y175.265 E0.93148
G1 X190.4 Y175.857 E0.94751
G1 X190.292 Y175.998 E0.95154
G1 X190.324 Y176.289 E0.95817
G1 X190.28 Y178.919 E1.01779
G1 X190.047 Y179.995 E1.04274
G1 X189.975 Y180.202 E1.04771
G1 X189.604 Y180.983 E1.0673
G1 X189.409 Y181.275 E1.07526
G1 X188.868 Y181.901 E1.09401
G1 X187.977 Y182.622 E1.11999
G1 X187.412 Y182.925 E1.13452
G1 X186.507 Y183.219 E1.15609
G1 X185.403 Y183.372 E1.18135
G1 X164.006 Y183.321 E1.6663
G1 X163.771 Y183.284 E1.67169
G1 X163.18 Y183.142 E1.68547
G1 X162.381 Y182.817 E1.70502
G1 X161.756 Y182.434 E1.72163
G1 X161.313 Y182.066 E1.73468
G1 X160.44 Y181.021 E1.76554
G1 X160.117 Y180.411 E1.78119
G1 X159.849 Y179.609 E1.80035
G1 X159.722 Y178.853 E1.81773
G1 X159.69 Y173.211 E1.9456
G1 X159.699 Y173.025 E1.94982
G1 X159.843 Y171.994 E1.97341
G1 X159.896 Y171.766 E1.97872
G1 X160.188 Y170.88 E1.99986
G1 X160.356 Y170.495 E2.00938
G1 X160.702 Y169.842 E2.02613
G1 X160.845 Y169.619 E2.03214
G1 X161.141 Y169.24 E2.04303
G1 X161.107 Y168.93 E2.0501
G1 X161.151 Y166.3 E2.10972
G1 X161.384 Y165.224 E2.13467
G1 X161.455 Y165.018 E2.13961
G1 X161.789 Y164.304 E2.15747
G1 X162.066 Y163.884 E2.16888
G1 X162.491 Y163.387 E2.1837
G0 F7200 X162.705 Y163.57
G1 F900 X163.583 Y162.847 E2.20948
G1 X164.138 Y162.548 E2.22376
G1 X164.803 Y162.317 E2.23972
G1 X166.028 Y162.128 E2.26781
G1 X187.377 Y162.181 E2.75167
G1 X188.25 Y162.376 E2.77195
G1 X189.055 Y162.717 E2.79176
G1 X189.448 Y162.966 E2.8023
G1 X190.089 Y163.519 E2.82149
G1 X190.743 Y164.331 E2.84512
G1 X191.047 Y164.897 E2.85968
G1 X191.325 Y165.738 E2.87976
G1 X191.424 Y166.321 E2.89316
G1 X191.457 Y171.895 E3.01949
G1 X191.419 Y172.532 E3.03396
G1 X191.395 Y172.717 E3.03818
G1 X191.209 Y173.561 E3.05777
G1 X191.009 Y174.183 E3.07258
G1 X190.899 Y174.448 E3.07908
G1 X190.552 Y175.111 E3.09604
G1 X190.165 Y175.703 E3.11207
G1 X189.999 Y175.917 E3.11821
G1 X190.043 Y176.285 E3.12661
G1 X190.005 Y178.86 E3.18498
G1 X189.772 Y179.936 E3.20993
G1 X189.721 Y180.082 E3.21343
G1 X189.369 Y180.828 E3.23213
G1 X189.195 Y181.092 E3.2393
G1 X188.69 Y181.683 E3.25691
G1 X187.844 Y182.374 E3.28167
G1 X187.279 Y182.677 E3.2962
G1 X186.468 Y182.941 E3.31553
G1 X185.404 Y183.091 E3.33989
G1 X164.049 Y183.043 E3.82388
G1 X163.835 Y183.01 E3.82879
G1 X163.285 Y182.881 E3.84159
G1 X162.528 Y182.577 E3.86008
G1 X161.903 Y182.194 E3.8767
G1 X161.494 Y181.851 E3.88879
G1 X160.688 Y180.888 E3.91725
G1 X160.384 Y180.322 E3.93182
G1 X160.116 Y179.52 E3.95098
G1 X160.003 Y178.851 E3.96636
G1 X159.971 Y173.225 E4.09387
G1 X159.98 Y173.039 E4.09809
G1 X160.117 Y172.058 E4.12054
G1 X160.17 Y171.83 E4.12584
G1 X160.446 Y170.992 E4.14584
G1 X160.614 Y170.607 E4.15536
G1 X160.939 Y169.994 E4.17109
G1 X161.082 Y169.771 E4.17709
G1 X161.434 Y169.321 E4.19004
G1 X161.388 Y168.934 E4.19887
G1 X161.426 Y166.359 E4.25724
G1 X161.659 Y165.283 E4.28219
G1 X161.71 Y165.137 E4.2857
G1 X162.044 Y164.423 E4.30356
G1 X162.28 Y164.067 E4.31324
G1 X162.705 Y163.57 E4.32806
G0 F7200 X162.919 Y163.753
G1 F900 X163.718 Y163.094 E4.35154
G1 X164.232 Y162.813 E4.36481
G1 X164.847 Y162.595 E4.3796
G1 X166.027 Y162.409 E4.40667
G1 X187.317 Y162.456 E4.8892
G1 X188.141 Y162.635 E4.90831
G1 X188.906 Y162.956 E4.92711
G1 X189.264 Y163.179 E4.93667
G1 X189.905 Y163.732 E4.95586
G1 X190.495 Y164.464 E4.97717
G1 X190.799 Y165.03 E4.99173
G1 X191.048 Y165.787 E5.00979
G1 X191.143 Y166.323 E5.02213
G1 X191.176 Y171.897 E5.14846
G1 X191.14 Y172.496 E5.16206
G1 X191.116 Y172.681 E5.16629
G1 X190.941 Y173.475 E5.18472
G1 X190.749 Y174.075 E5.19899
G1 X190.639 Y174.34 E5.2055
G1 X190.303 Y174.98 E5.22188
G1 X189.942 Y175.532 E5.23683
G1 X189.8 Y175.717 E5.24211
G1 X189.703 Y175.825 E5.2454
G1 X189.762 Y176.281 E5.25582
G1 X189.73 Y178.801 E5.31294
G1 X189.497 Y179.877 E5.33789
G1 X189.466 Y179.963 E5.33997
G1 X189.133 Y180.675 E5.35778
G1 X188.981 Y180.909 E5.36411
G1 X188.476 Y181.5 E5.38172
G1 X187.711 Y182.126 E5.40413
G1 X187.146 Y182.429 E5.41866
G1 X186.428 Y182.663 E5.43577
G1 X185.405 Y182.81 E5.4592
G1 X164.091 Y182.765 E5.94226
G1 X163.899 Y182.736 E5.94667
G1 X163.349 Y182.607 E5.95947
G1 X162.674 Y182.337 E5.97595
G1 X162.082 Y181.977 E5.99165
G1 X161.709 Y181.67 E6.0026
G1 X160.936 Y180.755 E6.02975
G1 X160.632 Y180.189 E6.04431
G1 X160.383 Y179.432 E6.06237
G1 X160.284 Y178.849 E6.07577
G1 X160.252 Y173.239 E6.20292
G1 X160.261 Y173.053 E6.20714
G1 X160.391 Y172.122 E6.22844
G1 X160.444 Y171.894 E6.23375
G1 X160.704 Y171.104 E6.2526
G1 X160.872 Y170.719 E6.26212
G1 X161.176 Y170.146 E6.27682
G1 X161.319 Y169.923 E6.28283
G1 X161.727 Y169.402 E6.29782
G1 X161.669 Y168.938 E6.30842
G1 X161.701 Y166.418 E6.36554
G1 X161.934 Y165.342 E6.39049
G1 X161.965 Y165.256 E6.39256
G1 X162.299 Y164.542 E6.41043
G1 X162.494 Y164.25 E6.41839
G1 X162.919 Y163.753 E6.43321
G0 F7200 X163.133 Y163.936
G1 F900 X163.853 Y163.341 E6.45438
G1 X164.367 Y163.06 E6.46765
G1 X164.891 Y162.872 E6.48027
G1 X166.026 Y162.69 E6.50632
G1 X187.316 Y162.737 E6.98885
G1 X188.033 Y162.894 E7.00548
G1 X188.757 Y163.195 E7.02325
G1 X189.115 Y163.418 E7.03281
G1 X189.687 Y163.91 E7.04991
G1 X190.247 Y164.597 E7.07
G1 X190.551 Y165.163 E7.08456
G1 X190.771 Y165.836 E7.10061
G1 X190.866 Y166.372 E7.11295
G1 X190.895 Y171.898 E7.23819
G1 X190.861 Y172.46 E7.25095
G1 X190.837 Y172.645 E7.25518
G1 X190.667 Y173.414 E7.27303
G1 X190.489 Y173.967 E7.2862
G1 X190.379 Y174.232 E7.2927
G1 X190.068 Y174.826 E7.3079
G1 X189.718 Y175.362 E7.3224
G1 X189.591 Y175.529 E7.32716
G1 X189.407 Y175.733 E7.33339
G1 X189.481 Y176.278 E7.34585
G1 X189.455 Y178.742 E7.4017
G1 X189.23 Y179.788 E7.42595
G1 X189.211 Y179.845 E7.42731
G1 X188.897 Y180.522 E7.44422
G1 X188.745 Y180.756 E7.45055
G1 X188.297 Y181.283 E7.46622
G1 X187.576 Y181.879 E7.48742
G1 X187.057 Y182.162 E7.50082
G1 X186.387 Y182.385 E7.51683
G1 X185.406 Y182.529 E7.5393
G1 X164.132 Y182.487 E8.02146
G1 X163.963 Y182.462 E8.02533
G1 X163.413 Y182.333 E8.03814
G1 X162.819 Y182.096 E8.05263
G1 X162.261 Y181.76 E8.06739
G1 X161.888 Y181.453 E8.07834
G1 X161.184 Y180.622 E8.10303
G1 X160.88 Y180.056 E8.11759
G1 X160.66 Y179.383 E8.13363
G1 X160.565 Y178.847 E8.14597
G1 X160.533 Y173.253 E8.27276
G1 X160.542 Y173.067 E8.27698
G1 X160.665 Y172.186 E8.29714
G1 X160.718 Y171.958 E8.30244
G1 X160.962 Y171.216 E8.32015
G1 X161.13 Y170.831 E8.32967
G1 X161.413 Y170.298 E8.34334
G1 X161.556 Y170.075 E8.34935
G1 X162.022 Y169.481 E8.36646
G1 X161.95 Y168.941 E8.37881
G1 X161.976 Y166.477 E8.43465
G1 X162.201 Y165.431 E8.4589
G1 X162.22 Y165.374 E8.46027
G1 X162.534 Y164.697 E8.47718
G1 X162.708 Y164.433 E8.48435
G1 X163.133 Y163.936 E8.49917
G0 F7200 X163.347 Y164.119
G1 F900 X163.988 Y163.588 E8.51803
G1 X164.502 Y163.307 E8.53131
G1 X164.936 Y163.149 E8.54178
G1 X166.025 Y162.971 E8.56678
G1 X187.315 Y163.018 E9.04931
G1 X187.926 Y163.154 E9.0635
G1 X188.608 Y163.434 E9.0802
G1 X188.966 Y163.657 E9.08976
G1 X189.47 Y164.089 E9.10481
G1 X189.999 Y164.73 E9.12364
G1 X190.303 Y165.296 E9.13821
G1 X190.494 Y165.885 E9.15224
G1 X190.589 Y166.421 E9.16458
G1 X190.614 Y171.899 E9.28873
G1 X190.582 Y172.424 E9.30065
G1 X190.558 Y172.609 E9.30488
G1 X190.4 Y173.328 E9.32157
G1 X190.229 Y173.859 E9.33421
G1 X190.119 Y174.124 E9.34071
G1 X189.819 Y174.695 E9.35533
G1 X189.494 Y175.192 E9.36879
G1 X189.367 Y175.359 E9.37355
G1 X189.111 Y175.642 E9.38219
G1 X189.2 Y176.275 E9.39668
G1 X189.174 Y178.739 E9.45253
G1 X188.956 Y179.728 E9.47548
G1 X188.661 Y180.369 E9.49148
G1 X188.509 Y180.603 E9.4978
G1 X188.117 Y181.067 E9.51157
G1 X187.441 Y181.632 E9.53153
G1 X186.922 Y181.915 E9.54493
G1 X186.3 Y182.118 E9.55976
G1 X185.407 Y182.248 E9.58021
G1 X164.172 Y182.209 E10.06149
G1 X164.027 Y182.188 E10.06481
G1 X163.477 Y182.059 E10.07761
G1 X162.963 Y181.855 E10.09015
G1 X162.44 Y181.543 E10.10395
G1 X162.067 Y181.236 E10.1149
G1 X161.432 Y180.489 E10.13712
G1 X161.128 Y179.923 E10.15168
G1 X160.937 Y179.334 E10.16571
G1 X160.842 Y178.798 E10.17805
G1 X160.814 Y173.267 E10.30341
G1 X160.823 Y173.081 E10.30763
G1 X160.939 Y172.25 E10.32665
G1 X160.992 Y172.022 E10.33195
G1 X161.22 Y171.328 E10.34851
G1 X161.388 Y170.943 E10.35803
G1 X161.65 Y170.45 E10.37068
G1 X161.793 Y170.227 E10.37669
G1 X162.317 Y169.561 E10.39589
G1 X162.231 Y168.944 E10.41001
G1 X162.257 Y166.48 E10.46586
G1 X162.475 Y165.491 E10.48881
G1 X162.77 Y164.85 E10.5048
G1 X162.922 Y164.616 E10.51113
G1 X163.347 Y164.119 E10.52595
G0 F7200 X163.528 Y164.334
G1 F900 X164.123 Y163.835 E10.54355
G1 X164.637 Y163.554 E10.55683
G1 X165.03 Y163.414 E10.56628
G1 X166.024 Y163.252 E10.58911
G1 X187.256 Y163.293 E11.07032
G1 X187.821 Y163.415 E11.08342
G1 X188.459 Y163.673 E11.09901
G1 X188.817 Y163.896 E11.10857
G1 X189.254 Y164.269 E11.12159
G1 X189.752 Y164.865 E11.1392
G1 X190.036 Y165.384 E11.15261
G1 X190.217 Y165.934 E11.16573
G1 X190.312 Y166.47 E11.17807
G1 X190.333 Y171.9 E11.30113
G1 X190.303 Y172.388 E11.31222
G1 X190.279 Y172.573 E11.31644
G1 X190.132 Y173.242 E11.33197
G1 X189.969 Y173.751 E11.34408
G1 X189.859 Y174.016 E11.35058
G1 X189.584 Y174.541 E11.36402
G1 X189.27 Y175.022 E11.37704
G1 X189.143 Y175.189 E11.38179
G1 X188.814 Y175.551 E11.39288
G1 X188.919 Y176.272 E11.40939
G1 X188.893 Y178.736 E11.46524
G1 X188.7 Y179.612 E11.48557
G1 X188.425 Y180.216 E11.50061
G1 X188.273 Y180.45 E11.50693
G1 X187.903 Y180.885 E11.51988
G1 X187.306 Y181.385 E11.53753
G1 X186.787 Y181.668 E11.55092
G1 X186.259 Y181.84 E11.56351
G1 X185.407 Y181.967 E11.58303
G1 X164.211 Y181.931 E12.06343
G1 X164.091 Y181.914 E12.06617
G1 X163.541 Y181.785 E12.07898
G1 X163.106 Y181.613 E12.08958
G1 X162.619 Y181.326 E12.10239
G1 X162.246 Y181.019 E12.11334
G1 X161.679 Y180.354 E12.13314
G1 X161.395 Y179.835 E12.14655
G1 X161.214 Y179.285 E12.15968
G1 X161.119 Y178.749 E12.17201
G1 X161.095 Y173.281 E12.29594
G1 X161.104 Y173.095 E12.30016
G1 X161.213 Y172.314 E12.31804
G1 X161.266 Y172.086 E12.32334
G1 X161.487 Y171.416 E12.33933
G1 X161.636 Y171.075 E12.34777
G1 X161.887 Y170.602 E12.3599
G1 X162.03 Y170.379 E12.36591
G1 X162.486 Y169.791 E12.38277
G1 X162.615 Y169.657 E12.38699
G1 X162.512 Y168.947 E12.40325
G1 X162.538 Y166.483 E12.45909
G1 X162.731 Y165.607 E12.47942
G1 X163.006 Y165.003 E12.49446
G1 X163.158 Y164.769 E12.50079
G1 X163.528 Y164.334 E12.51373
G0 F7200 X163.71 Y164.548
G1 F900 X164.26 Y164.081 E12.53008
G1 X164.731 Y163.819 E12.5423
G1 X165.124 Y163.679 E12.55176
G1 X166.024 Y163.533 E12.57242
G1 X187.197 Y163.568 E13.05229
G1 X187.762 Y163.69 E13.06539
G1 X188.31 Y163.912 E13.07879
G1 X188.668 Y164.135 E13.08835
G1 X189.04 Y164.451 E13.09941
G1 X189.505 Y165 E13.11572
G1 X189.789 Y165.519 E13.12913
G1 X189.94 Y165.983 E13.14019
G1 X190.035 Y166.519 E13.15253
G1 X190.052 Y171.883 E13.2741
G1 X190.024 Y172.352 E13.28475
G1 X190 Y172.537 E13.28897
G1 X189.858 Y173.181 E13.30392
G1 X189.709 Y173.643 E13.31492
G1 X189.599 Y173.908 E13.32142
G1 X189.348 Y174.388 E13.3337
G1 X189.046 Y174.852 E13.34625
G1 X188.919 Y175.019 E13.351
G1 X188.516 Y175.461 E13.36456
G1 X188.638 Y176.269 E13.38308
G1 X188.612 Y178.733 E13.43893
G1 X188.444 Y179.497 E13.45666
G1 X188.188 Y180.065 E13.47078
G1 X188.058 Y180.269 E13.47626
G1 X187.721 Y180.671 E13.48815
G1 X187.171 Y181.138 E13.5045
G1 X186.652 Y181.421 E13.5179
G1 X186.216 Y181.562 E13.52829
G1 X185.407 Y181.686 E13.54684
G1 X164.247 Y181.652 E14.02641
G1 X164.155 Y181.64 E14.02852
G1 X163.605 Y181.511 E14.04132
G1 X163.211 Y181.352 E14.05095
G1 X162.798 Y181.109 E14.06181
G1 X162.425 Y180.802 E14.07276
G1 X161.926 Y180.219 E14.09015
G1 X161.642 Y179.7 E14.10356
G1 X161.491 Y179.236 E14.11462
G1 X161.396 Y178.7 E14.12696
G1 X161.376 Y173.295 E14.24946
G1 X161.385 Y173.109 E14.25368
G1 X161.487 Y172.378 E14.2704
G1 X161.54 Y172.15 E14.27571
G1 X161.754 Y171.504 E14.29113
G1 X161.884 Y171.207 E14.29848
G1 X162.124 Y170.754 E14.3101
G1 X162.267 Y170.531 E14.3161
G1 X162.689 Y169.986 E14.33173
G1 X162.914 Y169.752 E14.33908
G1 X162.793 Y168.95 E14.35747
G1 X162.819 Y166.486 E14.41331
G1 X162.987 Y165.722 E14.43104
G1 X163.243 Y165.154 E14.44516
G1 X163.373 Y164.95 E14.45065
G1 X163.71 Y164.548 E14.46254
G0 F7200 X163.894 Y164.761
G1 F900 X164.397 Y164.327 E14.47759
G1 X164.868 Y164.065 E14.48981
G1 X165.216 Y163.945 E14.49815
G1 X166.024 Y163.814 E14.5167
G1 X187.138 Y163.843 E14.99524
G1 X187.703 Y163.965 E15.00834
G1 X188.163 Y164.152 E15.01959
G1 X188.488 Y164.351 E15.02823
G1 X188.827 Y164.634 E15.03824
G1 X189.26 Y165.137 E15.05328
G1 X189.522 Y165.607 E15.06547
G1 X189.663 Y166.032 E15.07562
G1 X189.758 Y166.568 E15.08796
G1 X189.771 Y171.884 E15.20844
G1 X189.745 Y172.316 E15.21825
G1 X189.721 Y172.501 E15.22248
G1 X189.59 Y173.095 E15.23627
G1 X189.449 Y173.535 E15.24674
G1 X189.339 Y173.8 E15.25324
G1 X189.112 Y174.235 E15.26436
G1 X188.822 Y174.682 E15.27644
G1 X188.695 Y174.849 E15.28119
G1 X188.267 Y175.317 E15.29557
G1 X188.202 Y175.374 E15.29753
G1 X188.236 Y175.49 E15.30027
G1 X188.357 Y176.266 E15.31807
G1 X188.331 Y178.73 E15.37391
G1 X188.187 Y179.383 E15.38907
G1 X187.95 Y179.916 E15.40229
G1 X187.841 Y180.09 E15.40694
G1 X187.537 Y180.458 E15.41776
G1 X187.034 Y180.892 E15.43282
G1 X186.563 Y181.154 E15.44503
G1 X186.172 Y181.284 E15.45437
G1 X185.407 Y181.405 E15.47193
G1 X164.279 Y181.373 E15.95078
G1 X164.218 Y181.366 E15.95217
G1 X163.71 Y181.25 E15.96398
G1 X163.316 Y181.091 E15.97361
G1 X162.977 Y180.892 E15.98252
G1 X162.604 Y180.585 E15.99347
G1 X162.171 Y180.082 E16.00851
G1 X161.909 Y179.612 E16.02071
G1 X161.768 Y179.187 E16.03085
G1 X161.673 Y178.651 E16.04319
G1 X161.657 Y173.309 E16.16426
G1 X161.666 Y173.123 E16.16848
G1 X161.761 Y172.442 E16.18407
G1 X161.814 Y172.214 E16.18937
G1 X162.012 Y171.616 E16.20365
G1 X162.133 Y171.338 E16.21052
G1 X162.361 Y170.906 E16.22159
G1 X162.504 Y170.683 E16.2276
G1 X162.895 Y170.178 E16.24207
G1 X163.073 Y169.987 E16.24799
G1 X163.23 Y169.847 E16.25276
G1 X163.195 Y169.729 E16.25555
G1 X163.074 Y168.953 E16.27335
G1 X163.1 Y166.489 E16.32919
G1 X163.244 Y165.836 E16.34435
G1 X163.481 Y165.303 E16.35757
G1 X163.59 Y165.129 E16.36222
G1 X163.894 Y164.761 E16.37304
G0 F7200 X164.079 Y164.972
G1 F900 X164.534 Y164.573 E16.38676
G1 X165.005 Y164.311 E16.39897
G1 X165.304 Y164.212 E16.40611
G1 X166.024 Y164.095 E16.42264
G1 X187.079 Y164.118 E16.89984
G1 X187.644 Y164.24 E16.91294
G1 X188.055 Y164.411 E16.92303
G1 X188.31 Y164.568 E16.92982
