;FLAVOR:Marlin
;TIME:6443
;Filament used: 7.56629m
;Layer height: 0.2
;MINX:104.253
;MINY:72.725
;MINZ:0.2
;MAXX:245.747
;MAXY:277.275
;MAXZ:1.8
;TARGET_MACHINE.NAME:VORON2 350
;POSTPROCESSED
;  [CreateThumbnail]
;  [CreateThumbnail]
;  [InsertAtLayerChange]
;Generated with Cura_SteamEngine 5.8.0
;
;

;
;



; Pre-Processed for Cancel-Object support by preprocess_cancellation v0.2.0
; 1 known objects
EXCLUDE_OBJECT_DEFINE NAME=BATTERY_PAD_STL CENTER=175.065,178.479 POLYGON=[[112.328,80.8],[112.328,269.199],[237.672,269.199],[237.672,80.8]]
M82 ;absolute extrusion mode
;Nozzle diameter = 0.4
;Filament type = ABS
;Filament name = ABS+ Black
;Filament weight = [20.018964453125]
; M190 S100
; M109 S240
PRINT_START BED_TEMP=100 EXTRUDER_TEMP=240
M141 S40
G92 E0
G92 E0
G1 F1800 E-0.75
;LAYER_COUNT:8
TIMELAPSE_TAKE_FRAME
;LAYER:0
M107
G1 F600 Z0.4
G0 F7200 X127.499 Y76.621 Z0.4
;TYPE:SKIRT
G1 F600 Z0.2
G1 F720 E0
G1 F1800 X128.045 Y75.821 E0.03624
G1 X128.662 Y75.111 E0.07144
G1 X129.361 Y74.482 E0.10662
G1 X130.265 Y73.857 E0.14775
G1 X131.231 Y73.369 E0.18824
G1 X132.33 Y72.99 E0.23174
G1 X133.103 Y72.83 E0.26128
G1 X134.284 Y72.725 E0.30564
G1 X215.77 Y72.728 E3.35466
G1 X217.442 Y72.938 E3.41771
G1 X217.742 Y73.012 E3.42927
G1 X218.699 Y73.332 E3.46703
G1 X219.365 Y73.644 E3.49455
G1 X220.031 Y74.044 E3.52362
G1 X221.005 Y74.788 E3.56948
G1 X221.611 Y75.399 E3.60168
G1 X222.141 Y76.07 E3.63367
G1 X222.699 Y76.966 E3.67317
G1 X224.283 Y80.051 E3.80293
G1 X225.797 Y83.233 E3.93478
G1 X227.287 Y86.593 E4.07231
G1 X228.726 Y90.108 E4.21443
G1 X230.137 Y93.804 E4.36246
G1 X231.518 Y97.712 E4.51755
G1 X232.846 Y101.786 E4.67789
G1 X234.135 Y106.074 E4.84543
G1 X235.369 Y110.561 E5.01955
G1 X236.552 Y115.232 E5.19985
G1 X237.658 Y119.961 E5.38157
G1 X238.74 Y125.029 E5.57548
G1 X239.747 Y130.258 E5.77473
G1 X240.71 Y135.701 E5.98156
G1 X241.583 Y141.274 E6.19263
G1 X242.381 Y146.975 E6.40803
G1 X243.086 Y152.791 E6.62724
G1 X243.725 Y158.706 E6.84985
G1 X244.222 Y164.028 E7.04986
G1 X244.692 Y170.179 E7.28068
G1 X245.075 Y176.422 E7.51472
G1 X245.389 Y182.804 E7.75381
G1 X245.599 Y189.329 E7.99809
G1 X245.719 Y195.989 E8.24733
G1 X245.747 Y202.859 E8.50439
G1 X245.722 Y206.718 E8.64879
G1 X245.682 Y209.801 E8.76416
G1 X245.516 Y217.28 E9.04407
G1 X245.27 Y224.33 E9.30803
G1 X244.917 Y231.804 E9.588
G1 X244.475 Y239.773 E9.88664
G1 X243.915 Y248.399 E10.21008
G1 X243.209 Y257.973 E10.56929
G1 X242.133 Y270.755 E11.04925
G1 X241.906 Y271.703 E11.08573
G1 X241.749 Y272.17 E11.10416
G1 X241.346 Y273.064 E11.14086
G1 X240.97 Y273.701 E11.16853
G1 X240.209 Y274.685 E11.21508
G1 X239.642 Y275.248 E11.24498
G1 X238.831 Y275.876 E11.28336
G1 X237.856 Y276.448 E11.32566
G1 X237.231 Y276.721 E11.35117
G1 X236.428 Y276.984 E11.38279
G1 X235.426 Y277.187 E11.42105
G1 X234.391 Y277.275 E11.45991
G1 X114.926 Y277.235 E15.93001
G1 X114.638 Y277.203 E15.94086
G1 X113.464 Y276.956 E15.98575
G1 X112.567 Y276.642 E16.02131
G1 X111.663 Y276.197 E16.05901
G1 X110.977 Y275.75 E16.08964
G1 X110.22 Y275.12 E16.1265
G1 X109.688 Y274.561 E16.15537
G1 X109.123 Y273.815 E16.19039
G1 X108.461 Y272.645 E16.24069
G1 X108.2 Y272.004 E16.26658
G1 X107.95 Y271.158 E16.29959
G1 X107.754 Y270.03 E16.34243
G1 X106.785 Y257.913 E16.79727
G1 X106.084 Y248.329 E17.15684
G1 X105.525 Y239.711 E17.47998
G1 X105.066 Y231.722 E17.7794
G1 X104.727 Y224.241 E18.05961
G1 X104.484 Y217.176 E18.32412
G1 X104.318 Y209.696 E18.60408
G1 X104.253 Y202.772 E18.86317
G1 X104.281 Y195.885 E19.12087
G1 X104.401 Y189.208 E19.37074
G1 X104.624 Y182.697 E19.61451
G1 X104.925 Y176.313 E19.85365
G1 X105.309 Y170.058 E20.08814
G1 X105.795 Y163.905 E20.31909
G1 X106.287 Y158.605 E20.51825
G1 X106.915 Y152.668 E20.74164
G1 X107.636 Y146.837 E20.96149
G1 X108.435 Y141.172 E21.17556
G1 X109.324 Y135.572 E21.38772
G1 X110.271 Y130.119 E21.59481
G1 X111.295 Y124.876 E21.7947
G1 X112.377 Y119.821 E21.98813
G1 X113.483 Y115.08 E22.17029
G1 X114.666 Y110.399 E22.35095
G1 X115.918 Y105.894 E22.5259
G1 X117.207 Y101.61 E22.6933
G1 X118.552 Y97.521 E22.85436
G1 X119.929 Y93.629 E23.00884
G1 X121.342 Y89.921 E23.15732
G1 X122.8 Y86.382 E23.30054
G1 X124.291 Y83.029 E23.43784
G1 X125.826 Y79.824 E23.57081
G1 X127.499 Y76.621 E23.70602
G0 F7200 X127.871 Y76.875
G1 F1800 X128.417 Y76.075 E23.74226
G1 X129.001 Y75.407 E23.77546
G1 X129.618 Y74.851 E23.80654
G1 X130.468 Y74.259 E23.8453
G1 X131.434 Y73.771 E23.8858
G1 X132.421 Y73.431 E23.92486
G1 X133.194 Y73.271 E23.95439
G1 X134.284 Y73.175 E23.99534
G1 X215.715 Y73.175 E27.04229
G1 X217.337 Y73.376 E27.10345
G1 X217.6 Y73.439 E27.11357
G1 X218.508 Y73.74 E27.14936
G1 X219.174 Y74.052 E27.17688
G1 X219.759 Y74.402 E27.20239
G1 X220.685 Y75.105 E27.24589
G1 X221.291 Y75.716 E27.27809
G1 X221.787 Y76.348 E27.30815
G1 X222.299 Y77.172 E27.34445
G1 X223.877 Y80.244 E27.47368
G1 X225.386 Y83.415 E27.60508
G1 X226.871 Y86.763 E27.74212
G1 X228.306 Y90.269 E27.88387
G1 X229.713 Y93.954 E28.03147
G1 X231.09 Y97.851 E28.18612
G1 X232.415 Y101.916 E28.3461
G1 X233.701 Y106.193 E28.51321
G1 X234.933 Y110.671 E28.68699
G1 X236.114 Y115.334 E28.86698
G1 X237.218 Y120.055 E29.04839
G1 X238.298 Y125.114 E29.24196
G1 X239.304 Y130.336 E29.44094
G1 X240.265 Y135.771 E29.64746
G1 X241.137 Y141.336 E29.85823
G1 X241.934 Y147.029 E30.07333
G1 X242.639 Y152.839 E30.29232
G1 X243.277 Y158.748 E30.51471
G1 X243.773 Y164.062 E30.71441
G1 X244.243 Y170.207 E30.94501
G1 X244.626 Y176.444 E31.17882
G1 X244.939 Y182.818 E31.41761
G1 X245.149 Y189.337 E31.66166
G1 X245.269 Y195.991 E31.91068
G1 X245.297 Y202.856 E32.16756
G1 X245.272 Y206.712 E32.31184
G1 X245.232 Y209.791 E32.42706
G1 X245.066 Y217.264 E32.70675
G1 X244.821 Y224.309 E32.97052
G1 X244.468 Y231.779 E33.25034
G1 X244.026 Y239.744 E33.54883
G1 X243.466 Y248.366 E33.87212
G1 X242.761 Y257.935 E34.23114
G1 X241.695 Y270.65 E34.70858
G1 X241.468 Y271.598 E34.74505
G1 X241.323 Y272.025 E34.76193
G1 X240.958 Y272.835 E34.79517
G1 X240.582 Y273.472 E34.82285
G1 X239.891 Y274.367 E34.86516
G1 X239.366 Y274.892 E34.89294
G1 X238.555 Y275.52 E34.93132
G1 X237.674 Y276.036 E34.96952
G1 X237.091 Y276.293 E34.99336
G1 X236.288 Y276.556 E35.02498
G1 X235.338 Y276.746 E35.06123
G1 X234.391 Y276.825 E35.09679
G1 X114.976 Y276.788 E39.56501
G1 X114.688 Y276.756 E39.57586
G1 X113.611 Y276.531 E39.61703
G1 X112.766 Y276.238 E39.65049
G1 X111.862 Y275.793 E39.68819
G1 X111.264 Y275.403 E39.71491
G1 X110.545 Y274.808 E39.74983
G1 X110.047 Y274.289 E39.77674
G1 X109.482 Y273.543 E39.81176
G1 X108.853 Y272.424 E39.85979
G1 X108.632 Y271.876 E39.8819
G1 X108.382 Y271.03 E39.91491
G1 X108.203 Y269.994 E39.95425
G1 X107.234 Y257.88 E40.40897
G1 X106.533 Y248.3 E40.76839
G1 X105.974 Y239.685 E41.09142
G1 X105.516 Y231.702 E41.39062
G1 X105.177 Y224.226 E41.67064
G1 X104.934 Y217.166 E41.93496
G1 X104.768 Y209.692 E42.21469
G1 X104.703 Y202.774 E42.47356
G1 X104.731 Y195.893 E42.73103
G1 X104.851 Y189.223 E42.98065
G1 X105.073 Y182.718 E43.22419
G1 X105.374 Y176.341 E43.46307
G1 X105.758 Y170.093 E43.6973
G1 X106.243 Y163.947 E43.92798
G1 X106.735 Y158.652 E44.12696
G1 X107.362 Y152.723 E44.35005
G1 X108.082 Y146.9 E44.56959
G1 X108.879 Y141.243 E44.78335
G1 X109.767 Y135.649 E44.99529
G1 X110.713 Y130.205 E45.20204
G1 X111.735 Y124.97 E45.40162
G1 X112.815 Y119.923 E45.59474
G1 X113.919 Y115.19 E45.77659
G1 X115.1 Y110.519 E45.95687
G1 X116.349 Y106.024 E46.13144
G1 X117.634 Y101.751 E46.2984
G1 X118.976 Y97.671 E46.45911
G1 X120.349 Y93.789 E46.61318
G1 X121.758 Y90.092 E46.76122
G1 X123.211 Y86.565 E46.90395
G1 X124.697 Y83.223 E47.0408
G1 X126.225 Y80.032 E47.17319
G1 X127.871 Y76.875 E47.30641
G0 F7200 X128.243 Y77.129
G1 F1800 X128.789 Y76.329 E47.34265
G1 X129.339 Y75.704 E47.3738
G1 X129.877 Y75.219 E47.4009
G1 X130.671 Y74.661 E47.43721
G1 X131.637 Y74.173 E47.47771
G1 X132.512 Y73.872 E47.51233
G1 X133.285 Y73.712 E47.54187
G1 X134.284 Y73.625 E47.57939
G1 X215.715 Y73.625 E50.62635
G1 X217.281 Y73.822 E50.68541
G1 X217.46 Y73.867 E50.69231
G1 X218.317 Y74.148 E50.72606
G1 X218.983 Y74.46 E50.75358
G1 X219.488 Y74.762 E50.7756
G1 X220.365 Y75.422 E50.81667
G1 X220.971 Y76.033 E50.84887
G1 X221.405 Y76.586 E50.87517
G1 X221.899 Y77.378 E50.9101
G1 X223.471 Y80.437 E51.03879
G1 X224.975 Y83.597 E51.16974
G1 X226.455 Y86.934 E51.30633
G1 X227.886 Y90.429 E51.44764
G1 X229.289 Y94.104 E51.59483
G1 X230.662 Y97.99 E51.74904
G1 X231.984 Y102.046 E51.90867
G1 X233.267 Y106.312 E52.07535
G1 X234.497 Y110.781 E52.24879
G1 X235.676 Y115.436 E52.42847
G1 X236.778 Y120.149 E52.60958
G1 X237.856 Y125.199 E52.80279
G1 X238.861 Y130.414 E53.00152
G1 X239.82 Y135.841 E53.20773
G1 X240.691 Y141.398 E53.4182
G1 X241.487 Y147.083 E53.63299
G1 X242.192 Y152.887 E53.85176
G1 X242.829 Y158.79 E54.07392
G1 X243.324 Y164.096 E54.27332
G1 X243.794 Y170.235 E54.5037
G1 X244.177 Y176.466 E54.73729
G1 X244.489 Y182.833 E54.97581
G1 X244.699 Y189.345 E55.2196
G1 X244.819 Y195.993 E55.46839
G1 X244.847 Y202.853 E55.72508
G1 X244.822 Y206.706 E55.86925
G1 X244.782 Y209.781 E55.98432
G1 X244.616 Y217.248 E56.26379
G1 X244.372 Y224.288 E56.52737
G1 X244.019 Y231.754 E56.80704
G1 X243.577 Y239.715 E57.10538
G1 X243.017 Y248.333 E57.42853
G1 X242.313 Y257.898 E57.78739
G1 X241.257 Y270.546 E58.2623
G1 X241.041 Y271.455 E58.29726
G1 X240.912 Y271.841 E58.31249
G1 X240.57 Y272.606 E58.34384
G1 X240.194 Y273.243 E58.37152
G1 X239.571 Y274.05 E58.40967
G1 X239.09 Y274.536 E58.43525
G1 X238.279 Y275.164 E58.47363
G1 X237.492 Y275.625 E58.50776
G1 X236.951 Y275.865 E58.52991
G1 X236.148 Y276.128 E58.56152
G1 X235.3 Y276.298 E58.59389
G1 X234.391 Y276.375 E58.62802
G1 X115.022 Y276.34 E63.09453
G1 X114.779 Y276.315 E63.10367
G1 X113.757 Y276.105 E63.14271
G1 X112.965 Y275.834 E63.17403
G1 X112.061 Y275.389 E63.21173
G1 X111.55 Y275.055 E63.23457
G1 X110.87 Y274.496 E63.26751
G1 X110.372 Y273.977 E63.29443
G1 X109.841 Y273.272 E63.32745
G1 X109.27 Y272.255 E63.37109
G1 X109.064 Y271.748 E63.39157
G1 X108.814 Y270.902 E63.42458
G1 X108.652 Y269.958 E63.46042
G1 X107.683 Y257.847 E63.91503
G1 X106.982 Y248.271 E64.2743
G1 X106.423 Y239.659 E64.59722
G1 X105.966 Y231.682 E64.89619
G1 X105.627 Y224.211 E65.17602
G1 X105.384 Y217.156 E65.44016
G1 X105.218 Y209.688 E65.71967
G1 X105.153 Y202.776 E65.97831
G1 X105.181 Y195.901 E66.23556
G1 X105.301 Y189.238 E66.48491
G1 X105.522 Y182.739 E66.72823
G1 X105.823 Y176.369 E66.96684
G1 X106.207 Y170.128 E67.20081
G1 X106.691 Y163.989 E67.43123
G1 X107.183 Y158.699 E67.63002
G1 X107.809 Y152.778 E67.85281
G1 X108.528 Y146.963 E68.07205
G1 X109.323 Y141.314 E68.2855
G1 X110.21 Y135.726 E68.49721
G1 X111.155 Y130.291 E68.70363
G1 X112.175 Y125.064 E68.9029
G1 X113.253 Y120.025 E69.09571
G1 X114.355 Y115.3 E69.27726
G1 X115.534 Y110.639 E69.45715
G1 X116.78 Y106.154 E69.63133
G1 X118.062 Y101.892 E69.79786
G1 X119.4 Y97.821 E69.9582
G1 X120.769 Y93.949 E70.11187
G1 X122.174 Y90.263 E70.25947
G1 X123.622 Y86.748 E70.40172
G1 X125.103 Y83.417 E70.53812
G1 X126.624 Y80.24 E70.66992
G1 X128.243 Y77.129 E70.80114
G0 F7200 X128.615 Y77.383
G1 F1800 X129.161 Y76.583 E70.83739
G1 X129.676 Y76.002 E70.86644
G1 X130.137 Y75.586 E70.88967
G1 X130.876 Y75.062 E70.92357
G1 X131.783 Y74.599 E70.96167
G1 X132.658 Y74.298 E70.9963
G1 X133.374 Y74.153 E71.02363
G1 X134.284 Y74.075 E71.05781
G1 X215.715 Y74.075 E74.10476
G1 X217.174 Y74.259 E74.15979
G1 X217.321 Y74.295 E74.16545
G1 X218.126 Y74.556 E74.19712
G1 X218.792 Y74.868 E74.22463
G1 X219.217 Y75.122 E74.24316
G1 X220.094 Y75.782 E74.28423
G1 X220.618 Y76.312 E74.31212
G1 X221.024 Y76.825 E74.3366
G1 X221.499 Y77.584 E74.3701
G1 X223.065 Y80.63 E74.49825
G1 X224.564 Y83.779 E74.62875
G1 X226.039 Y87.104 E74.76486
G1 X227.466 Y90.59 E74.9058
G1 X228.865 Y94.254 E75.05255
G1 X230.234 Y98.129 E75.20633
G1 X231.553 Y102.176 E75.3656
G1 X232.833 Y106.431 E75.53186
G1 X234.061 Y110.891 E75.70495
G1 X235.238 Y115.538 E75.88432
G1 X236.338 Y120.243 E76.06512
G1 X237.414 Y125.284 E76.25799
G1 X238.418 Y130.492 E76.45645
G1 X239.375 Y135.911 E76.66235
G1 X240.245 Y141.46 E76.87252
G1 X241.04 Y147.137 E77.08701
G1 X241.745 Y152.935 E77.30556
G1 X242.381 Y158.832 E77.52749
G1 X242.875 Y164.13 E77.72659
G1 X243.345 Y170.263 E77.95674
G1 X243.728 Y176.488 E78.19011
G1 X244.039 Y182.848 E78.42837
G1 X244.249 Y189.353 E78.6719
G1 X244.369 Y195.995 E78.92047
G1 X244.397 Y202.85 E79.17697
G1 X244.372 Y206.7 E79.32103
G1 X244.332 Y209.771 E79.43595
G1 X244.166 Y217.232 E79.71519
G1 X243.922 Y224.267 E79.97858
G1 X243.57 Y231.729 E80.2581
G1 X243.128 Y239.686 E80.55629
G1 X242.568 Y248.3 E80.87929
G1 X241.865 Y257.861 E81.23801
G1 X240.819 Y270.443 E81.71042
G1 X240.614 Y271.312 E81.74383
G1 X240.485 Y271.698 E81.75906
G1 X240.182 Y272.377 E81.78688
G1 X239.806 Y273.014 E81.81455
G1 X239.251 Y273.733 E81.84854
G1 X238.77 Y274.219 E81.87413
G1 X238.05 Y274.776 E81.90819
G1 X237.308 Y275.214 E81.94043
G1 X236.811 Y275.437 E81.96081
G1 X236.008 Y275.7 E81.99243
G1 X235.261 Y275.85 E82.02094
G1 X234.391 Y275.925 E82.05361
G1 X115.068 Y275.892 E86.5184
G1 X114.825 Y275.867 E86.52754
G1 X113.901 Y275.678 E86.56283
G1 X113.164 Y275.43 E86.59192
G1 X112.26 Y274.985 E86.62963
G1 X111.835 Y274.707 E86.64863
G1 X111.195 Y274.184 E86.67955
G1 X110.697 Y273.665 E86.70647
G1 X110.201 Y273.002 E86.73745
G1 X109.686 Y272.084 E86.77684
G1 X109.496 Y271.62 E86.7956
G1 X109.246 Y270.774 E86.8286
G1 X109.101 Y269.922 E86.86094
G1 X108.132 Y257.814 E87.31544
G1 X107.431 Y248.242 E87.67457
G1 X106.872 Y239.633 E87.99737
G1 X106.416 Y231.662 E88.29612
G1 X106.077 Y224.195 E88.5758
G1 X105.834 Y217.146 E88.83972
G1 X105.668 Y209.684 E89.11899
G1 X105.603 Y202.778 E89.37741
G1 X105.631 Y195.909 E89.63444
G1 X105.751 Y189.253 E89.88353
G1 X105.972 Y182.76 E90.12662
G1 X106.272 Y176.397 E90.36498
G1 X106.656 Y170.163 E90.59868
G1 X107.139 Y164.031 E90.82883
G1 X107.63 Y158.746 E91.02744
G1 X108.256 Y152.833 E91.24993
G1 X108.974 Y147.026 E91.46886
G1 X109.767 Y141.385 E91.68201
G1 X110.653 Y135.803 E91.89349
G1 X111.597 Y130.377 E92.09957
G1 X112.615 Y125.158 E92.29853
G1 X113.691 Y120.127 E92.49104
G1 X114.791 Y115.41 E92.67227
G1 X115.968 Y110.759 E92.85179
G1 X117.211 Y106.284 E93.02557
G1 X118.49 Y102.032 E93.19171
G1 X119.824 Y97.971 E93.35166
G1 X121.189 Y94.109 E93.50492
G1 X122.59 Y90.434 E93.65209
G1 X124.033 Y86.931 E93.79385
G1 X125.509 Y83.611 E93.9298
G1 X127.023 Y80.447 E94.06104
G1 X128.615 Y77.383 E94.19024
G0 F7200 X128.987 Y77.637
G1 F1800 X129.533 Y76.837 E94.22648
G1 X129.979 Y76.335 E94.25161
G1 X130.399 Y75.952 E94.27288
G1 X131.082 Y75.462 E94.30433
G1 X131.929 Y75.025 E94.33999
G1 X132.804 Y74.724 E94.37462
G1 X133.413 Y74.601 E94.39786
G1 X134.284 Y74.525 E94.43058
G1 X215.715 Y74.525 E97.47754
G1 X217.07 Y74.697 E97.52864
G1 X217.184 Y74.724 E97.53303
G1 X217.936 Y74.964 E97.56256
G1 X218.563 Y75.256 E97.58844
G1 X218.946 Y75.482 E97.60508
G1 X219.823 Y76.142 E97.64615
G1 X220.266 Y76.593 E97.66981
G1 X220.643 Y77.065 E97.69241
G1 X221.099 Y77.79 E97.72446
G1 X222.659 Y80.823 E97.85208
G1 X224.153 Y83.962 E97.98216
G1 X225.623 Y87.275 E98.11778
G1 X227.046 Y90.75 E98.25828
G1 X228.441 Y94.404 E98.40463
G1 X229.806 Y98.268 E98.55797
G1 X231.122 Y102.306 E98.71688
G1 X232.399 Y106.55 E98.88272
G1 X233.625 Y111.002 E99.0555
G1 X234.8 Y115.64 E99.23453
G1 X235.898 Y120.337 E99.41502
G1 X236.972 Y125.369 E99.60754
G1 X237.975 Y130.57 E99.80574
G1 X238.93 Y135.981 E100.01133
G1 X239.799 Y141.522 E100.2212
G1 X240.593 Y147.191 E100.43539
G1 X241.298 Y152.983 E100.65371
G1 X241.933 Y158.874 E100.87542
G1 X242.426 Y164.164 E101.07421
G1 X242.896 Y170.291 E101.30415
G1 X243.279 Y176.51 E101.53729
G1 X243.589 Y182.863 E101.77528
G1 X243.799 Y189.361 E102.01855
G1 X243.919 Y195.997 E102.26689
G1 X243.947 Y202.847 E102.52321
G1 X243.922 Y206.694 E102.66716
G1 X243.882 Y209.761 E102.78193
G1 X243.716 Y217.216 E103.06094
G1 X243.473 Y224.246 E103.32415
G1 X243.121 Y231.704 E103.60352
G1 X242.679 Y239.657 E103.90156
G1 X242.119 Y248.267 E104.22441
G1 X241.417 Y257.824 E104.58297
G1 X240.381 Y270.34 E105.05289
