;FLAVOR:Marlin
;TIME:6442
;Filament used: 7.56588m
;Layer height: 0.2
;MINX:104.253
;MINY:72.725
;MINZ:0.2
;MAXX:245.747
;MAXY:277.275
;MAXZ:1.8
;TARGET_MACHINE.NAME:VORON2 350
;POSTPROCESSED
;  [CreateThumbnail]
;  [CreateThumbnail]
;  [InsertAtLayerChange]
;Generated with Cura_SteamEngine 5.8.0
;
;

;
;



; Pre-Processed for Cancel-Object support by preprocess_cancellation v0.2.0
; 1 known objects
EXCLUDE_OBJECT_DEFINE NAME=BATTERY_PAD_STL CENTER=175.060,171.513 POLYGON=[[112.328,80.8],[112.328,269.2],[237.672,269.2],[237.672,80.8]]
M82 ;absolute extrusion mode
;Nozzle diameter = 0.4
;Filament type = ABS
;Filament name = ABS+ Black
;Filament weight = [20.0178837890625]
; M190 S100
; M109 S240
PRINT_START BED_TEMP=100 EXTRUDER_TEMP=240
M141 S40
G92 E0
G92 E0
G1 F1800 E-0.75
;LAYER_COUNT:8
TIMELAPSE_TAKE_FRAME
;LAYER:0
M107
G1 F600 Z0.4
G0 F7200 X109.03 Y76.299 Z0.4
;TYPE:SKIRT
G1 F600 Z0.2
G1 F720 E0
G1 F1800 X109.791 Y75.315 E0.04655
G1 X110.36 Y74.751 E0.07652
G1 X111.266 Y74.059 E0.11918
G1 X112.094 Y73.576 E0.15505
G1 X112.722 Y73.297 E0.18076
G1 X113.631 Y73 E0.21654
G1 X114.619 Y72.797 E0.25428
G1 X115.098 Y72.747 E0.2723
G1 X234.389 Y72.725 E4.73589
G1 X235.855 Y72.884 E4.79107
G1 X236.435 Y73.017 E4.81334
G1 X237.662 Y73.455 E4.86208
G1 X238.276 Y73.769 E4.88789
G1 X239.079 Y74.291 E4.92373
G1 X239.695 Y74.803 E4.9537
G1 X240.462 Y75.619 E4.9956
G1 X240.853 Y76.144 E5.02009
G1 X241.538 Y77.35 E5.07199
G1 X241.8 Y77.996 E5.09808
G1 X242.05 Y78.842 E5.13108
G1 X242.246 Y79.97 E5.17392
G1 X243.215 Y92.087 E5.62876
G1 X243.916 Y101.671 E5.98833
G1 X244.475 Y110.289 E6.31147
G1 X244.934 Y118.278 E6.61089
G1 X245.273 Y125.759 E6.8911
G1 X245.516 Y132.824 E7.15562
G1 X245.682 Y140.269 E7.43426
G1 X245.724 Y143.536 E7.55651
G1 X245.747 Y147.228 E7.69466
G1 X245.719 Y154.115 E7.95236
G1 X245.599 Y160.792 E8.20224
G1 X245.376 Y167.303 E8.44601
G1 X245.075 Y173.687 E8.68515
G1 X244.691 Y179.942 E8.91963
G1 X244.205 Y186.095 E9.15058
G1 X243.713 Y191.395 E9.34975
G1 X243.085 Y197.332 E9.57314
G1 X242.364 Y203.163 E9.79298
G1 X241.565 Y208.828 E10.00705
G1 X240.676 Y214.428 E10.21921
G1 X239.729 Y219.881 E10.4263
G1 X238.705 Y225.124 E10.62619
G1 X237.623 Y230.179 E10.81962
G1 X236.517 Y234.92 E11.00178
G1 X235.334 Y239.601 E11.18244
G1 X234.082 Y244.106 E11.3574
G1 X232.793 Y248.39 E11.52479
G1 X231.448 Y252.479 E11.68586
G1 X230.071 Y256.371 E11.84033
G1 X228.658 Y260.079 E11.98881
G1 X227.2 Y263.618 E12.13203
G1 X225.709 Y266.971 E12.26934
G1 X224.174 Y270.176 E12.4023
G1 X222.501 Y273.379 E12.53752
G1 X221.955 Y274.179 E12.57376
G1 X221.217 Y275.01 E12.61534
G1 X220.632 Y275.525 E12.64451
G1 X219.764 Y276.128 E12.68405
G1 X218.888 Y276.579 E12.72092
G1 X217.668 Y277.011 E12.76935
G1 X216.929 Y277.165 E12.79759
G1 X215.716 Y277.275 E12.84317
G1 X133.543 Y277.23 E15.91789
G1 X132.873 Y277.134 E15.94321
G1 X132.226 Y276.981 E15.96809
G1 X130.831 Y276.455 E16.02388
G1 X130.113 Y276.051 E16.0547
G1 X129.232 Y275.414 E16.09538
G1 X128.458 Y274.676 E16.1354
G1 X127.896 Y273.982 E16.16881
G1 X127.301 Y273.034 E16.21069
G1 X125.717 Y269.949 E16.34045
G1 X124.203 Y266.767 E16.47231
G1 X122.713 Y263.407 E16.60984
G1 X121.274 Y259.892 E16.75195
G1 X119.863 Y256.196 E16.89998
G1 X118.482 Y252.288 E17.05507
G1 X117.154 Y248.213 E17.21544
G1 X115.865 Y243.926 E17.38295
G1 X114.631 Y239.438 E17.55711
G1 X113.448 Y234.767 E17.73741
G1 X112.342 Y230.039 E17.91909
G1 X111.26 Y224.971 E18.113
G1 X110.253 Y219.742 E18.31225
G1 X109.29 Y214.299 E18.51908
G1 X108.417 Y208.726 E18.73015
G1 X107.619 Y203.024 E18.94559
G1 X106.914 Y197.209 E19.16476
G1 X106.275 Y191.294 E19.38738
G1 X105.778 Y185.972 E19.58738
G1 X105.308 Y179.82 E19.81824
G1 X104.925 Y173.578 E20.05224
G1 X104.611 Y167.196 E20.29133
G1 X104.401 Y160.671 E20.53561
G1 X104.281 Y154.011 E20.78485
G1 X104.253 Y147.123 E21.04258
G1 X104.318 Y140.199 E21.30168
G1 X104.484 Y132.72 E21.58159
G1 X104.73 Y125.67 E21.84555
G1 X105.083 Y118.196 E22.12552
G1 X105.525 Y110.227 E22.42416
G1 X106.085 Y101.601 E22.7476
G1 X106.791 Y92.027 E23.10681
G1 X107.867 Y79.245 E23.58677
G1 X108.094 Y78.297 E23.62325
G1 X108.251 Y77.83 E23.64168
G1 X108.654 Y76.936 E23.67838
G1 X109.03 Y76.299 E23.70606
G0 F7200 X109.418 Y76.528
G1 F1800 X110.109 Y75.633 E23.74836
G1 X110.634 Y75.108 E23.77614
G1 X111.493 Y74.448 E23.81668
G1 X112.321 Y73.965 E23.85255
G1 X112.862 Y73.725 E23.87469
G1 X113.771 Y73.428 E23.91047
G1 X114.666 Y73.245 E23.94466
G1 X115.145 Y73.195 E23.96268
G1 X234.389 Y73.175 E28.42451
G1 X235.754 Y73.323 E28.47588
G1 X236.334 Y73.456 E28.49815
G1 X237.459 Y73.857 E28.54284
G1 X238.032 Y74.147 E28.56687
G1 X238.793 Y74.639 E28.60077
G1 X239.367 Y75.111 E28.62858
G1 X240.134 Y75.927 E28.67048
G1 X240.491 Y76.411 E28.69299
G1 X241.121 Y77.52 E28.74071
G1 X241.368 Y78.124 E28.76513
G1 X241.618 Y78.97 E28.79814
G1 X241.797 Y80.006 E28.83748
G1 X242.766 Y92.12 E29.2922
G1 X243.467 Y101.7 E29.65162
G1 X244.026 Y110.315 E29.97465
G1 X244.484 Y118.298 E30.27385
G1 X244.823 Y125.774 E30.55387
G1 X245.066 Y132.834 E30.81819
G1 X245.232 Y140.275 E31.09669
G1 X245.274 Y143.539 E31.21883
G1 X245.297 Y147.226 E31.35679
G1 X245.269 Y154.107 E31.61426
G1 X245.149 Y160.777 E31.86388
G1 X244.927 Y167.282 E32.10742
G1 X244.626 Y173.659 E32.3463
G1 X244.242 Y179.907 E32.58053
G1 X243.757 Y186.053 E32.81121
G1 X243.265 Y191.348 E33.01019
G1 X242.638 Y197.277 E33.23328
G1 X241.918 Y203.1 E33.45282
G1 X241.121 Y208.757 E33.66658
G1 X240.233 Y214.351 E33.87852
G1 X239.287 Y219.795 E34.08527
G1 X238.265 Y225.03 E34.28485
G1 X237.185 Y230.077 E34.47797
G1 X236.081 Y234.81 E34.65983
G1 X234.9 Y239.481 E34.8401
G1 X233.651 Y243.976 E35.01467
G1 X232.366 Y248.249 E35.18163
G1 X231.024 Y252.329 E35.34234
G1 X229.651 Y256.211 E35.49641
G1 X228.242 Y259.908 E35.64445
G1 X226.789 Y263.435 E35.78718
G1 X225.303 Y266.777 E35.92404
G1 X223.775 Y269.968 E36.05642
G1 X222.129 Y273.125 E36.18964
G1 X221.583 Y273.925 E36.22588
G1 X220.918 Y274.673 E36.26333
G1 X220.375 Y275.155 E36.2905
G1 X219.507 Y275.758 E36.33004
G1 X218.736 Y276.155 E36.36249
G1 X217.576 Y276.57 E36.40859
G1 X216.837 Y276.724 E36.43684
G1 X215.716 Y276.825 E36.47895
G1 X133.605 Y276.784 E39.55135
G1 X132.977 Y276.696 E39.57508
G1 X132.33 Y276.543 E39.59996
G1 X131.05 Y276.062 E39.65112
G1 X130.375 Y275.685 E39.68005
G1 X129.543 Y275.088 E39.71837
G1 X128.769 Y274.35 E39.75838
G1 X128.247 Y273.7 E39.78958
G1 X127.701 Y272.828 E39.82807
G1 X126.123 Y269.756 E39.9573
G1 X124.614 Y266.585 E40.0887
G1 X123.129 Y263.237 E40.22575
G1 X121.694 Y259.731 E40.36749
G1 X120.287 Y256.046 E40.51509
G1 X118.91 Y252.149 E40.66974
G1 X117.585 Y248.083 E40.82975
G1 X116.299 Y243.807 E40.99683
G1 X115.067 Y239.328 E41.17065
G1 X113.886 Y234.665 E41.35064
G1 X112.782 Y229.945 E41.53201
G1 X111.702 Y224.886 E41.72558
G1 X110.696 Y219.664 E41.92456
G1 X109.735 Y214.229 E42.13108
G1 X108.863 Y208.664 E42.34185
G1 X108.066 Y202.97 E42.55699
G1 X107.361 Y197.161 E42.77594
G1 X106.723 Y191.252 E42.99833
G1 X106.227 Y185.938 E43.19803
G1 X105.757 Y179.792 E43.42867
G1 X105.374 Y173.556 E43.66244
G1 X105.061 Y167.182 E43.90123
G1 X104.851 Y160.663 E44.14528
G1 X104.731 Y154.009 E44.3943
G1 X104.703 Y147.127 E44.65181
G1 X104.768 Y140.209 E44.91068
G1 X104.934 Y132.736 E45.19037
G1 X105.179 Y125.691 E45.45414
G1 X105.532 Y118.221 E45.73396
G1 X105.974 Y110.256 E46.03245
G1 X106.534 Y101.634 E46.35574
G1 X107.239 Y92.065 E46.71476
G1 X108.305 Y79.35 E47.1922
G1 X108.532 Y78.402 E47.22867
G1 X108.677 Y77.975 E47.24555
G1 X109.042 Y77.165 E47.27879
G1 X109.418 Y76.528 E47.30647
G0 F7200 X109.806 Y76.757
G1 F1800 X110.429 Y75.95 E47.34461
G1 X110.91 Y75.464 E47.3702
G1 X111.721 Y74.836 E47.40858
G1 X112.505 Y74.376 E47.44259
G1 X113.002 Y74.153 E47.46297
G1 X113.911 Y73.856 E47.49876
G1 X114.713 Y73.693 E47.52938
G1 X115.192 Y73.643 E47.5474
G1 X234.389 Y73.625 E52.00747
G1 X235.653 Y73.762 E52.05504
G1 X236.233 Y73.895 E52.07731
G1 X237.256 Y74.259 E52.11794
G1 X237.829 Y74.549 E52.14197
G1 X238.507 Y74.987 E52.17217
G1 X239.081 Y75.459 E52.19998
G1 X239.805 Y76.234 E52.23966
G1 X240.1 Y76.635 E52.25829
G1 X240.705 Y77.692 E52.30386
G1 X240.936 Y78.252 E52.32653
G1 X241.186 Y79.098 E52.35954
G1 X241.348 Y80.042 E52.39537
G1 X242.317 Y92.153 E52.84999
G1 X243.018 Y101.729 E53.20926
G1 X243.577 Y110.341 E53.53218
G1 X244.034 Y118.318 E53.83115
G1 X244.373 Y125.789 E54.11098
G1 X244.616 Y132.844 E54.37512
G1 X244.782 Y140.281 E54.65346
G1 X244.824 Y143.542 E54.77549
G1 X244.847 Y147.224 E54.91327
G1 X244.819 Y154.099 E55.17052
G1 X244.699 Y160.762 E55.41987
G1 X244.478 Y167.261 E55.66319
G1 X244.177 Y173.631 E55.9018
G1 X243.793 Y179.872 E56.13577
G1 X243.309 Y186.011 E56.36619
G1 X242.817 Y191.301 E56.56498
G1 X242.191 Y197.222 E56.78777
G1 X241.472 Y203.037 E57.00701
G1 X240.677 Y208.686 E57.22046
G1 X239.79 Y214.274 E57.43217
G1 X238.845 Y219.709 E57.63859
G1 X237.825 Y224.936 E57.83786
G1 X236.747 Y229.975 E58.03067
G1 X235.645 Y234.7 E58.21222
G1 X234.466 Y239.361 E58.39211
G1 X233.22 Y243.846 E58.56629
G1 X231.938 Y248.108 E58.73282
G1 X230.6 Y252.179 E58.89316
G1 X229.231 Y256.051 E59.04683
G1 X227.826 Y259.737 E59.19443
G1 X226.378 Y263.252 E59.33668
G1 X224.897 Y266.583 E59.47308
G1 X223.376 Y269.76 E59.60488
G1 X221.757 Y272.871 E59.73611
G1 X221.211 Y273.671 E59.77235
G1 X220.619 Y274.336 E59.80566
G1 X220.076 Y274.818 E59.83283
G1 X219.299 Y275.359 E59.86825
G1 X218.583 Y275.732 E59.89846
G1 X217.484 Y276.129 E59.94219
G1 X216.745 Y276.283 E59.97043
G1 X215.716 Y276.375 E60.00909
G1 X133.666 Y276.338 E63.07921
G1 X133.081 Y276.258 E63.1013
G1 X132.434 Y276.105 E63.12618
G1 X131.268 Y275.668 E63.17277
G1 X130.637 Y275.319 E63.19975
G1 X129.805 Y274.722 E63.23807
G1 X129.119 Y274.067 E63.27356
G1 X128.628 Y273.46 E63.30277
G1 X128.101 Y272.622 E63.33981
G1 X126.529 Y269.563 E63.4685
G1 X125.025 Y266.403 E63.59945
G1 X123.545 Y263.066 E63.73604
G1 X122.114 Y259.571 E63.87735
G1 X120.711 Y255.896 E64.02454
G1 X119.338 Y252.01 E64.17876
G1 X118.016 Y247.953 E64.33842
G1 X116.733 Y243.688 E64.50507
G1 X115.503 Y239.218 E64.67854
G1 X114.324 Y234.563 E64.85822
G1 X113.222 Y229.851 E65.03929
G1 X112.144 Y224.801 E65.23251
G1 X111.139 Y219.586 E65.43123
G1 X110.18 Y214.159 E65.63744
G1 X109.309 Y208.602 E65.84791
G1 X108.513 Y202.916 E66.06274
G1 X107.808 Y197.113 E66.28147
G1 X107.171 Y191.21 E66.50363
G1 X106.676 Y185.904 E66.70303
G1 X106.206 Y179.764 E66.93345
G1 X105.823 Y173.534 E67.167
G1 X105.511 Y167.167 E67.40552
G1 X105.301 Y160.655 E67.64932
G1 X105.181 Y154.007 E67.89811
G1 X105.153 Y147.131 E68.15539
G1 X105.218 Y140.219 E68.41404
G1 X105.384 Y132.752 E68.6935
G1 X105.628 Y125.712 E68.95708
G1 X105.981 Y118.246 E69.23675
G1 X106.423 Y110.285 E69.53509
G1 X106.983 Y101.667 E69.85824
G1 X107.687 Y92.102 E70.21711
G1 X108.743 Y79.454 E70.69201
G1 X108.959 Y78.545 E70.72697
G1 X109.088 Y78.159 E70.7422
G1 X109.43 Y77.394 E70.77356
G1 X109.806 Y76.757 E70.80123
G0 F7200 X110.194 Y76.986
G1 F1800 X110.749 Y76.267 E70.83522
G1 X111.23 Y75.781 E70.8608
G1 X111.95 Y75.224 E70.89487
G1 X112.692 Y74.786 E70.92711
G1 X113.142 Y74.581 E70.94561
G1 X114.051 Y74.284 E70.98139
G1 X114.76 Y74.141 E71.00845
G1 X115.239 Y74.091 E71.02647
G1 X234.389 Y74.075 E75.48479
G1 X235.552 Y74.201 E75.52856
G1 X236.132 Y74.334 E75.55083
G1 X237.053 Y74.661 E75.58739
G1 X237.626 Y74.951 E75.61142
G1 X238.221 Y75.335 E75.63792
G1 X238.795 Y75.807 E75.66573
G1 X239.444 Y76.503 E75.70134
G1 X239.709 Y76.859 E75.71794
G1 X240.314 Y77.916 E75.76351
G1 X240.504 Y78.38 E75.78227
G1 X240.754 Y79.226 E75.81528
G1 X240.899 Y80.078 E75.84762
G1 X241.868 Y92.186 E76.30212
G1 X242.569 Y101.758 E76.66124
G1 X243.128 Y110.367 E76.98405
G1 X243.584 Y118.338 E77.28279
G1 X243.923 Y125.805 E77.56248
G1 X244.166 Y132.854 E77.82639
G1 X244.332 Y140.287 E78.10459
G1 X244.374 Y143.545 E78.2265
G1 X244.397 Y147.222 E78.36409
G1 X244.369 Y154.091 E78.62112
G1 X244.249 Y160.747 E78.87021
G1 X244.028 Y167.24 E79.1133
G1 X243.728 Y173.603 E79.35166
G1 X243.344 Y179.837 E79.58536
G1 X242.861 Y185.969 E79.81551
G1 X242.37 Y191.254 E80.01412
G1 X241.744 Y197.167 E80.23661
G1 X241.026 Y202.974 E80.45554
G1 X240.233 Y208.615 E80.66869
G1 X239.347 Y214.197 E80.88017
G1 X238.403 Y219.623 E81.08625
G1 X237.385 Y224.842 E81.28521
G1 X236.309 Y229.873 E81.47772
G1 X235.209 Y234.59 E81.65895
G1 X234.032 Y239.241 E81.83847
G1 X232.789 Y243.716 E82.01225
G1 X231.51 Y247.968 E82.17839
G1 X230.176 Y252.029 E82.33834
G1 X228.811 Y255.891 E82.4916
G1 X227.41 Y259.566 E82.63877
G1 X225.967 Y263.069 E82.78053
G1 X224.491 Y266.389 E82.91648
G1 X222.977 Y269.553 E83.04772
G1 X221.385 Y272.617 E83.17692
G1 X220.839 Y273.417 E83.21316
G1 X220.319 Y274.001 E83.24242
G1 X219.817 Y274.45 E83.26762
G1 X219.089 Y274.961 E83.3009
G1 X218.428 Y275.309 E83.32885
G1 X217.392 Y275.688 E83.37013
G1 X216.653 Y275.842 E83.39838
G1 X215.716 Y275.925 E83.43358
G1 X133.666 Y275.888 E86.50369
G1 X133.182 Y275.819 E86.52199
G1 X132.59 Y275.683 E86.54472
G1 X131.486 Y275.274 E86.58877
G1 X130.855 Y274.925 E86.61575
G1 X130.068 Y274.357 E86.65207
G1 X129.469 Y273.784 E86.68308
G1 X128.978 Y273.177 E86.7123
G1 X128.501 Y272.416 E86.7459
G1 X126.935 Y269.37 E86.87406
G1 X125.436 Y266.221 E87.00455
G1 X123.961 Y262.896 E87.14066
G1 X122.534 Y259.41 E87.2816
G1 X121.135 Y255.746 E87.42835
G1 X119.766 Y251.871 E87.58213
G1 X118.447 Y247.823 E87.74144
G1 X117.167 Y243.569 E87.90766
G1 X115.939 Y239.108 E88.08079
G1 X114.762 Y234.461 E88.26016
G1 X113.662 Y229.757 E88.44092
G1 X112.586 Y224.716 E88.63379
G1 X111.582 Y219.508 E88.83225
G1 X110.625 Y214.089 E89.03815
G1 X109.755 Y208.54 E89.24832
G1 X108.96 Y202.862 E89.46285
G1 X108.255 Y197.065 E89.68136
G1 X107.619 Y191.168 E89.90329
G1 X107.125 Y185.87 E90.10239
G1 X106.655 Y179.736 E90.33258
G1 X106.272 Y173.512 E90.56591
G1 X105.961 Y167.152 E90.80417
G1 X105.751 Y160.647 E91.0477
G1 X105.631 Y154.005 E91.29627
G1 X105.603 Y147.135 E91.55333
G1 X105.668 Y140.229 E91.81175
G1 X105.834 Y132.768 E92.09099
G1 X106.078 Y125.733 E92.35438
G1 X106.43 Y118.271 E92.6339
G1 X106.872 Y110.314 E92.93209
G1 X107.432 Y101.7 E93.25509
G1 X108.135 Y92.139 E93.61381
G1 X109.181 Y79.557 E94.08622
G1 X109.386 Y78.688 E94.11963
G1 X109.515 Y78.302 E94.13485
G1 X109.818 Y77.623 E94.16268
G1 X110.194 Y76.986 E94.19035
G0 F7200 X110.582 Y77.215
G1 F1800 X111.069 Y76.584 E94.22018
G1 X111.55 Y76.098 E94.24576
G1 X112.18 Y75.611 E94.27556
G1 X112.879 Y75.196 E94.30598
G1 X113.329 Y74.991 E94.32448
G1 X114.19 Y74.712 E94.35835
G1 X114.807 Y74.589 E94.38189
G1 X115.286 Y74.539 E94.39991
G1 X234.389 Y74.525 E98.85646
G1 X235.451 Y74.64 E98.89643
G1 X236.031 Y74.773 E98.9187
G1 X236.85 Y75.063 E98.95121
G1 X237.423 Y75.353 E98.97524
G1 X237.935 Y75.683 E98.99803
G1 X238.509 Y76.155 E99.02583
G1 X239.083 Y76.772 E99.05737
G1 X239.348 Y77.128 E99.07397
G1 X239.898 Y78.088 E99.11537
G1 X240.072 Y78.508 E99.13238
G1 X240.322 Y79.354 E99.16539
G1 X240.45 Y80.114 E99.19423
G1 X241.419 Y92.219 E99.64862
G1 X242.12 Y101.787 E100.00759
G1 X242.679 Y110.393 E100.33029
G1 X243.134 Y118.358 E100.6288
G1 X243.473 Y125.821 E100.90834
G1 X243.716 Y132.864 E101.17203
G1 X243.882 Y140.293 E101.45007
G1 X243.924 Y143.548 E101.57188
G1 X243.947 Y147.22 E101.70928
G1 X243.919 Y154.083 E101.96608
G1 X243.799 Y160.732 E102.21491
G1 X243.579 Y167.219 E102.45778
G1 X243.279 Y173.575 E102.69587
G1 X242.895 Y179.802 E102.92931
G1 X242.413 Y185.927 E103.1592
G1 X241.922 Y191.207 E103.35762
G1 X241.297 Y197.112 E103.5798
G1 X240.58 Y202.911 E103.79844
G1 X239.789 Y208.544 E104.01128
G1 X238.904 Y214.12 E104.22254
G1 X237.961 Y219.537 E104.42827
G1 X236.945 Y224.748 E104.62693
G1 X235.871 Y229.771 E104.81913
G1 X234.773 Y234.48 E105.00005
G1 X233.598 Y239.121 E105.17919
G1 X232.358 Y243.586 E105.35258
G1 X231.082 Y247.828 E105.51833
G1 X229.752 Y251.879 E105.67787
G1 X228.391 Y255.731 E105.83074
G1 X226.994 Y259.395 E105.97746
G1 X225.556 Y262.886 E106.11873
G1 X224.085 Y266.195 E106.25423
G1 X222.578 Y269.346 E106.38493
G1 X221.013 Y272.363 E106.5121
