;FLAVOR:Marlin
;TIME:7549
;Filament used: 9.9711m
;Layer height: 0.2
;MINX:144.607
;MINY:93.22
;MINZ:0.2
;MAXX:205.394
;MAXY:256.78
;MAXZ:29.6
;TARGET_MACHINE.NAME:VORON2 350
;POSTPROCESSED
;  [CreateThumbnail]
;  [CreateThumbnail]
;  [InsertAtLayerChange]
;Generated with Cura_SteamEngine 5.8.0
;
;

;
;



; Pre-Processed for Cancel-Object support by preprocess_cancellation v0.2.0
; 1 known objects
EXCLUDE_OBJECT_DEFINE NAME=BOOM_MOUNT_R_STL CENTER=174.666,173.334 POLYGON=[[152.719,94.994],[152.719,255.025],[197.277,255.025],[197.277,94.994]]
M82 ;absolute extrusion mode
;Nozzle diameter = 0.4
;Filament type = ABS
;Filament name = ABS+ Black
;Filament weight = [26.381633007812503]
; M190 S100
; M109 S240
PRINT_START BED_TEMP=100 EXTRUDER_TEMP=240
M141 S40
G92 E0
G92 E0
G1 F1800 E-0.75
;LAYER_COUNT:147
TIMELAPSE_TAKE_FRAME
;LAYER:0
M107
G1 F600 Z0.4
G0 F7200 X158.555 Y96.953 Z0.4
;TYPE:SKIRT
G1 F600 Z0.2
G1 F720 E0
G1 F1800 X159.009 Y96.367 E0.02774
G1 X160.234 Y95.192 E0.09125
G1 X160.985 Y94.679 E0.12528
G1 X161.685 Y94.312 E0.15486
G1 X162.612 Y93.952 E0.19207
G1 X163.547 Y93.715 E0.22816
G1 X164.86 Y93.562 E0.27762
G1 X184.968 Y93.22 E1.03012
G1 X186.585 Y93.401 E1.091
G1 X187.716 Y93.716 E1.13493
G1 X188.375 Y93.994 E1.1617
G1 X189.029 Y94.354 E1.18963
G1 X190.222 Y95.237 E1.24517
G1 X191.102 Y96.142 E1.2924
G1 X191.613 Y96.848 E1.32501
G1 X192.141 Y97.829 E1.3667
G1 X192.553 Y98.931 E1.41072
G1 X192.761 Y99.856 E1.44619
G1 X192.875 Y101.091 E1.4926
G1 X192.873 Y127.48 E2.48002
G1 X193.551 Y127.491 E2.50539
G1 X194.622 Y127.623 E2.54577
G1 X197.882 Y128.536 E2.67244
G1 X199.095 Y129.103 E2.72254
G1 X199.841 Y129.595 E2.75598
G1 X200.899 Y130.498 E2.80803
G1 X202.717 Y132.434 E2.9074
G1 X203.621 Y133.682 E2.96506
G1 X204.034 Y134.47 E2.99835
G1 X204.444 Y135.53 E3.04088
G1 X205.147 Y137.985 E3.13643
G1 X205.394 Y139.721 E3.20204
G1 X205.391 Y140.374 E3.22647
G1 X205.345 Y140.951 E3.24813
G1 X205.176 Y141.884 E3.28361
G1 X204.267 Y145.046 E3.40672
G1 X204.037 Y145.6 E3.42916
G1 X203.098 Y147.156 E3.49716
G1 X202.605 Y147.754 E3.52616
G1 X200.123 Y150.172 E3.65582
G1 X199.477 Y150.642 E3.68571
G1 X198.599 Y151.142 E3.72352
G1 X197.986 Y151.409 E3.74854
G1 X194.617 Y152.36 E3.87952
G1 X193.707 Y152.479 E3.91386
G1 X192.872 Y152.498 E3.94512
G1 X192.869 Y197.434 E5.62651
G1 X193.551 Y197.446 E5.65204
G1 X194.622 Y197.578 E5.69241
G1 X197.882 Y198.491 E5.81909
G1 X199.095 Y199.058 E5.86919
G1 X199.841 Y199.55 E5.90263
G1 X200.899 Y200.453 E5.95468
G1 X202.717 Y202.389 E6.05405
G1 X203.621 Y203.637 E6.11171
G1 X204.034 Y204.425 E6.145
G1 X204.444 Y205.485 E6.18753
G1 X205.147 Y207.94 E6.28308
G1 X205.394 Y209.676 E6.34869
G1 X205.391 Y210.329 E6.37312
G1 X205.345 Y210.906 E6.39478
G1 X205.176 Y211.839 E6.43026
G1 X204.267 Y215.001 E6.55337
G1 X204.037 Y215.555 E6.57581
G1 X203.099 Y217.109 E6.64373
G1 X202.575 Y217.741 E6.67445
G1 X200.167 Y220.087 E6.80024
G1 X199.332 Y220.689 E6.83876
G1 X198.628 Y221.079 E6.86887
G1 X197.745 Y221.448 E6.90468
G1 X194.665 Y222.305 E7.02431
G1 X193.638 Y222.444 E7.06309
G1 X192.863 Y222.453 E7.09209
G1 X192.821 Y249.656 E8.10996
G1 X192.676 Y250.569 E8.14455
G1 X192.47 Y251.324 E8.17383
G1 X191.993 Y252.472 E8.22035
G1 X191.409 Y253.454 E8.2631
G1 X191.041 Y253.932 E8.28567
G1 X189.856 Y255.081 E8.34743
G1 X188.951 Y255.704 E8.38854
G1 X188.239 Y256.063 E8.41838
G1 X187.271 Y256.431 E8.45713
G1 X185.948 Y256.714 E8.50775
G1 X185.037 Y256.78 E8.54193
G1 X164.031 Y256.427 E9.32804
G1 X163.512 Y256.338 E9.34774
G1 X162.147 Y255.936 E9.40098
G1 X161.355 Y255.569 E9.43365
G1 X160.556 Y255.084 E9.46862
G1 X159.379 Y254.102 E9.52597
G1 X158.636 Y253.237 E9.56864
G1 X158.28 Y252.686 E9.59319
G1 X157.778 Y251.692 E9.63485
G1 X157.337 Y250.389 E9.68633
G1 X157.235 Y249.868 E9.70619
G1 X157.127 Y248.666 E9.75135
G1 X157.129 Y222.404 E10.73401
G1 X157.008 Y222.41 E10.73854
G1 X155.92 Y222.355 E10.77931
G1 X155.036 Y222.204 E10.81286
G1 X152.238 Y221.372 E10.92209
G1 X151.142 Y220.873 E10.96715
G1 X150.34 Y220.365 E11.00267
G1 X149.541 Y219.72 E11.04109
G1 X147.195 Y217.338 E11.16619
G1 X146.353 Y216.163 E11.22028
G1 X145.893 Y215.264 E11.25807
G1 X145.582 Y214.438 E11.29109
G1 X144.803 Y211.68 E11.39833
G1 X144.627 Y210.503 E11.44286
G1 X144.607 Y209.827 E11.46816
G1 X144.69 Y208.753 E11.50847
G1 X144.882 Y207.772 E11.54587
G1 X145.664 Y205.148 E11.64832
G1 X146.262 Y203.794 E11.70371
G1 X146.581 Y203.271 E11.72663
G1 X147.218 Y202.434 E11.76599
G1 X149.534 Y200.021 E11.89113
G1 X150.41 Y199.332 E11.93284
G1 X150.976 Y198.972 E11.95794
G1 X151.524 Y198.694 E11.98093
G1 X152.677 Y198.255 E12.02709
G1 X155.151 Y197.584 E12.12301
G1 X156.581 Y197.396 E12.17698
G1 X157.129 Y197.393 E12.19748
G1 X157.132 Y152.976 E13.85946
G1 X156.831 Y152.991 E13.87074
G1 X156.279 Y152.967 E13.89141
G1 X154.659 Y152.685 E13.95294
G1 X152.29 Y151.966 E14.04557
G1 X151.143 Y151.446 E14.0927
G1 X150.34 Y150.937 E14.12827
G1 X149.541 Y150.292 E14.16669
G1 X147.195 Y147.91 E14.29179
G1 X146.353 Y146.735 E14.34588
G1 X145.893 Y145.836 E14.38367
G1 X145.582 Y145.01 E14.41669
G1 X144.803 Y142.252 E14.52393
G1 X144.627 Y141.075 E14.56846
G1 X144.607 Y140.399 E14.59376
G1 X144.69 Y139.325 E14.63407
G1 X144.882 Y138.344 E14.67147
G1 X145.664 Y135.72 E14.77392
G1 X146.262 Y134.366 E14.82931
G1 X146.581 Y133.843 E14.85223
G1 X147.218 Y133.006 E14.89159
G1 X149.534 Y130.593 E15.01674
G1 X150.41 Y129.904 E15.05844
G1 X150.976 Y129.544 E15.08354
G1 X151.524 Y129.266 E15.10653
G1 X152.677 Y128.827 E15.15269
G1 X155.151 Y128.156 E15.24861
G1 X156.581 Y127.968 E15.30258
G1 X157.137 Y127.965 E15.32338
G1 X157.179 Y100.692 E16.34387
G1 X157.323 Y99.782 E16.37835
G1 X157.509 Y99.084 E16.40538
G1 X157.971 Y97.943 E16.45144
G1 X158.555 Y96.953 E16.49445
G0 F7200 X158.911 Y97.229
G1 F1800 X159.365 Y96.643 E16.52218
G1 X160.489 Y95.563 E16.58051
G1 X161.194 Y95.078 E16.61253
G1 X161.894 Y94.711 E16.6421
G1 X162.774 Y94.372 E16.67739
G1 X163.6 Y94.162 E16.70928
G1 X164.868 Y94.012 E16.75705
G1 X184.976 Y93.67 E17.50956
G1 X186.466 Y93.835 E17.56565
G1 X187.542 Y94.131 E17.60741
G1 X188.16 Y94.39 E17.63248
G1 X188.761 Y94.716 E17.65806
G1 X189.954 Y95.599 E17.7136
G1 X190.737 Y96.406 E17.75567
G1 X191.248 Y97.112 E17.78828
G1 X191.719 Y97.987 E17.82547
G1 X192.131 Y99.089 E17.86949
G1 X192.313 Y99.898 E17.90052
G1 X192.425 Y101.091 E17.94535
G1 X192.423 Y127.972 E18.95117
G1 X192.754 Y127.928 E18.96367
G1 X193.496 Y127.938 E18.99144
G1 X194.567 Y128.07 E19.03181
G1 X197.693 Y128.944 E19.15327
G1 X198.847 Y129.479 E19.20086
G1 X199.593 Y129.971 E19.2343
G1 X200.571 Y130.807 E19.28244
G1 X202.353 Y132.699 E19.37969
G1 X203.222 Y133.891 E19.43489
G1 X203.635 Y134.679 E19.46818
G1 X204.011 Y135.654 E19.50728
G1 X204.714 Y138.109 E19.60283
G1 X204.944 Y139.72 E19.66372
G1 X204.942 Y140.338 E19.68685
G1 X204.896 Y140.915 E19.7085
G1 X204.743 Y141.76 E19.74064
G1 X203.851 Y144.873 E19.86181
G1 X203.621 Y145.427 E19.88425
G1 X202.713 Y146.923 E19.94973
G1 X202.26 Y147.465 E19.97616
G1 X199.858 Y149.808 E20.10172
G1 X199.212 Y150.278 E20.13161
G1 X198.419 Y150.729 E20.16574
G1 X197.806 Y150.996 E20.19076
G1 X194.495 Y151.927 E20.31946
G1 X193.697 Y152.029 E20.34956
G1 X192.813 Y152.049 E20.38264
G1 X192.422 Y152.008 E20.39735
G1 X192.419 Y197.928 E22.11557
G1 X192.754 Y197.883 E22.12822
G1 X193.496 Y197.893 E22.15599
G1 X194.567 Y198.025 E22.19636
G1 X197.693 Y198.899 E22.31782
G1 X198.847 Y199.434 E22.36541
G1 X199.593 Y199.926 E22.39885
G1 X200.571 Y200.762 E22.44699
G1 X202.353 Y202.654 E22.54424
G1 X203.222 Y203.846 E22.59944
G1 X203.635 Y204.634 E22.63273
G1 X204.011 Y205.609 E22.67183
G1 X204.714 Y208.064 E22.76738
G1 X204.944 Y209.675 E22.82827
G1 X204.942 Y210.293 E22.8514
G1 X204.896 Y210.87 E22.87306
G1 X204.743 Y211.715 E22.90519
G1 X203.851 Y214.828 E23.02636
G1 X203.621 Y215.382 E23.0488
G1 X202.752 Y216.823 E23.11177
G1 X202.261 Y217.419 E23.14066
G1 X199.903 Y219.723 E23.26402
G1 X199.113 Y220.296 E23.30053
G1 X198.453 Y220.664 E23.32881
G1 X197.624 Y221.014 E23.36248
G1 X194.544 Y221.871 E23.4821
G1 X193.629 Y221.994 E23.51665
G1 X192.939 Y222.008 E23.54247
G1 X192.414 Y221.953 E23.56222
G1 X192.376 Y249.587 E24.59622
G1 X192.241 Y250.453 E24.62902
G1 X192.054 Y251.153 E24.65613
G1 X191.606 Y252.243 E24.70023
G1 X191.052 Y253.179 E24.74092
G1 X190.684 Y253.657 E24.7635
G1 X189.544 Y254.757 E24.82277
G1 X188.747 Y255.303 E24.85892
G1 X188.079 Y255.642 E24.88695
G1 X187.111 Y256.01 E24.9257
G1 X185.914 Y256.265 E24.97149
G1 X185.044 Y256.33 E25.00414
G1 X164.107 Y255.983 E25.78766
G1 X163.588 Y255.894 E25.80736
G1 X162.335 Y255.527 E25.85622
G1 X161.589 Y255.184 E25.88694
G1 X160.79 Y254.699 E25.92191
G1 X159.668 Y253.757 E25.97673
G1 X159.013 Y252.991 E26.01444
G1 X158.681 Y252.482 E26.03718
G1 X158.204 Y251.547 E26.07646
G1 X157.779 Y250.303 E26.12564
G1 X157.677 Y249.782 E26.14551
G1 X157.577 Y248.666 E26.18743
G1 X157.579 Y221.916 E27.18836
G1 X157.03 Y221.961 E27.20897
G1 X155.996 Y221.911 E27.2477
G1 X155.112 Y221.76 E27.28126
G1 X152.367 Y220.941 E27.38844
G1 X151.382 Y220.492 E27.42895
G1 X150.622 Y220.014 E27.46254
G1 X149.862 Y219.404 E27.49901
G1 X147.516 Y217.022 E27.62411
G1 X146.753 Y215.957 E27.67313
G1 X146.314 Y215.105 E27.70899
G1 X146.015 Y214.315 E27.7406
G1 X145.248 Y211.612 E27.84573
G1 X145.077 Y210.488 E27.88827
G1 X145.056 Y209.86 E27.91178
G1 X145.132 Y208.839 E27.95009
G1 X145.324 Y207.858 E27.9875
G1 X146.076 Y205.329 E28.08622
G1 X146.647 Y204.027 E28.13942
G1 X146.939 Y203.544 E28.16054
G1 X147.576 Y202.707 E28.19989
G1 X149.813 Y200.374 E28.32083
G1 X150.652 Y199.712 E28.36082
G1 X151.218 Y199.352 E28.38592
G1 X151.685 Y199.114 E28.40553
G1 X152.795 Y198.689 E28.45001
G1 X155.269 Y198.018 E28.54592
G1 X156.583 Y197.846 E28.59551
G1 X157.159 Y197.843 E28.61706
G1 X157.579 Y197.887 E28.63286
G1 X157.582 Y152.502 E30.33106
G1 X156.851 Y152.541 E30.35846
G1 X156.299 Y152.517 E30.37913
G1 X154.79 Y152.254 E30.43644
G1 X152.421 Y151.535 E30.52908
G1 X151.383 Y151.065 E30.57171
G1 X150.622 Y150.586 E30.60536
G1 X149.862 Y149.976 E30.64182
G1 X147.516 Y147.594 E30.76692
G1 X146.753 Y146.529 E30.81594
G1 X146.314 Y145.677 E30.85181
G1 X146.015 Y144.887 E30.88341
G1 X145.248 Y142.184 E30.98855
G1 X145.077 Y141.06 E31.03109
G1 X145.056 Y140.432 E31.0546
G1 X145.132 Y139.411 E31.09291
G1 X145.324 Y138.43 E31.13031
G1 X146.076 Y135.901 E31.22904
G1 X146.647 Y134.599 E31.28223
G1 X146.939 Y134.116 E31.30335
G1 X147.576 Y133.279 E31.34271
G1 X149.813 Y130.946 E31.46365
G1 X150.652 Y130.284 E31.50364
G1 X151.218 Y129.924 E31.52874
G1 X151.685 Y129.686 E31.54835
G1 X152.795 Y129.261 E31.59282
G1 X155.269 Y128.59 E31.68874
G1 X156.583 Y128.418 E31.73833
G1 X157.159 Y128.415 E31.75988
G1 X157.586 Y128.46 E31.77594
G1 X157.624 Y100.761 E32.81238
G1 X157.759 Y99.895 E32.84517
G1 X157.926 Y99.253 E32.86999
G1 X158.388 Y98.112 E32.91605
G1 X158.911 Y97.229 E32.95445
G0 F7200 X159.267 Y97.505
G1 F1800 X159.721 Y96.919 E32.98219
G1 X160.8 Y95.888 E33.03803
G1 X161.403 Y95.477 E33.06534
G1 X162.103 Y95.11 E33.09491
G1 X162.887 Y94.808 E33.12635
G1 X163.654 Y94.609 E33.156
G1 X164.876 Y94.462 E33.20205
G1 X184.984 Y94.12 E33.95456
G1 X186.348 Y94.269 E34.0059
G1 X187.369 Y94.546 E34.04548
G1 X187.945 Y94.786 E34.06883
G1 X188.546 Y95.112 E34.09441
G1 X189.685 Y95.96 E34.14755
G1 X190.372 Y96.67 E34.18451
G1 X190.883 Y97.376 E34.21712
G1 X191.297 Y98.145 E34.2498
G1 X191.709 Y99.247 E34.29383
G1 X191.873 Y99.994 E34.32244
G1 X191.975 Y101.091 E34.36367
G1 X191.973 Y128.496 E35.3891
G1 X192.749 Y128.378 E35.41847
G1 X193.441 Y128.385 E35.44436
G1 X194.512 Y128.517 E35.48474
G1 X197.505 Y129.353 E35.60102
G1 X198.601 Y129.856 E35.64614
G1 X199.301 Y130.313 E35.67742
G1 X200.243 Y131.116 E35.72373
G1 X202.025 Y133.008 E35.82099
G1 X202.823 Y134.1 E35.87159
G1 X203.236 Y134.888 E35.90488
G1 X203.578 Y135.778 E35.94056
G1 X204.281 Y138.233 E36.03611
G1 X204.494 Y139.719 E36.09228
G1 X204.493 Y140.302 E36.1141
G1 X204.447 Y140.879 E36.13576
G1 X204.31 Y141.636 E36.16454
G1 X203.435 Y144.7 E36.28377
G1 X203.205 Y145.254 E36.30622
G1 X202.367 Y146.635 E36.36666
G1 X201.945 Y147.143 E36.39137
G1 X199.592 Y149.445 E36.51454
G1 X198.989 Y149.887 E36.54252
G1 X198.239 Y150.316 E36.57485
G1 X197.626 Y150.583 E36.59986
G1 X194.437 Y151.481 E36.72383
G1 X193.685 Y151.579 E36.75221
G1 X192.859 Y151.601 E36.78312
G1 X191.972 Y151.509 E36.81649
G1 X191.969 Y198.452 E38.57299
G1 X192.749 Y198.333 E38.60251
G1 X193.441 Y198.34 E38.62841
G1 X194.512 Y198.472 E38.66878
G1 X197.505 Y199.308 E38.78506
G1 X198.601 Y199.811 E38.83018
G1 X199.301 Y200.268 E38.86146
G1 X200.243 Y201.071 E38.90778
G1 X202.025 Y202.963 E39.00503
G1 X202.823 Y204.055 E39.05564
G1 X203.236 Y204.843 E39.08893
G1 X203.578 Y205.733 E39.1246
G1 X204.281 Y208.188 E39.22016
G1 X204.494 Y209.674 E39.27633
G1 X204.493 Y210.257 E39.29814
G1 X204.447 Y210.834 E39.3198
G1 X204.31 Y211.591 E39.34859
G1 X203.435 Y214.655 E39.46782
G1 X203.205 Y215.209 E39.49026
G1 X202.367 Y216.59 E39.5507
G1 X201.946 Y217.098 E39.57539
G1 X199.638 Y219.36 E39.69631
G1 X198.893 Y219.904 E39.73083
G1 X198.276 Y220.25 E39.7573
G1 X197.503 Y220.58 E39.78875
G1 X194.423 Y221.437 E39.90837
G1 X193.618 Y221.544 E39.93876
G1 X192.986 Y221.56 E39.96241
G1 X191.965 Y221.453 E40.00083
G1 X191.931 Y249.518 E41.05095
G1 X191.796 Y250.384 E41.08375
G1 X191.637 Y250.984 E41.10697
G1 X191.218 Y252.015 E41.14862
G1 X190.695 Y252.904 E41.18721
G1 X190.327 Y253.382 E41.20978
G1 X189.288 Y254.387 E41.26387
G1 X188.542 Y254.902 E41.29779
G1 X187.919 Y255.221 E41.32398
G1 X186.951 Y255.589 E41.36273
G1 X185.879 Y255.816 E41.40373
G1 X185.051 Y255.88 E41.4348
G1 X164.183 Y255.539 E42.21574
G1 X163.664 Y255.45 E42.23544
G1 X162.522 Y255.118 E42.27994
G1 X161.823 Y254.799 E42.30869
G1 X161.024 Y254.314 E42.34367
G1 X160.009 Y253.463 E42.39323
G1 X159.389 Y252.744 E42.42875
G1 X159.081 Y252.276 E42.44971
G1 X158.629 Y251.4 E42.4866
G1 X158.221 Y250.217 E42.53342
G1 X158.119 Y249.696 E42.55329
G1 X158.027 Y248.666 E42.59198
G1 X158.029 Y221.425 E43.61127
G1 X157.05 Y221.511 E43.64805
G1 X156.072 Y221.467 E43.68468
G1 X155.188 Y221.316 E43.71824
G1 X152.554 Y220.532 E43.82107
G1 X151.569 Y220.083 E43.86157
G1 X150.903 Y219.662 E43.89105
G1 X150.183 Y219.088 E43.92551
G1 X147.837 Y216.706 E44.05061
G1 X147.153 Y215.751 E44.09456
G1 X146.714 Y214.899 E44.13042
G1 X146.448 Y214.192 E44.15869
G1 X145.693 Y211.544 E44.26172
G1 X145.522 Y210.42 E44.30426
G1 X145.505 Y209.892 E44.32403
G1 X145.574 Y208.925 E44.3603
G1 X145.766 Y207.944 E44.3977
G1 X146.488 Y205.51 E44.4927
G1 X147.059 Y204.208 E44.5459
G1 X147.297 Y203.817 E44.56303
G1 X147.934 Y202.98 E44.60238
G1 X150.093 Y200.727 E44.71914
G1 X150.894 Y200.092 E44.75739
G1 X151.46 Y199.732 E44.78249
G1 X151.888 Y199.516 E44.80043
G1 X152.913 Y199.123 E44.8415
G1 X155.329 Y198.464 E44.93521
G1 X156.587 Y198.296 E44.9827
G1 X157.112 Y198.291 E45.00234
G1 X158.029 Y198.388 E45.03685
G1 X158.032 Y151.996 E46.77272
G1 X157.719 Y152.044 E46.78457
G1 X156.871 Y152.091 E46.81635
G1 X156.319 Y152.067 E46.83703
G1 X154.92 Y151.823 E46.89016
G1 X152.607 Y151.125 E46.98057
G1 X151.569 Y150.655 E47.0232
G1 X150.903 Y150.234 E47.05268
G1 X150.183 Y149.66 E47.08714
G1 X147.837 Y147.278 E47.21224
G1 X147.153 Y146.323 E47.25619
G1 X146.714 Y145.471 E47.29205
G1 X146.448 Y144.764 E47.32032
G1 X145.693 Y142.116 E47.42335
G1 X145.522 Y140.992 E47.46589
G1 X145.505 Y140.464 E47.48566
G1 X145.574 Y139.497 E47.52193
G1 X145.766 Y138.516 E47.55933
G1 X146.488 Y136.082 E47.65433
G1 X147.059 Y134.78 E47.70753
G1 X147.297 Y134.389 E47.72466
G1 X147.934 Y133.552 E47.76401
G1 X150.093 Y131.299 E47.88077
G1 X150.894 Y130.664 E47.91902
G1 X151.46 Y130.304 E47.94412
G1 X151.888 Y130.088 E47.96206
G1 X152.913 Y129.695 E48.00313
G1 X155.329 Y129.036 E48.09684
G1 X156.587 Y128.868 E48.14433
G1 X157.112 Y128.863 E48.16397
G1 X158.035 Y128.96 E48.1987
G1 X158.069 Y100.83 E49.25126
G1 X158.204 Y99.964 E49.28405
G1 X158.361 Y99.368 E49.30711
G1 X158.776 Y98.34 E49.3486
G1 X159.267 Y97.505 E49.38484
