;FLAVOR:Marlin
;TIME:7525
;Filament used: 9.93929m
;Layer height: 0.2
;MINX:144.607
;MINY:93.227
;MINZ:0.2
;MAXX:205.443
;MAXY:256.735
;MAXZ:29.6
;TARGET_MACHINE.NAME:VORON2 350
;POSTPROCESSED
;  [CreateThumbnail]
;  [CreateThumbnail]
;  [InsertAtLayerChange]
;Generated with Cura_SteamEngine 5.8.0
;
;

;
;



; Pre-Processed for Cancel-Object support by preprocess_cancellation v0.2.0
; 1 known objects
EXCLUDE_OBJECT_DEFINE NAME=BOOM_MOUNT_L_STL CENTER=175.228,174.365 POLYGON=[[152.719,94.982],[152.719,255.086],[197.325,255.086],[197.325,94.982]]
M82 ;absolute extrusion mode
;Nozzle diameter = 0.4
;Filament type = ABS
;Filament name = ABS+ Black
;Filament weight = [26.2974615234375]
; M190 S100
; M109 S240
PRINT_START BED_TEMP=100 EXTRUDER_TEMP=240
M141 S40
G92 E0
G92 E0
G1 F1800 E-0.75
;LAYER_COUNT:147
TIMELAPSE_TAKE_FRAME
;LAYER:0
M107
G1 F600 Z0.4
G0 F7200 X158.393 Y96.842 Z0.4
;TYPE:SKIRT
G1 F600 Z0.2
G1 F720 E0
G1 F1800 X158.917 Y96.123 E0.03329
G1 X159.461 Y95.522 E0.06362
G1 X160.169 Y94.898 E0.09893
G1 X161.085 Y94.275 E0.14039
G1 X161.719 Y93.951 E0.16703
G1 X162.372 Y93.689 E0.19335
G1 X164.191 Y93.264 E0.26325
G1 X164.645 Y93.227 E0.28029
G1 X185.893 Y93.627 E1.07548
G1 X186.837 Y93.803 E1.11142
G1 X188.106 Y94.229 E1.1615
G1 X189.092 Y94.734 E1.20295
G1 X189.503 Y95.005 E1.22137
G1 X190.449 Y95.783 E1.2672
G1 X191.056 Y96.433 E1.30048
G1 X191.764 Y97.446 E1.34673
G1 X192.241 Y98.402 E1.3867
G1 X192.663 Y99.667 E1.4366
G1 X192.765 Y100.188 E1.45647
G1 X192.873 Y101.39 E1.50162
G1 X192.871 Y128.097 E2.50094
G1 X193.245 Y128.098 E2.51493
G1 X195.145 Y128.342 E2.58661
G1 X197.352 Y128.956 E2.67232
G1 X198.753 Y129.531 E2.72899
G1 X199.501 Y129.962 E2.76129
G1 X199.964 Y130.291 E2.78254
G1 X200.925 Y131.129 E2.83025
G1 X202.836 Y133.174 E2.93498
G1 X203.699 Y134.384 E2.99059
G1 X204.072 Y135.104 E3.02094
G1 X204.472 Y136.132 E3.06221
G1 X205.196 Y138.656 E3.16046
G1 X205.443 Y140.392 E3.22607
G1 X205.44 Y141.045 E3.25051
G1 X205.394 Y141.622 E3.27216
G1 X205.225 Y142.555 E3.30764
G1 X204.309 Y145.742 E3.43172
G1 X204.079 Y146.296 E3.45417
G1 X203.141 Y147.85 E3.52208
G1 X202.618 Y148.482 E3.55278
G1 X200.194 Y150.845 E3.67945
G1 X199.402 Y151.419 E3.71605
G1 X198.645 Y151.84 E3.74846
G1 X197.76 Y152.208 E3.78432
G1 X194.402 Y153.122 E3.91454
G1 X193.808 Y153.196 E3.93694
G1 X192.871 Y153.204 E3.972
G1 X192.868 Y197.509 E5.62979
G1 X193.178 Y197.503 E5.64139
G1 X195.145 Y197.751 E5.71557
G1 X197.34 Y198.362 E5.80083
G1 X198.856 Y198.995 E5.8623
G1 X199.704 Y199.503 E5.89929
G1 X199.874 Y199.626 E5.90714
G1 X200.908 Y200.542 E5.95883
G1 X203.215 Y203.071 E6.08691
G1 X203.61 Y203.66 E6.11345
G1 X204.041 Y204.481 E6.14814
G1 X204.451 Y205.53 E6.19029
G1 X205.183 Y208.093 E6.29002
G1 X205.418 Y209.67 E6.34968
G1 X205.422 Y210.112 E6.36622
G1 X205.334 Y211.269 E6.40964
G1 X205.241 Y211.767 E6.4286
G1 X204.307 Y215.044 E6.5561
G1 X203.778 Y216.206 E6.60387
G1 X203.167 Y217.166 E6.64645
G1 X202.594 Y217.859 E6.68009
G1 X200.186 Y220.208 E6.80597
G1 X199.454 Y220.746 E6.83996
G1 X198.799 Y221.12 E6.86818
G1 X197.657 Y221.603 E6.91458
G1 X194.768 Y222.413 E7.02684
G1 X194.225 Y222.506 E7.04746
G1 X192.863 Y222.578 E7.09849
G1 X192.826 Y249.295 E8.09818
G1 X192.667 Y250.321 E8.13703
G1 X192.484 Y251.001 E8.16338
G1 X192.071 Y252.036 E8.20508
G1 X191.626 Y252.836 E8.23933
G1 X191.113 Y253.541 E8.27195
G1 X190.184 Y254.509 E8.32215
G1 X190.097 Y254.583 E8.32643
G1 X189.032 Y255.368 E8.37593
G1 X188.526 Y255.644 E8.3975
G1 X187.883 Y255.928 E8.4238
G1 X186.183 Y256.388 E8.4897
G1 X185.477 Y256.47 E8.51629
G1 X164.237 Y256.735 E9.31111
G1 X163.617 Y256.648 E9.33453
G1 X162.772 Y256.44 E9.36709
G1 X161.6 Y255.99 E9.41407
G1 X160.787 Y255.541 E9.44882
G1 X160.194 Y255.121 E9.47601
G1 X159.386 Y254.404 E9.51643
G1 X158.828 Y253.771 E9.54801
G1 X158.266 Y252.965 E9.58477
G1 X157.986 Y252.449 E9.60674
G1 X157.455 Y251.093 E9.66123
G1 X157.24 Y250.155 E9.69724
G1 X157.125 Y248.911 E9.74398
G1 X157.127 Y222.425 E10.73503
G1 X156.831 Y222.44 E10.74612
G1 X156.279 Y222.416 E10.76679
G1 X154.659 Y222.134 E10.82832
G1 X152.29 Y221.415 E10.92095
G1 X151.143 Y220.895 E10.96808
G1 X150.34 Y220.386 E11.00365
G1 X149.541 Y219.741 E11.04207
G1 X147.195 Y217.359 E11.16717
G1 X146.353 Y216.184 E11.22126
G1 X145.893 Y215.285 E11.25905
G1 X145.582 Y214.459 E11.29207
G1 X144.803 Y211.701 E11.39931
G1 X144.627 Y210.524 E11.44384
G1 X144.607 Y209.848 E11.46914
G1 X144.69 Y208.774 E11.50945
G1 X144.882 Y207.793 E11.54685
G1 X145.664 Y205.169 E11.6493
G1 X146.262 Y203.815 E11.70469
G1 X146.581 Y203.292 E11.72761
G1 X147.218 Y202.455 E11.76697
G1 X149.534 Y200.042 E11.89212
G1 X150.41 Y199.353 E11.93382
G1 X150.976 Y198.993 E11.95892
G1 X151.524 Y198.715 E11.98191
G1 X152.677 Y198.276 E12.02807
G1 X155.211 Y197.593 E12.12627
G1 X156.579 Y197.417 E12.17788
G1 X157.128 Y197.413 E12.19843
G1 X157.131 Y153.01 E13.85988
G1 X156.933 Y153.014 E13.86729
G1 X155.95 Y152.951 E13.90415
G1 X154.758 Y152.73 E13.94951
G1 X152.236 Y151.966 E14.04811
G1 X151.142 Y151.466 E14.09312
G1 X150.34 Y150.958 E14.12864
G1 X149.541 Y150.313 E14.16707
G1 X147.195 Y147.931 E14.29216
G1 X146.353 Y146.756 E14.34625
G1 X145.893 Y145.857 E14.38404
G1 X145.582 Y145.031 E14.41706
G1 X144.803 Y142.273 E14.5243
G1 X144.627 Y141.096 E14.56883
G1 X144.607 Y140.42 E14.59413
G1 X144.69 Y139.346 E14.63444
G1 X144.882 Y138.365 E14.67184
G1 X145.664 Y135.741 E14.7743
G1 X146.262 Y134.387 E14.82968
G1 X146.581 Y133.864 E14.8526
G1 X147.218 Y133.027 E14.89196
G1 X149.534 Y130.614 E15.01711
G1 X150.41 Y129.925 E15.05881
G1 X150.976 Y129.565 E15.08391
G1 X151.524 Y129.287 E15.1069
G1 X152.677 Y128.848 E15.15306
G1 X155.211 Y128.165 E15.25126
G1 X156.579 Y127.989 E15.30287
G1 X157.138 Y127.985 E15.32379
G1 X157.182 Y100.376 E16.35686
G1 X157.395 Y99.119 E16.40456
G1 X157.508 Y98.725 E16.4199
G1 X157.868 Y97.81 E16.45669
G1 X158.393 Y96.842 E16.49789
G0 F7200 X158.789 Y97.057
G1 F1800 X159.251 Y96.425 E16.52719
G1 X159.795 Y95.824 E16.55752
G1 X160.423 Y95.269 E16.58888
G1 X161.291 Y94.675 E16.62823
G1 X161.887 Y94.369 E16.6533
G1 X162.54 Y94.107 E16.67963
G1 X164.228 Y93.713 E16.74449
G1 X164.682 Y93.676 E16.76153
G1 X185.813 Y94.07 E17.55234
G1 X186.695 Y94.23 E17.58588
G1 X187.902 Y94.63 E17.63346
G1 X188.844 Y95.11 E17.67302
G1 X189.255 Y95.381 E17.69144
G1 X190.122 Y96.092 E17.7334
G1 X190.688 Y96.692 E17.76426
G1 X191.361 Y97.647 E17.80798
G1 X191.838 Y98.603 E17.84795
G1 X192.221 Y99.753 E17.89331
G1 X192.323 Y100.274 E17.91317
G1 X192.423 Y101.39 E17.9551
G1 X192.421 Y128.59 E18.97286
G1 X192.717 Y128.549 E18.98404
G1 X193.189 Y128.544 E19.0017
G1 X195.024 Y128.776 E19.07091
G1 X197.231 Y129.39 E19.15662
G1 X198.581 Y129.947 E19.21127
G1 X199.24 Y130.329 E19.23977
G1 X199.703 Y130.658 E19.26102
G1 X200.596 Y131.436 E19.30534
G1 X202.507 Y133.481 E19.41007
G1 X203.3 Y134.593 E19.46117
G1 X203.653 Y135.268 E19.48968
G1 X204.039 Y136.256 E19.52937
G1 X204.763 Y138.78 E19.62762
G1 X204.993 Y140.391 E19.68851
G1 X204.991 Y141.009 E19.71163
G1 X204.945 Y141.586 E19.73329
G1 X204.792 Y142.431 E19.76542
G1 X203.893 Y145.569 E19.88756
G1 X203.663 Y146.123 E19.91001
G1 X202.794 Y147.564 E19.97297
G1 X202.303 Y148.16 E20.00187
G1 X199.929 Y150.481 E20.1261
G1 X199.182 Y151.026 E20.16069
G1 X198.472 Y151.424 E20.19115
G1 X197.587 Y151.792 E20.22701
G1 X194.346 Y152.675 E20.3527
G1 X193.752 Y152.749 E20.3751
G1 X192.606 Y152.756 E20.41798
G1 X192.421 Y152.733 E20.42496
G1 X192.418 Y197.994 E22.11852
G1 X192.649 Y197.963 E22.12724
G1 X193.186 Y197.953 E22.14734
G1 X195.024 Y198.185 E22.21666
G1 X197.219 Y198.796 E22.30191
G1 X198.625 Y199.381 E22.35889
G1 X199.44 Y199.868 E22.39442
G1 X199.61 Y199.991 E22.40227
G1 X200.576 Y200.846 E22.45054
G1 X202.841 Y203.322 E22.5761
G1 X203.236 Y203.911 E22.60264
G1 X203.622 Y204.646 E22.6337
G1 X204.018 Y205.654 E22.67422
G1 X204.75 Y208.217 E22.77396
G1 X204.968 Y209.676 E22.82916
G1 X204.973 Y210.078 E22.8442
G1 X204.885 Y211.235 E22.88762
G1 X204.808 Y211.644 E22.90319
G1 X203.874 Y214.921 E23.03069
G1 X203.398 Y215.964 E23.07359
G1 X202.787 Y216.924 E23.11617
G1 X202.279 Y217.537 E23.14596
G1 X199.919 Y219.845 E23.26948
G1 X199.187 Y220.383 E23.30347
G1 X198.577 Y220.728 E23.32969
G1 X197.535 Y221.17 E23.37204
G1 X194.692 Y221.969 E23.48254
G1 X194.149 Y222.062 E23.50315
G1 X192.845 Y222.129 E23.55201
G1 X192.414 Y222.094 E23.56819
G1 X192.381 Y249.226 E24.58341
G1 X192.222 Y250.252 E24.62226
G1 X192.05 Y250.882 E24.64669
G1 X191.677 Y251.819 E24.68443
G1 X191.261 Y252.573 E24.71665
G1 X190.788 Y253.23 E24.74694
G1 X189.887 Y254.171 E24.79569
G1 X189.83 Y254.221 E24.79853
G1 X188.765 Y255.006 E24.84803
G1 X188.344 Y255.232 E24.86591
G1 X187.701 Y255.516 E24.89221
G1 X186.131 Y255.941 E24.95307
G1 X185.425 Y256.023 E24.97967
G1 X164.3 Y256.289 E25.77018
G1 X163.68 Y256.202 E25.79361
G1 X162.932 Y256.019 E25.82242
G1 X161.816 Y255.595 E25.86709
G1 X161.046 Y255.173 E25.89994
G1 X160.492 Y254.784 E25.92527
G1 X159.724 Y254.106 E25.96361
G1 X159.166 Y253.473 E25.99518
G1 X158.662 Y252.75 E26.02816
G1 X158.382 Y252.234 E26.05012
G1 X157.894 Y250.992 E26.10006
G1 X157.679 Y250.054 E26.13606
G1 X157.575 Y248.911 E26.17901
G1 X157.577 Y221.951 E27.18779
G1 X156.851 Y221.99 E27.21499
G1 X156.299 Y221.966 E27.23567
G1 X154.79 Y221.703 E27.29298
G1 X152.421 Y220.984 E27.38562
G1 X151.383 Y220.514 E27.42825
G1 X150.622 Y220.035 E27.4619
G1 X149.862 Y219.425 E27.49836
G1 X147.516 Y217.043 E27.62346
G1 X146.753 Y215.978 E27.67248
G1 X146.314 Y215.126 E27.70835
G1 X146.015 Y214.336 E27.73995
G1 X145.248 Y211.633 E27.84508
G1 X145.077 Y210.509 E27.88763
G1 X145.056 Y209.881 E27.91114
G1 X145.132 Y208.86 E27.94945
G1 X145.324 Y207.879 E27.98685
G1 X146.076 Y205.35 E28.08557
G1 X146.647 Y204.048 E28.13877
G1 X146.939 Y203.565 E28.15989
G1 X147.576 Y202.728 E28.19925
G1 X149.813 Y200.395 E28.32019
G1 X150.652 Y199.733 E28.36018
G1 X151.218 Y199.373 E28.38528
G1 X151.685 Y199.135 E28.40489
G1 X152.795 Y198.71 E28.44936
G1 X155.269 Y198.039 E28.54528
G1 X156.583 Y197.867 E28.59486
G1 X157.108 Y197.862 E28.61451
G1 X157.578 Y197.909 E28.63218
G1 X157.581 Y152.528 E30.33023
G1 X157.396 Y152.551 E30.33721
G1 X156.962 Y152.565 E30.35346
G1 X155.979 Y152.502 E30.39031
G1 X154.888 Y152.299 E30.43184
G1 X152.422 Y151.556 E30.52821
G1 X151.382 Y151.085 E30.57093
G1 X150.622 Y150.607 E30.60452
G1 X149.862 Y149.997 E30.64098
G1 X147.516 Y147.615 E30.76608
G1 X146.753 Y146.55 E30.8151
G1 X146.314 Y145.698 E30.85097
G1 X146.015 Y144.908 E30.88257
G1 X145.248 Y142.205 E30.98771
G1 X145.077 Y141.081 E31.03025
G1 X145.056 Y140.453 E31.05376
G1 X145.132 Y139.432 E31.09207
G1 X145.324 Y138.451 E31.12947
G1 X146.076 Y135.922 E31.2282
G1 X146.647 Y134.62 E31.28139
G1 X146.939 Y134.137 E31.30251
G1 X147.576 Y133.3 E31.34187
G1 X149.813 Y130.967 E31.46281
G1 X150.652 Y130.305 E31.5028
G1 X151.218 Y129.945 E31.5279
G1 X151.685 Y129.707 E31.54751
G1 X152.795 Y129.282 E31.59198
G1 X155.269 Y128.611 E31.6879
G1 X156.583 Y128.439 E31.73749
G1 X157.108 Y128.434 E31.75713
G1 X157.587 Y128.482 E31.77514
G1 X157.632 Y100.377 E32.82677
G1 X157.828 Y99.243 E32.86983
G1 X157.941 Y98.849 E32.88517
G1 X158.264 Y98.025 E32.91828
G1 X158.789 Y97.057 E32.95949
G0 F7200 X159.185 Y97.272
G1 F1800 X159.586 Y96.726 E32.98483
G1 X160.095 Y96.16 E33.01332
G1 X160.678 Y95.64 E33.04255
G1 X161.498 Y95.075 E33.07981
G1 X162.055 Y94.787 E33.10327
G1 X162.708 Y94.525 E33.1296
G1 X164.265 Y94.162 E33.18942
G1 X164.719 Y94.125 E33.20646
G1 X185.735 Y94.513 E33.99297
G1 X186.555 Y94.658 E34.02413
G1 X187.699 Y95.032 E34.06916
G1 X188.596 Y95.486 E34.10678
G1 X189.007 Y95.757 E34.1252
G1 X189.796 Y96.403 E34.16336
G1 X190.321 Y96.953 E34.19181
G1 X190.958 Y97.848 E34.23291
G1 X191.435 Y98.804 E34.27289
G1 X191.779 Y99.839 E34.3137
G1 X191.881 Y100.36 E34.33356
G1 X191.973 Y101.39 E34.37226
G1 X191.971 Y129.116 E35.4097
G1 X192.722 Y128.999 E35.43814
G1 X193.194 Y128.994 E35.4558
G1 X194.903 Y129.21 E35.52025
G1 X197.11 Y129.824 E35.60597
G1 X198.356 Y130.337 E35.65639
G1 X198.979 Y130.696 E35.6833
G1 X199.442 Y131.025 E35.70455
G1 X200.268 Y131.744 E35.74552
G1 X202.141 Y133.743 E35.84802
G1 X202.901 Y134.802 E35.8968
G1 X203.254 Y135.477 E35.9253
G1 X203.606 Y136.38 E35.96157
G1 X204.33 Y138.904 E36.05982
G1 X204.543 Y140.39 E36.11599
G1 X204.542 Y140.973 E36.1378
G1 X204.496 Y141.55 E36.15946
G1 X204.359 Y142.307 E36.18825
G1 X203.477 Y145.396 E36.30845
G1 X203.247 Y145.95 E36.33089
G1 X202.409 Y147.331 E36.39134
G1 X201.988 Y147.839 E36.41602
G1 X199.664 Y150.117 E36.53779
G1 X198.917 Y150.662 E36.57239
G1 X198.253 Y151.031 E36.60081
G1 X197.468 Y151.358 E36.63263
G1 X194.29 Y152.228 E36.75592
G1 X193.696 Y152.302 E36.77832
G1 X192.661 Y152.309 E36.81705
G1 X191.971 Y152.224 E36.84306
G1 X191.968 Y198.521 E38.57539
G1 X192.657 Y198.413 E38.60148
G1 X193.194 Y198.403 E38.62158
G1 X194.903 Y198.619 E38.68603
G1 X197.098 Y199.23 E38.77129
G1 X198.395 Y199.768 E38.82383
G1 X199.176 Y200.233 E38.85784
G1 X199.346 Y200.356 E38.86569
G1 X200.244 Y201.15 E38.91054
G1 X202.468 Y203.574 E39.03363
G1 X202.838 Y204.122 E39.05837
G1 X203.203 Y204.811 E39.08755
G1 X203.585 Y205.778 E39.12645
G1 X204.317 Y208.341 E39.22619
G1 X204.518 Y209.683 E39.27696
G1 X204.524 Y210.044 E39.29047
G1 X204.436 Y211.201 E39.33389
G1 X204.375 Y211.521 E39.34608
G1 X203.441 Y214.798 E39.47358
G1 X203.018 Y215.722 E39.51161
G1 X202.407 Y216.682 E39.55419
G1 X201.964 Y217.216 E39.58015
G1 X199.651 Y219.483 E39.70133
G1 X198.965 Y219.991 E39.73327
G1 X198.355 Y220.336 E39.75949
G1 X197.413 Y220.737 E39.7978
G1 X194.616 Y221.525 E39.90653
G1 X194.073 Y221.618 E39.92715
G1 X192.881 Y221.68 E39.97181
G1 X192.191 Y221.624 E39.99771
G1 X191.965 Y221.577 E40.00635
G1 X191.936 Y249.157 E41.03833
G1 X191.777 Y250.183 E41.07718
G1 X191.631 Y250.717 E41.09789
G1 X191.282 Y251.603 E41.13352
G1 X190.894 Y252.312 E41.16377
G1 X190.463 Y252.919 E41.19162
G1 X189.562 Y253.86 E41.24037
G1 X188.552 Y254.61 E41.28744
G1 X188.162 Y254.82 E41.30401
G1 X187.519 Y255.104 E41.33032
G1 X186.079 Y255.494 E41.38614
G1 X185.373 Y255.576 E41.41273
G1 X164.363 Y255.843 E42.19894
G1 X163.743 Y255.756 E42.22237
G1 X163.09 Y255.598 E42.24751
G1 X162.031 Y255.2 E42.28984
G1 X161.303 Y254.804 E42.32085
G1 X160.789 Y254.446 E42.34429
G1 X160.062 Y253.808 E42.38048
G1 X159.504 Y253.175 E42.41205
G1 X159.058 Y252.535 E42.44124
G1 X158.778 Y252.019 E42.46321
G1 X158.333 Y250.891 E42.50858
G1 X158.118 Y249.953 E42.54459
G1 X158.025 Y248.911 E42.58373
G1 X158.027 Y221.446 E43.61141
G1 X157.719 Y221.493 E43.62307
G1 X156.871 Y221.54 E43.65485
G1 X156.319 Y221.516 E43.67552
G1 X154.92 Y221.272 E43.72866
G1 X152.607 Y220.574 E43.81906
G1 X151.569 Y220.104 E43.86169
G1 X150.903 Y219.683 E43.89118
G1 X150.183 Y219.109 E43.92563
G1 X147.837 Y216.727 E44.05073
G1 X147.153 Y215.772 E44.09468
G1 X146.714 Y214.92 E44.13055
G1 X146.448 Y214.213 E44.15881
G1 X145.693 Y211.565 E44.26184
G1 X145.522 Y210.441 E44.30438
G1 X145.505 Y209.913 E44.32415
G1 X145.574 Y208.946 E44.36042
G1 X145.766 Y207.965 E44.39783
G1 X146.488 Y205.531 E44.49282
G1 X147.059 Y204.229 E44.54602
G1 X147.297 Y203.838 E44.56315
G1 X147.934 Y203.001 E44.60251
G1 X150.093 Y200.748 E44.71927
G1 X150.894 Y200.113 E44.75751
G1 X151.46 Y199.753 E44.78261
G1 X151.888 Y199.537 E44.80055
G1 X152.913 Y199.144 E44.84163
G1 X155.329 Y198.485 E44.93533
G1 X156.587 Y198.317 E44.98282
G1 X157.112 Y198.312 E45.00246
G1 X158.028 Y198.409 E45.03693
G1 X158.031 Y152.016 E46.77285
G1 X157.381 Y152.101 E46.79738
G1 X156.947 Y152.115 E46.81362
G1 X156.009 Y152.053 E46.8488
G1 X155.018 Y151.868 E46.88652
G1 X152.552 Y151.125 E46.98289
G1 X151.569 Y150.676 E47.02333
G1 X150.903 Y150.255 E47.05281
G1 X150.183 Y149.681 E47.08726
G1 X147.837 Y147.299 E47.21236
G1 X147.153 Y146.344 E47.25631
G1 X146.714 Y145.492 E47.29218
G1 X146.448 Y144.785 E47.32044
G1 X145.693 Y142.137 E47.42347
G1 X145.522 Y141.013 E47.46601
G1 X145.505 Y140.485 E47.48578
G1 X145.574 Y139.518 E47.52205
G1 X145.766 Y138.537 E47.55946
G1 X146.488 Y136.103 E47.65446
