;FLAVOR:Marlin
;TIME:1770
;Filament used: 2.00092m
;Layer height: 0.2
;MINX:90.102
;MINY:125.477
;MINZ:0.2
;MAXX:259.897
;MAXY:224.42
;MAXZ:1.6
;TARGET_MACHINE.NAME:VORON2 350
;POSTPROCESSED
;  [CreateThumbnail]
;  [CreateThumbnail]
;  [InsertAtLayerChange]
;Generated with Cura_SteamEngine 5.8.0
;
;

;
;



; Pre-Processed for Cancel-Object support by preprocess_cancellation v0.2.0
; 1 known objects
EXCLUDE_OBJECT_DEFINE NAME=FRONT_REINFORCEMENT_STL CENTER=175.053,175.839 POLYGON=[[97.708,133.281],[97.708,216.708],[252.291,216.708],[252.291,133.281]]
M82 ;absolute extrusion mode
;Nozzle diameter = 0.4
;Filament type = ABS
;Filament name = ABS+ Black
;Filament weight = [5.29405615234375]
; M190 S100
; M109 S240
PRINT_START BED_TEMP=100 EXTRUDER_TEMP=240
M141 S40
G92 E0
G92 E0
G1 F1800 E-0.75
;LAYER_COUNT:8
TIMELAPSE_TAKE_FRAME
;LAYER:0
M107
G1 F600 Z0.4
G0 F7200 X106.263 Y145.087 Z0.4
;TYPE:SKIRT
G1 F600 Z0.2
G1 F720 E0
G1 F1800 X107.588 Y144.118 E0.06142
G1 X108.369 Y143.57 E0.09712
G1 X109.406 Y142.865 E0.14404
G1 X110.418 Y142.202 E0.18931
G1 X111.519 Y141.506 E0.23805
G1 X112.598 Y140.847 E0.28536
G1 X113.77 Y140.16 E0.33619
G1 X114.834 Y139.56 E0.3819
G1 X115.924 Y138.973 E0.42822
G1 X117.338 Y138.238 E0.48785
G1 X118.584 Y137.618 E0.53992
G1 X120.299 Y136.81 E0.61086
G1 X122.364 Y135.893 E0.6954
G1 X123.706 Y135.33 E0.74986
G1 X125.736 Y134.521 E0.83163
G1 X127.654 Y133.809 E0.90818
G1 X130.332 Y132.891 E1.01411
G1 X131.723 Y132.438 E1.06884
G1 X134.46 Y131.609 E1.17585
G1 X137.196 Y130.853 E1.28206
G1 X138.675 Y130.473 E1.3392
G1 X140.004 Y130.147 E1.3904
G1 X141.594 Y129.775 E1.4515
G1 X144.325 Y129.165 E1.55621
G1 X145.769 Y128.869 E1.61136
G1 X148.633 Y128.32 E1.72048
G1 X150.569 Y127.976 E1.79405
G1 X153.763 Y127.453 E1.91516
G1 X156.637 Y127.027 E2.02387
G1 X160.694 Y126.489 E2.177
G1 X164.957 Y126.004 E2.33754
G1 X167.46 Y125.773 E2.4316
G1 X170.413 Y125.581 E2.54233
G1 X172.045 Y125.521 E2.60343
G1 X173.372 Y125.491 E2.6531
G1 X175.07 Y125.477 E2.71664
G1 X176.745 Y125.491 E2.77931
G1 X178.123 Y125.528 E2.83089
G1 X181.058 Y125.667 E2.94084
G1 X182.742 Y125.79 E3.00402
G1 X185.178 Y126.021 E3.09557
G1 X187.248 Y126.241 E3.17346
G1 X191.444 Y126.757 E3.33165
G1 X195.455 Y127.325 E3.48323
G1 X197.929 Y127.714 E3.57694
G1 X199.553 Y127.994 E3.6386
G1 X202.436 Y128.521 E3.74827
G1 X204.276 Y128.883 E3.81843
G1 X205.737 Y129.189 E3.87429
G1 X208.541 Y129.806 E3.98172
G1 X211.449 Y130.506 E4.09363
G1 X214.218 Y131.239 E4.20081
G1 X215.672 Y131.65 E4.25735
G1 X217.001 Y132.043 E4.30921
G1 X219.758 Y132.924 E4.41751
G1 X221.088 Y133.372 E4.47002
G1 X222.391 Y133.832 E4.52172
G1 X224.421 Y134.592 E4.60283
G1 X226.438 Y135.395 E4.68406
G1 X227.696 Y135.927 E4.73517
G1 X228.963 Y136.48 E4.7869
G1 X230.459 Y137.162 E4.84842
G1 X231.612 Y137.714 E4.89625
G1 X232.815 Y138.316 E4.94658
G1 X234.199 Y139.042 E5.00506
G1 X235.109 Y139.538 E5.04384
G1 X236.385 Y140.253 E5.09857
G1 X237.437 Y140.867 E5.14415
G1 X238.604 Y141.577 E5.19526
G1 X239.71 Y142.282 E5.24434
G1 X240.768 Y142.98 E5.29176
G1 X241.801 Y143.687 E5.3386
G1 X242.54 Y144.209 E5.37246
G1 X243.876 Y145.191 E5.4345
G1 X244.904 Y145.982 E5.48303
G1 X246.021 Y146.875 E5.53654
G1 X246.858 Y147.574 E5.57735
G1 X247.787 Y148.371 E5.62315
G1 X248.768 Y149.254 E5.67253
G1 X249.653 Y150.08 E5.71783
G1 X250.769 Y151.168 E5.77615
G1 X251.488 Y151.895 E5.81441
G1 X252.17 Y152.613 E5.85146
G1 X252.842 Y153.339 E5.88848
G1 X253.47 Y154.043 E5.92378
G1 X254.125 Y154.804 E5.96135
G1 X254.812 Y155.642 E6.00189
G1 X255.368 Y156.357 E6.03579
G1 X255.988 Y157.186 E6.07452
G1 X256.561 Y157.996 E6.11165
G1 X257.184 Y158.929 E6.15362
G1 X257.826 Y159.996 E6.20022
G1 X258.238 Y160.833 E6.23512
G1 X258.511 Y161.49 E6.26175
G1 X258.846 Y162.454 E6.29993
G1 X259.043 Y163.121 E6.32596
G1 X259.359 Y164.485 E6.37835
G1 X259.516 Y165.329 E6.41047
G1 X259.658 Y166.303 E6.4473
G1 X259.751 Y167.15 E6.47918
G1 X259.828 Y168.059 E6.51332
G1 X259.882 Y169.023 E6.54944
G1 X259.897 Y169.956 E6.58436
G1 X259.889 Y170.884 E6.61908
G1 X259.848 Y171.767 E6.65216
G1 X259.767 Y172.724 E6.68809
G1 X259.644 Y173.823 E6.72947
G1 X259.538 Y174.568 E6.75763
G1 X259.376 Y175.427 E6.79034
G1 X259.219 Y176.172 E6.81883
G1 X259.026 Y176.915 E6.84755
G1 X258.81 Y177.685 E6.87747
G1 X258.562 Y178.44 E6.90721
G1 X258.259 Y179.25 E6.93957
G1 X257.572 Y180.815 E7.00352
G1 X257.05 Y181.928 E7.04952
G1 X256.409 Y183.236 E7.10402
G1 X255.807 Y184.397 E7.15296
G1 X255.336 Y185.275 E7.19024
G1 X254.706 Y186.391 E7.23819
G1 X254.102 Y187.424 E7.28297
G1 X253.415 Y188.537 E7.33191
G1 X252.776 Y189.54 E7.37641
G1 X252.104 Y190.541 E7.42152
G1 X251.272 Y191.737 E7.47603
G1 X250.623 Y192.632 E7.5174
G1 X249.861 Y193.637 E7.56459
G1 X249.07 Y194.633 E7.61218
G1 X248.356 Y195.5 E7.65421
G1 X247.527 Y196.472 E7.70201
G1 X246.697 Y197.406 E7.74876
G1 X245.817 Y198.351 E7.79708
G1 X244.946 Y199.25 E7.84392
G1 X244.067 Y200.13 E7.89046
G1 X243.119 Y201.038 E7.93958
G1 X242.16 Y201.914 E7.98818
G1 X241.2 Y202.754 E8.03591
G1 X240.142 Y203.651 E8.08781
G1 X239.155 Y204.447 E8.13525
G1 X238.063 Y205.297 E8.18703
G1 X237.093 Y206.019 E8.23228
G1 X236.021 Y206.793 E8.28175
G1 X234.905 Y207.558 E8.33238
G1 X233.741 Y208.325 E8.38454
G1 X232.671 Y209.005 E8.43198
G1 X231.499 Y209.716 E8.48327
G1 X230.268 Y210.433 E8.53657
G1 X228.677 Y211.311 E8.60457
G1 X227.413 Y211.976 E8.65801
G1 X226.182 Y212.592 E8.70952
G1 X224.793 Y213.262 E8.76722
G1 X223.625 Y213.804 E8.8154
G1 X222.088 Y214.486 E8.87832
G1 X220.553 Y215.136 E8.94069
G1 X219.209 Y215.671 E8.99482
G1 X217.451 Y216.345 E9.06527
G1 X215.875 Y216.917 E9.128
G1 X214.168 Y217.511 E9.19563
G1 X212.683 Y217.995 E9.25407
G1 X211.01 Y218.513 E9.31961
G1 X209.252 Y219.025 E9.38812
G1 X207.508 Y219.516 E9.45591
G1 X206.171 Y219.871 E9.50767
G1 X204.693 Y220.249 E9.56476
G1 X202.349 Y220.805 E9.6549
G1 X200.531 Y221.215 E9.72463
G1 X197.545 Y221.829 E9.8387
G1 X195.577 Y222.206 E9.91367
G1 X193.837 Y222.519 E9.97983
G1 X191.787 Y222.862 E10.0576
G1 X187.678 Y223.481 E10.21308
G1 X186.121 Y223.695 E10.27189
G1 X184.492 Y223.893 E10.33329
G1 X181.649 Y224.16 E10.44014
G1 X180.405 Y224.244 E10.48679
G1 X178.757 Y224.34 E10.54856
G1 X177.528 Y224.374 E10.59456
G1 X174.947 Y224.42 E10.69115
G1 X173.951 Y224.414 E10.72842
G1 X172.29 Y224.378 E10.79059
G1 X169.419 Y224.243 E10.89813
G1 X166.704 Y224.021 E11.00006
G1 X165.334 Y223.875 E11.05161
G1 X163.743 Y223.679 E11.1116
G1 X160.273 Y223.187 E11.24273
G1 X158.215 Y222.863 E11.32069
G1 X156.079 Y222.501 E11.40175
G1 X154.272 Y222.176 E11.47045
G1 X152.337 Y221.808 E11.54415
G1 X149.491 Y221.213 E11.65294
G1 X147.835 Y220.848 E11.71639
G1 X145.13 Y220.196 E11.82051
G1 X143.738 Y219.844 E11.87423
G1 X142.336 Y219.466 E11.92857
G1 X140.64 Y218.991 E11.99447
G1 X138.233 Y218.276 E12.08842
G1 X137.193 Y217.949 E12.12921
G1 X135.572 Y217.416 E12.19306
G1 X133.997 Y216.873 E12.2554
G1 X131.745 Y216.047 E12.34515
G1 X130.656 Y215.621 E12.38891
G1 X129.251 Y215.051 E12.44564
G1 X127.806 Y214.441 E12.50433
G1 X126.345 Y213.795 E12.5641
G1 X125.1 Y213.22 E12.61542
G1 X123.423 Y212.401 E12.68525
G1 X122.41 Y211.889 E12.72772
G1 X120.776 Y211.013 E12.79709
G1 X119.463 Y210.274 E12.85347
G1 X118.129 Y209.486 E12.91144
G1 X116.842 Y208.693 E12.96801
G1 X115.778 Y208.009 E13.01534
G1 X114.945 Y207.454 E13.05279
G1 X113.739 Y206.618 E13.1077
G1 X112.81 Y205.948 E13.15055
G1 X111.791 Y205.186 E13.19816
G1 X110.695 Y204.33 E13.2502
G1 X109.716 Y203.53 E13.29751
G1 X108.624 Y202.604 E13.35108
G1 X107.717 Y201.797 E13.39651
G1 X106.755 Y200.914 E13.44537
G1 X105.872 Y200.068 E13.49112
G1 X104.876 Y199.073 E13.5438
G1 X104.063 Y198.224 E13.58779
G1 X103.246 Y197.34 E13.63283
G1 X102.369 Y196.353 E13.68223
G1 X101.599 Y195.452 E13.72658
G1 X100.812 Y194.49 E13.77308
G1 X100.041 Y193.506 E13.81986
G1 X99.259 Y192.472 E13.86837
G1 X98.544 Y191.474 E13.91431
G1 X97.874 Y190.513 E13.95814
G1 X97.139 Y189.411 E14.0077
G1 X96.498 Y188.409 E14.05221
G1 X95.836 Y187.324 E14.09977
G1 X95.232 Y186.283 E14.1448
G1 X94.758 Y185.439 E14.18102
G1 X94.013 Y184.056 E14.2398
G1 X93.454 Y182.954 E14.28604
G1 X92.879 Y181.778 E14.33502
G1 X92.316 Y180.571 E14.38486
G1 X91.698 Y179.152 E14.44277
G1 X91.338 Y178.151 E14.48257
G1 X91.111 Y177.424 E14.51107
G1 X90.888 Y176.598 E14.54308
G1 X90.739 Y175.956 E14.56774
G1 X90.569 Y175.148 E14.59864
G1 X90.429 Y174.356 E14.62873
G1 X90.288 Y173.314 E14.66808
G1 X90.202 Y172.433 E14.7012
G1 X90.137 Y171.508 E14.7359
G1 X90.11 Y170.672 E14.76719
G1 X90.102 Y169.716 E14.80297
G1 X90.132 Y168.824 E14.83636
G1 X90.182 Y167.888 E14.87143
G1 X90.264 Y166.888 E14.90898
G1 X90.382 Y165.941 E14.94469
G1 X90.53 Y165.02 E14.97959
G1 X90.663 Y164.343 E15.00541
G1 X90.98 Y163.05 E15.05522
G1 X91.279 Y162.066 E15.0937
G1 X91.541 Y161.356 E15.12202
G1 X91.939 Y160.455 E15.15887
G1 X92.389 Y159.612 E15.19463
G1 X92.987 Y158.665 E15.23654
G1 X93.559 Y157.814 E15.27491
G1 X94.106 Y157.052 E15.31
G1 X94.745 Y156.205 E15.3497
G1 X95.306 Y155.501 E15.38339
G1 X95.979 Y154.684 E15.42299
G1 X96.587 Y153.976 E15.45791
G1 X97.268 Y153.214 E15.49615
G1 X97.967 Y152.466 E15.53446
G1 X99.351 Y151.045 E15.60868
G1 X100.495 Y149.934 E15.66835
G1 X101.392 Y149.11 E15.71393
G1 X102.36 Y148.243 E15.76255
G1 X103.292 Y147.447 E15.80841
G1 X104.109 Y146.769 E15.84814
G1 X105.295 Y145.824 E15.90488
G1 X106.263 Y145.087 E15.9504
G0 F7200 X106.529 Y145.45
G1 F1800 X107.847 Y144.486 E16.0115
G1 X108.622 Y143.942 E16.04693
G1 X109.653 Y143.241 E16.09358
G1 X110.658 Y142.582 E16.13855
G1 X111.753 Y141.89 E16.18702
G1 X112.826 Y141.235 E16.23406
G1 X113.991 Y140.552 E16.28459
G1 X115.048 Y139.956 E16.32999
G1 X116.131 Y139.372 E16.37603
G1 X117.538 Y138.641 E16.43536
G1 X118.776 Y138.025 E16.4871
G1 X120.482 Y137.221 E16.55767
G1 X122.538 Y136.308 E16.64184
G1 X123.873 Y135.748 E16.69601
G1 X125.893 Y134.943 E16.77738
G1 X127.8 Y134.235 E16.85349
G1 X130.471 Y133.319 E16.95915
G1 X131.853 Y132.869 E17.01353
G1 X134.58 Y132.043 E17.12015
G1 X137.308 Y131.289 E17.22605
G1 X138.782 Y130.91 E17.283
G1 X140.106 Y130.585 E17.33401
G1 X141.692 Y130.214 E17.39496
G1 X144.415 Y129.606 E17.49935
G1 X145.854 Y129.311 E17.55432
G1 X148.712 Y128.763 E17.66321
G1 X150.642 Y128.42 E17.73655
G1 X153.829 Y127.898 E17.85739
G1 X156.696 Y127.473 E17.96584
G1 X160.746 Y126.936 E18.11871
G1 X162.678 Y126.71 E18.19149
G1 X164.998 Y126.452 E18.27884
G1 X167.489 Y126.222 E18.37244
G1 X170.43 Y126.031 E18.48272
G1 X172.055 Y125.971 E18.54356
G1 X173.376 Y125.941 E18.593
G1 X175.066 Y125.927 E18.65624
G1 X176.733 Y125.941 E18.71862
G1 X178.102 Y125.977 E18.76986
G1 X181.025 Y126.116 E18.87936
G1 X182.7 Y126.238 E18.9422
G1 X185.13 Y126.468 E19.03353
G1 X187.193 Y126.688 E19.11116
G1 X191.381 Y127.203 E19.26905
G1 X195.385 Y127.77 E19.42036
G1 X197.859 Y128.159 E19.51407
G1 X199.472 Y128.437 E19.57531
G1 X202.349 Y128.962 E19.68474
G1 X204.184 Y129.324 E19.75473
G1 X205.64 Y129.628 E19.81038
G1 X208.436 Y130.243 E19.9175
G1 X211.334 Y130.941 E20.02904
G1 X214.095 Y131.672 E20.13591
G1 X215.544 Y132.082 E20.19226
G1 X216.864 Y132.472 E20.24376
G1 X219.614 Y133.35 E20.35177
G1 X220.938 Y133.796 E20.40405
G1 X222.233 Y134.253 E20.45543
G1 X224.255 Y135.01 E20.53622
G1 X226.263 Y135.809 E20.61709
G1 X227.516 Y136.339 E20.66799
G1 X228.776 Y136.889 E20.71943
G1 X230.265 Y137.568 E20.78067
G1 X231.411 Y138.116 E20.8282
G1 X232.606 Y138.714 E20.8782
G1 X233.984 Y139.437 E20.93643
G1 X234.889 Y139.93 E20.97499
G1 X236.158 Y140.642 E21.02944
G1 X237.203 Y141.252 E21.07471
G1 X238.362 Y141.956 E21.12545
G1 X239.462 Y142.657 E21.17426
G1 X240.514 Y143.352 E21.22144
G1 X241.541 Y144.054 E21.26798
G1 X242.274 Y144.572 E21.30157
G1 X243.602 Y145.548 E21.36324
G1 X244.623 Y146.333 E21.41143
G1 X245.733 Y147.221 E21.46461
G1 X246.565 Y147.915 E21.50515
G1 X247.486 Y148.706 E21.55058
G1 X248.461 Y149.583 E21.59965
G1 X249.339 Y150.402 E21.64458
G1 X250.449 Y151.484 E21.70258
G1 X251.162 Y152.205 E21.74052
G1 X251.84 Y152.919 E21.77736
G1 X252.506 Y153.638 E21.81403
G1 X253.129 Y154.337 E21.84907
G1 X253.777 Y155.089 E21.88621
G1 X254.457 Y155.918 E21.92633
G1 X255.008 Y156.626 E21.9599
G1 X255.621 Y157.446 E21.99821
G1 X256.187 Y158.246 E22.03488
G1 X256.798 Y159.161 E22.07605
G1 X257.44 Y160.228 E22.12264
G1 X257.822 Y161.006 E22.15507
G1 X258.095 Y161.663 E22.18169
G1 X258.414 Y162.581 E22.21806
G1 X258.611 Y163.248 E22.24408
G1 X258.917 Y164.567 E22.29475
G1 X259.071 Y165.394 E22.32622
G1 X259.211 Y166.352 E22.36245
G1 X259.303 Y167.188 E22.39392
G1 X259.379 Y168.084 E22.42757
G1 X259.432 Y169.03 E22.46302
G1 X259.447 Y169.952 E22.49752
G1 X259.439 Y170.863 E22.53161
G1 X259.398 Y171.746 E22.56469
G1 X259.32 Y172.674 E22.59953
G1 X259.198 Y173.76 E22.64042
G1 X259.092 Y174.505 E22.66858
G1 X258.936 Y175.334 E22.70014
G1 X258.783 Y176.059 E22.72787
G1 X258.593 Y176.794 E22.75628
G1 X258.383 Y177.544 E22.78542
G1 X258.14 Y178.283 E22.81453
G1 X257.847 Y179.069 E22.84591
G1 X257.164 Y180.624 E22.90946
G1 X256.646 Y181.73 E22.95516
G1 X256.01 Y183.029 E23.00928
G1 X255.411 Y184.184 E23.05796
G1 X254.944 Y185.054 E23.09491
G1 X254.318 Y186.164 E23.14259
G1 X253.719 Y187.188 E23.18698
G1 X253.036 Y188.295 E23.23565
G1 X252.402 Y189.289 E23.27977
G1 X251.735 Y190.284 E23.32459
G1 X250.907 Y191.473 E23.3788
G1 X250.265 Y192.36 E23.41978
G1 X249.508 Y193.357 E23.46662
G1 X248.723 Y194.347 E23.51389
G1 X248.013 Y195.208 E23.55565
G1 X247.191 Y196.173 E23.60308
G1 X246.368 Y197.099 E23.64944
G1 X245.494 Y198.038 E23.69744
G1 X244.628 Y198.932 E23.74401
G1 X243.756 Y199.805 E23.79018
G1 X242.815 Y200.706 E23.83893
G1 X241.864 Y201.575 E23.88713
G1 X240.909 Y202.411 E23.93462
G1 X239.859 Y203.301 E23.98612
G1 X238.879 Y204.092 E24.03325
G1 X237.795 Y204.936 E24.08465
G1 X236.829 Y205.654 E24.12969
G1 X235.766 Y206.422 E24.17876
G1 X234.658 Y207.182 E24.22903
G1 X233.499 Y207.945 E24.28095
G1 X232.438 Y208.62 E24.32801
G1 X231.272 Y209.327 E24.37903
G1 X230.05 Y210.039 E24.43195
G1 X228.467 Y210.913 E24.49961
G1 X227.212 Y211.574 E24.55268
G1 X225.987 Y212.187 E24.60394
G1 X224.604 Y212.854 E24.66139
G1 X223.442 Y213.393 E24.70932
G1 X221.912 Y214.072 E24.77195
G1 X220.387 Y214.718 E24.83392
G1 X219.048 Y215.251 E24.88785
G1 X217.298 Y215.922 E24.95798
G1 X215.727 Y216.492 E25.02051
G1 X214.029 Y217.083 E25.08779
G1 X212.55 Y217.565 E25.14599
G1 X210.884 Y218.081 E25.21125
G1 X209.13 Y218.592 E25.27961
G1 X207.392 Y219.081 E25.34717
G1 X206.059 Y219.435 E25.39877
G1 X204.589 Y219.811 E25.45555
G1 X202.25 Y220.366 E25.5455
G1 X200.44 Y220.774 E25.61492
G1 X197.46 Y221.387 E25.72876
G1 X195.497 Y221.763 E25.80355
G1 X193.763 Y222.075 E25.86947
G1 X191.72 Y222.417 E25.94698
G1 X187.617 Y223.035 E26.10224
G1 X186.067 Y223.248 E26.16078
G1 X184.45 Y223.445 E26.22173
G1 X181.619 Y223.711 E26.32813
G1 X180.379 Y223.795 E26.37463
G1 X178.744 Y223.89 E26.43591
G1 X177.518 Y223.925 E26.48181
G1 X174.95 Y223.97 E26.57791
G1 X173.961 Y223.964 E26.61492
G1 X172.311 Y223.928 E26.67667
G1 X169.456 Y223.794 E26.78361
G1 X166.741 Y223.572 E26.88554
G1 X165.389 Y223.428 E26.93642
G1 X163.806 Y223.233 E26.9961
G1 X160.343 Y222.743 E27.12696
G1 X158.29 Y222.419 E27.20473
G1 X156.159 Y222.058 E27.28561
G1 X154.356 Y221.734 E27.35415
G1 X152.429 Y221.368 E27.42754
G1 X149.588 Y220.774 E27.53615
G1 X147.94 Y220.41 E27.5993
G1 X145.24 Y219.76 E27.70321
G1 X143.855 Y219.41 E27.75666
G1 X142.457 Y219.033 E27.81084
G1 X140.768 Y218.56 E27.87647
G1 X138.368 Y217.847 E27.97015
G1 X137.334 Y217.522 E28.01071
G1 X135.718 Y216.99 E28.07437
G1 X134.152 Y216.451 E28.13634
G1 X131.909 Y215.628 E28.22574
G1 X130.825 Y215.204 E28.26929
G1 X129.426 Y214.636 E28.32579
G1 X127.988 Y214.029 E28.38419
G1 X126.534 Y213.386 E28.44368
G1 X125.289 Y212.811 E28.49499
G1 X123.626 Y211.999 E28.56424
G1 X122.623 Y211.492 E28.60629
G1 X120.989 Y210.616 E28.67567
G1 X119.692 Y209.887 E28.73134
G1 X118.365 Y209.103 E28.78901
G1 X117.085 Y208.315 E28.84525
G1 X116.028 Y207.635 E28.89228
G1 X115.201 Y207.084 E28.92946
G1 X114.002 Y206.253 E28.98405
