;FLAVOR:Marlin
;TIME:5787
;Filament used: 6.42278m
;Layer height: 0.2
;MINX:141.902
;MINY:28.226
;MINZ:0.2
;MAXX:208.107
;MAXY:321.724
;MAXZ:11.8
;TARGET_MACHINE.NAME:VORON2 350
;POSTPROCESSED
;  [CreateThumbnail]
;  [CreateThumbnail]
;  [InsertAtLayerChange]
;Generated with Cura_SteamEngine 5.8.0
;
;

;
;



; Pre-Processed for Cancel-Object support by preprocess_cancellation v0.2.0
; 2 known objects
EXCLUDE_OBJECT_DEFINE NAME=FUS_ROOT_L_STL CENTER=159.605,198.512 POLYGON=[[149.977,36.531],[149.977,313.659],[174.188,313.659],[174.188,36.531]]
EXCLUDE_OBJECT_DEFINE NAME=FUS_ROOT_R_STL CENTER=181.040,157.786 POLYGON=[[143.757,36.297],[143.757,313.429],[200.454,313.429],[200.454,36.297]]
M82 ;absolute extrusion mode
;Nozzle diameter = 0.4
;Filament type = ABS
;Filament name = ABS+ Black
;Filament weight = [16.9934638671875]
; M190 S100
; M109 S240
PRINT_START BED_TEMP=100 EXTRUDER_TEMP=240
M141 S40
G92 E0
G92 E0
G1 F1800 E-0.75
;LAYER_COUNT:58
TIMELAPSE_TAKE_FRAME
;LAYER:0
M107
G1 F600 Z0.4
G0 F7200 X143.941 Y34.93 Z0.4
;TYPE:SKIRT
G1 F600 Z0.2
G1 F720 E0
G1 F1800 X144.497 Y33.317 E0.06384
G1 X144.908 Y32.564 E0.09594
G1 X145.498 Y31.729 E0.1342
G1 X146.129 Y31.039 E0.16918
G1 X146.731 Y30.516 E0.19902
G1 X147.424 Y30.031 E0.23067
G1 X148.024 Y29.691 E0.25647
G1 X149.395 Y29.147 E0.31167
G1 X150.134 Y28.962 E0.34017
G1 X152.173 Y28.746 E0.41689
G1 X153.002 Y28.781 E0.44794
G1 X154.649 Y29.051 E0.51039
G1 X155.511 Y29.327 E0.54426
G1 X156.234 Y29.647 E0.57384
G1 X157.002 Y30.094 E0.60709
G1 X157.922 Y30.799 E0.65046
G1 X158.546 Y31.421 E0.68343
G1 X159.296 Y32.401 E0.7296
G1 X159.613 Y32.945 E0.75316
G1 X159.987 Y33.748 E0.78631
G1 X160.3 Y34.65 E0.82203
G1 X160.346 Y34.828 E0.82891
G1 X160.57 Y36.355 E0.88666
G1 X160.658 Y38.832 E0.9794
G1 X160.82 Y41.987 E1.09761
G1 X161.035 Y45.555 E1.23136
G1 X161.256 Y48.743 E1.35093
G1 X161.532 Y52.335 E1.48573
G1 X161.843 Y55.825 E1.61684
G1 X162.523 Y62.689 E1.87493
G1 X162.889 Y65.926 E1.99682
G1 X163.323 Y69.597 E2.13514
G1 X164.211 Y76.761 E2.40525
G1 X165.162 Y83.98 E2.6777
G1 X166.518 Y93.832 E3.04981
G1 X167.401 Y99.9 E3.27926
G1 X168.163 Y105.055 E3.47424
G1 X168.223 Y100.898 E3.6298
G1 X168.424 Y90.166 E4.03144
G1 X168.572 Y83.55 E4.27906
G1 X168.752 Y76.416 E4.54608
G1 X169.018 Y67.124 E4.89391
G1 X169.147 Y63.092 E5.04485
G1 X169.336 Y58.526 E5.21585
G1 X169.604 Y53.013 E5.42237
G1 X169.92 Y47.617 E5.62462
G1 X170.058 Y45.909 E5.68874
G1 X170.206 Y44.388 E5.74592
G1 X170.399 Y42.851 E5.80389
G1 X170.655 Y41.152 E5.86818
G1 X171.254 Y37.671 E6.00034
G1 X171.417 Y36.898 E6.0299
G1 X171.599 Y36.196 E6.05704
G1 X171.967 Y35.084 E6.10086
G1 X172.232 Y34.456 E6.12637
G1 X172.671 Y33.598 E6.16243
G1 X173.447 Y32.399 E6.21587
G1 X174.215 Y31.461 E6.26123
G1 X174.62 Y31.047 E6.2829
G1 X175.759 Y30.096 E6.33842
G1 X176.543 Y29.582 E6.3735
G1 X177.462 Y29.1 E6.41233
G1 X178.621 Y28.657 E6.45876
G1 X179.876 Y28.356 E6.50705
G1 X180.781 Y28.249 E6.54115
G1 X181.435 Y28.226 E6.56564
G1 X183.139 Y28.385 E6.62967
G1 X183.988 Y28.58 E6.66227
G1 X185.233 Y28.998 E6.71141
G1 X185.653 Y29.181 E6.72855
G1 X186.672 Y29.714 E6.77158
G1 X187.525 Y30.237 E6.80902
G1 X188.381 Y30.832 E6.84802
G1 X189.086 Y31.358 E6.88094
G1 X189.498 Y31.695 E6.90085
G1 X190.282 Y32.372 E6.93961
G1 X191.003 Y33.062 E6.97695
G1 X191.866 Y33.986 E7.02426
G1 X192.592 Y34.841 E7.06623
G1 X193.27 Y35.701 E7.10721
G1 X193.632 Y36.193 E7.13007
G1 X194.34 Y37.209 E7.1764
G1 X195.045 Y38.304 E7.22513
G1 X195.753 Y39.491 E7.27685
G1 X196.454 Y40.753 E7.33086
G1 X197.107 Y42.025 E7.38436
G1 X197.754 Y43.367 E7.44011
G1 X198.401 Y44.797 E7.49884
G1 X199.039 Y46.337 E7.56121
G1 X199.627 Y47.866 E7.62251
G1 X200.239 Y49.553 E7.68966
G1 X200.816 Y51.282 E7.75786
G1 X201.355 Y53.028 E7.82623
G1 X201.878 Y54.828 E7.89637
G1 X202.165 Y55.876 E7.93703
G1 X202.655 Y57.801 E8.01135
G1 X203.146 Y59.831 E8.0895
G1 X203.618 Y61.937 E8.17026
G1 X204.097 Y64.291 E8.26014
G1 X204.567 Y66.747 E8.35371
G1 X204.996 Y69.258 E8.44903
G1 X205.402 Y71.861 E8.5476
G1 X205.768 Y74.508 E8.64759
G1 X206.124 Y77.229 E8.75027
G1 X206.498 Y80.444 E8.87138
G1 X206.788 Y83.36 E8.98103
G1 X207.064 Y86.343 E9.09312
G1 X207.323 Y89.747 E9.22086
G1 X207.527 Y92.905 E9.33927
G1 X207.729 Y96.432 E9.47146
G1 X207.877 Y99.989 E9.60467
G1 X207.955 Y102.361 E9.69347
G1 X208.06 Y107.01 E9.86747
G1 X208.101 Y110.732 E10.00675
G1 X208.107 Y114.205 E10.1367
G1 X208.078 Y118.05 E10.28057
G1 X208.013 Y121.932 E10.42585
G1 X207.911 Y125.849 E10.57246
G1 X207.806 Y128.992 E10.69013
G1 X207.621 Y133.04 E10.84176
G1 X207.414 Y137.166 E10.99634
G1 X207.167 Y141.359 E11.1535
G1 X206.905 Y145.329 E11.30237
G1 X206.563 Y149.694 E11.4662
G1 X206.194 Y154.176 E11.63447
G1 X205.782 Y158.782 E11.80751
G1 X205.315 Y163.502 E11.98498
G1 X204.839 Y167.995 E12.15404
G1 X204.241 Y173.373 E12.35651
G1 X203.607 Y178.626 E12.55449
G1 X202.96 Y183.783 E12.74897
G1 X202.25 Y189.222 E12.95421
G1 X201.628 Y193.823 E13.12794
G1 X200.985 Y198.336 E13.29851
G1 X199.607 Y207.857 E13.65847
G1 X198.855 Y212.918 E13.84992
G1 X196.242 Y230.1 E14.50022
G1 X194.361 Y242.571 E14.97214
G1 X193.138 Y250.836 E15.28476
G1 X192.383 Y256.113 E15.48423
G1 X191.01 Y265.991 E15.85739
G1 X190.054 Y273.226 E16.13046
G1 X189.171 Y280.356 E16.39929
G1 X188.737 Y284.027 E16.5376
G1 X188.008 Y290.916 E16.79681
G1 X187.658 Y294.501 E16.93159
G1 X187.386 Y297.637 E17.04937
G1 X187.105 Y301.23 E17.18423
G1 X186.862 Y304.754 E17.3164
G1 X186.674 Y307.934 E17.4356
G1 X186.359 Y314.159 E17.66882
G1 X186.186 Y315.1 E17.70462
G1 X185.893 Y316.057 E17.74207
G1 X185.245 Y317.385 E17.79736
G1 X184.592 Y318.302 E17.83948
G1 X183.823 Y319.113 E17.8813
G1 X183.116 Y319.675 E17.91509
G1 X182.106 Y320.295 E17.95944
G1 X181.633 Y320.519 E17.97902
G1 X180.286 Y320.964 E18.0321
G1 X179.604 Y321.098 E18.05811
G1 X178.5 Y321.205 E18.09961
G1 X177.9 Y321.216 E18.12207
G1 X176.433 Y321.09 E18.17716
G1 X175.57 Y320.913 E18.21012
G1 X174.446 Y320.541 E18.25442
G1 X173.75 Y320.211 E18.28325
G1 X173.093 Y319.815 E18.31195
G1 X171.941 Y318.883 E18.3674
G1 X171.739 Y318.684 E18.37801
G1 X171.139 Y317.971 E18.41287
G1 X170.664 Y317.243 E18.4454
G1 X170.202 Y316.319 E18.48405
G1 X169.913 Y315.518 E18.51592
G1 X169.737 Y314.808 E18.54329
G1 X169.566 Y313.625 E18.58801
G1 X169.463 Y311.214 E18.67831
G1 X169.049 Y311.894 E18.7081
G1 X168.321 Y313.001 E18.75767
G1 X167.676 Y313.922 E18.79975
G1 X167.266 Y314.476 E18.82553
G1 X166.699 Y315.191 E18.85968
G1 X165.732 Y316.299 E18.91471
G1 X165.151 Y316.904 E18.94609
G1 X164.157 Y317.841 E18.99721
G1 X163.532 Y318.373 E19.02792
G1 X162.31 Y319.289 E19.08506
G1 X161.508 Y319.829 E19.12124
G1 X160.329 Y320.516 E19.1723
G1 X159.543 Y320.889 E19.20485
G1 X157.575 Y321.513 E19.2821
G1 X156.785 Y321.653 E19.31212
G1 X155.488 Y321.724 E19.36072
G1 X154.035 Y321.609 E19.41526
G1 X153.132 Y321.421 E19.44978
G1 X152.664 Y321.279 E19.46808
G1 X150.973 Y320.537 E19.53717
G1 X150.152 Y320.042 E19.57304
G1 X149.816 Y319.803 E19.58847
G1 X148.588 Y318.728 E19.64954
G1 X148.01 Y318.093 E19.68167
G1 X147.269 Y317.105 E19.72788
G1 X146.87 Y316.455 E19.75642
G1 X146.175 Y315.021 E19.81604
G1 X145.994 Y314.541 E19.83524
G1 X145.676 Y313.496 E19.87611
G1 X145.467 Y312.641 E19.90905
G1 X145.334 Y311.962 E19.93493
G1 X144.768 Y308.649 E20.0607
G1 X144.518 Y306.884 E20.1274
G1 X144.34 Y305.388 E20.18377
G1 X144.193 Y303.884 E20.24031
G1 X144.07 Y302.231 E20.30234
G1 X143.954 Y300.396 E20.37113
G1 X143.626 Y294.693 E20.58488
G1 X143.476 Y291.361 E20.70968
G1 X143.319 Y287.304 E20.8616
G1 X143.169 Y282.811 E21.02981
G1 X142.903 Y273.512 E21.3779
G1 X142.724 Y266.395 E21.64428
G1 X142.576 Y259.762 E21.89254
G1 X142.376 Y249.047 E22.29354
G1 X142.24 Y239.876 E22.63673
G1 X142.126 Y230.009 E23.00596
G1 X142.04 Y220.424 E23.36462
G1 X141.966 Y208.446 E23.81282
G1 X141.923 Y197.5 E24.22239
G1 X141.902 Y184.909 E24.69352
G1 X141.909 Y171.952 E25.17834
G1 X141.932 Y160.233 E25.61684
G1 X141.98 Y148 E26.07457
G1 X142.09 Y129.822 E26.75476
G1 X142.224 Y113.644 E27.36013
G1 X142.372 Y99.481 E27.8901
G1 X142.568 Y84.466 E28.45198
G1 X142.749 Y72.778 E28.88937
G1 X142.94 Y62.685 E29.26709
G1 X143.15 Y53.349 E29.61651
G1 X143.33 Y46.729 E29.86431
G1 X143.558 Y39.954 E30.11795
G1 X143.747 Y36.07 E30.26346
G1 X143.941 Y34.93 E30.30672
G0 F7200 X144.385 Y35.005
G1 F1800 X144.893 Y33.531 E30.36506
G1 X145.276 Y32.824 E30.39515
G1 X145.866 Y31.989 E30.4334
G1 X146.425 Y31.378 E30.46439
G1 X146.99 Y30.884 E30.49247
G1 X147.646 Y30.423 E30.52247
G1 X148.246 Y30.083 E30.54828
G1 X149.504 Y29.584 E30.59892
G1 X150.243 Y29.399 E30.62742
G1 X152.154 Y29.196 E30.69933
G1 X152.983 Y29.231 E30.73038
G1 X154.513 Y29.48 E30.78838
G1 X155.33 Y29.739 E30.82045
G1 X156.009 Y30.037 E30.8482
G1 X156.729 Y30.452 E30.87929
G1 X157.604 Y31.118 E30.92044
G1 X158.228 Y31.74 E30.9534
G1 X158.907 Y32.628 E30.99523
G1 X159.224 Y33.172 E31.01879
G1 X159.562 Y33.896 E31.04869
G1 X159.864 Y34.763 E31.08304
G1 X159.91 Y34.941 E31.08992
G1 X160.12 Y36.371 E31.144
G1 X160.209 Y38.848 E31.23674
G1 X160.371 Y42.014 E31.35536
G1 X160.586 Y45.586 E31.48926
G1 X160.807 Y48.777 E31.60895
G1 X161.083 Y52.369 E31.74375
G1 X161.395 Y55.869 E31.87523
G1 X161.71 Y59.109 E31.99703
G1 X162.076 Y62.74 E32.13358
G1 X162.442 Y65.979 E32.25555
G1 X162.876 Y69.652 E32.39394
G1 X163.764 Y76.816 E32.66405
G1 X164.716 Y84.041 E32.93673
G1 X166.073 Y93.897 E33.309
G1 X166.956 Y99.965 E33.53844
G1 X168.066 Y107.476 E33.82254
G1 X168.533 Y110.562 E33.93932
G1 X168.673 Y100.906 E34.30067
G1 X168.874 Y90.176 E34.70223
G1 X169.022 Y83.561 E34.94981
G1 X169.202 Y76.429 E35.21676
G1 X169.468 Y67.138 E35.56455
G1 X169.597 Y63.111 E35.7153
G1 X169.785 Y58.548 E35.88619
G1 X170.053 Y53.039 E36.09256
G1 X170.369 Y47.653 E36.29444
G1 X170.506 Y45.953 E36.35826
G1 X170.653 Y44.444 E36.41499
G1 X170.844 Y42.918 E36.47253
G1 X171.098 Y41.228 E36.53648
G1 X171.694 Y37.764 E36.668
G1 X171.853 Y37.011 E36.6968
G1 X172.035 Y36.309 E36.72393
G1 X172.382 Y35.258 E36.76534
G1 X172.633 Y34.661 E36.78958
G1 X173.072 Y33.803 E36.82564
G1 X173.795 Y32.684 E36.87549
G1 X174.537 Y31.776 E36.91937
G1 X174.942 Y31.362 E36.94104
G1 X176.007 Y30.472 E36.99297
G1 X176.752 Y29.981 E37.02636
G1 X177.671 Y29.499 E37.06518
G1 X178.726 Y29.095 E37.10746
G1 X179.981 Y28.794 E37.15575
G1 X180.797 Y28.699 E37.18649
G1 X181.451 Y28.676 E37.21097
G1 X183.038 Y28.824 E37.27061
G1 X183.887 Y29.019 E37.30321
G1 X185.053 Y29.411 E37.34923
G1 X185.473 Y29.594 E37.36638
G1 X186.437 Y30.098 E37.40708
G1 X187.29 Y30.621 E37.44452
G1 X188.112 Y31.193 E37.48199
G1 X188.801 Y31.707 E37.51415
G1 X189.204 Y32.036 E37.53362
G1 X189.971 Y32.697 E37.57151
G1 X190.674 Y33.369 E37.6079
G1 X191.523 Y34.277 E37.65441
G1 X192.239 Y35.12 E37.69579
G1 X192.908 Y35.968 E37.73621
G1 X193.263 Y36.45 E37.75861
G1 X193.962 Y37.453 E37.80435
G1 X194.659 Y38.535 E37.85251
G1 X195.36 Y39.709 E37.90368
G1 X196.054 Y40.959 E37.95717
G1 X196.702 Y42.221 E38.01026
G1 X197.344 Y43.552 E38.06555
G1 X197.985 Y44.969 E38.12374
G1 X198.619 Y46.499 E38.18571
G1 X199.204 Y48.019 E38.24665
G1 X199.812 Y49.695 E38.31337
G1 X200.386 Y51.415 E38.38121
G1 X200.923 Y53.154 E38.44931
G1 X201.444 Y54.947 E38.51918
G1 X201.729 Y55.987 E38.55953
G1 X202.218 Y57.907 E38.63366
G1 X202.707 Y59.929 E38.7115
G1 X203.177 Y62.027 E38.79195
G1 X203.655 Y64.376 E38.88165
G1 X204.123 Y66.823 E38.97487
G1 X204.551 Y69.327 E39.06992
G1 X204.956 Y71.923 E39.16823
G1 X205.322 Y74.566 E39.26807
G1 X205.677 Y77.281 E39.37052
G1 X206.05 Y80.489 E39.49137
G1 X206.34 Y83.401 E39.60087
G1 X206.615 Y86.377 E39.7127
G1 X206.874 Y89.776 E39.84025
G1 X207.078 Y92.931 E39.95855
G1 X207.279 Y96.451 E40.09047
G1 X207.427 Y100.004 E40.22353
G1 X207.505 Y102.371 E40.31215
G1 X207.61 Y107.015 E40.48596
G1 X207.651 Y110.733 E40.62509
G1 X207.657 Y114.202 E40.75489
G1 X207.628 Y118.042 E40.89858
G1 X207.563 Y121.92 E41.0437
G1 X207.461 Y125.834 E41.1902
G1 X207.356 Y128.972 E41.30769
G1 X207.172 Y133.017 E41.4592
G1 X206.965 Y137.14 E41.61366
G1 X206.718 Y141.329 E41.77068
G1 X206.456 Y145.294 E41.91936
G1 X206.115 Y149.657 E42.08312
G1 X205.746 Y154.136 E42.25128
G1 X205.334 Y158.738 E42.42416
G1 X204.867 Y163.455 E42.60152
G1 X204.392 Y167.945 E42.77047
G1 X203.794 Y173.319 E42.97279
G1 X203.161 Y178.57 E43.17069
G1 X202.514 Y183.725 E43.36509
G1 X201.804 Y189.162 E43.57026
G1 X201.182 Y193.76 E43.74387
G1 X200.539 Y198.273 E43.91445
G1 X199.162 Y207.791 E44.27429
G1 X198.41 Y212.85 E44.46567
G1 X195.797 Y230.032 E45.11597
G1 X193.916 Y242.503 E45.58789
G1 X192.693 Y250.77 E45.90058
G1 X191.937 Y256.051 E46.1002
G1 X190.564 Y265.929 E46.47337
G1 X189.607 Y273.171 E46.7467
G1 X188.724 Y280.301 E47.01553
G1 X188.291 Y283.974 E47.15391
G1 X187.56 Y290.872 E47.41347
G1 X187.21 Y294.457 E47.54825
G1 X186.937 Y297.602 E47.66637
G1 X186.656 Y301.195 E47.80122
G1 X186.413 Y304.723 E47.93354
G1 X186.225 Y307.907 E48.05289
G1 X185.916 Y314.078 E48.28408
G1 X185.743 Y315.019 E48.31988
G1 X185.463 Y315.924 E48.35533
G1 X184.877 Y317.125 E48.40533
G1 X184.265 Y317.992 E48.44504
G1 X183.496 Y318.803 E48.48686
G1 X182.88 Y319.292 E48.51629
G1 X181.913 Y319.888 E48.55879
G1 X181.44 Y320.112 E48.57837
G1 X180.199 Y320.522 E48.62728
G1 X179.517 Y320.656 E48.65328
G1 X178.492 Y320.755 E48.69181
G1 X177.892 Y320.766 E48.71427
G1 X176.522 Y320.649 E48.76572
G1 X175.71 Y320.485 E48.79671
G1 X174.638 Y320.134 E48.83892
G1 X173.98 Y319.824 E48.86614
G1 X173.376 Y319.465 E48.89243
G1 X172.224 Y318.533 E48.94787
G1 X172.082 Y318.393 E48.95534
G1 X171.515 Y317.724 E48.98815
G1 X171.066 Y317.041 E49.01873
G1 X170.625 Y316.165 E49.05543
G1 X170.35 Y315.41 E49.0855
G1 X170.174 Y314.7 E49.11287
G1 X170.016 Y313.606 E49.15423
G1 X169.847 Y309.658 E49.30209
G1 X169.411 Y310.434 E49.33539
G1 X168.673 Y311.647 E49.38852
G1 X167.953 Y312.743 E49.43759
G1 X167.314 Y313.654 E49.47922
G1 X166.913 Y314.196 E49.50445
G1 X166.346 Y314.911 E49.5386
G1 X165.407 Y315.987 E49.59203
G1 X164.826 Y316.592 E49.62342
G1 X163.865 Y317.498 E49.67284
G1 X163.24 Y318.03 E49.70355
G1 X162.058 Y318.916 E49.75882
G1 X161.281 Y319.44 E49.79389
G1 X160.136 Y320.109 E49.84351
G1 X159.35 Y320.482 E49.87606
G1 X157.496 Y321.07 E49.94884
G1 X156.706 Y321.21 E49.97886
G1 X155.522 Y321.275 E50.02323
G1 X154.126 Y321.168 E50.07562
G1 X153.263 Y320.99 E50.10859
G1 X152.795 Y320.848 E50.12689
G1 X151.205 Y320.151 E50.19185
G1 X150.413 Y319.675 E50.22642
G1 X150.077 Y319.436 E50.24185
G1 X148.921 Y318.425 E50.29932
G1 X148.343 Y317.79 E50.33145
G1 X147.653 Y316.87 E50.37448
G1 X147.254 Y316.22 E50.40301
G1 X146.596 Y314.862 E50.45948
G1 X146.425 Y314.41 E50.47756
G1 X146.107 Y313.365 E50.51843
G1 X145.909 Y312.555 E50.54963
G1 X145.778 Y311.886 E50.57514
G1 X145.214 Y308.586 E50.70041
G1 X144.965 Y306.831 E50.76674
G1 X144.788 Y305.344 E50.82277
G1 X144.642 Y303.851 E50.8789
G1 X144.519 Y302.203 E50.94073
G1 X144.403 Y300.37 E51.00946
G1 X144.076 Y294.673 E51.22298
G1 X143.926 Y291.344 E51.34767
G1 X143.769 Y287.289 E51.49951
G1 X143.619 Y282.798 E51.66765
G1 X143.353 Y273.501 E52.01566
G1 X143.174 Y266.385 E52.28201
G1 X143.026 Y259.754 E52.53019
G1 X142.826 Y249.04 E52.93115
G1 X142.69 Y239.871 E53.27427
G1 X142.576 Y230.005 E53.64346
G1 X142.49 Y220.421 E54.00208
G1 X142.416 Y208.444 E54.45024
G1 X142.373 Y197.499 E54.85978
G1 X142.352 Y184.908 E55.33091
G1 X142.359 Y171.953 E55.81565
G1 X142.382 Y160.234 E56.25415
G1 X142.43 Y148.003 E56.71181
G1 X142.54 Y129.826 E57.39196
G1 X142.674 Y113.648 E57.99733
G1 X142.822 Y99.487 E58.52723
G1 X143.018 Y84.473 E59.08906
G1 X143.199 Y72.787 E59.52638
G1 X143.39 Y62.695 E59.90407
G1 X143.6 Y53.361 E60.25341
G1 X143.78 Y46.744 E60.50109
G1 X144.007 Y39.976 E60.75448
G1 X144.191 Y36.145 E60.89799
G1 X144.385 Y35.005 E60.94126
G0 F7200 X144.829 Y35.08
G1 F1800 X145.29 Y33.744 E60.99414
G1 X145.644 Y33.084 E61.02217
G1 X146.234 Y32.249 E61.06042
G1 X146.721 Y31.717 E61.08741
G1 X147.286 Y31.223 E61.11549
G1 X147.868 Y30.815 E61.14209
G1 X148.468 Y30.475 E61.16789
G1 X149.616 Y30.02 E61.2141
G1 X150.292 Y29.846 E61.24022
