;FLAVOR:Marlin
;TIME:5665
;Filament used: 6.26716m
;Layer height: 0.2
;MINX:141.899
;MINY:28.241
;MINZ:0.2
;MAXX:208.12
;MAXY:321.7
;MAXZ:11.8
;TARGET_MACHINE.NAME:VORON2 350
;POSTPROCESSED
;  [CreateThumbnail]
;  [CreateThumbnail]
;  [InsertAtLayerChange]
;Generated with Cura_SteamEngine 5.8.0
;
;

;
;



; Pre-Processed for Cancel-Object support by preprocess_cancellation v0.2.0
; 2 known objects
EXCLUDE_OBJECT_DEFINE NAME=FUS_ROOT_R_STL CENTER=159.586,151.939 POLYGON=[[149.985,36.317],[149.985,313.449],[174.183,313.449],[174.183,36.317]]
EXCLUDE_OBJECT_DEFINE NAME=FUS_ROOT_L_STL CENTER=185.477,198.413 POLYGON=[[175.837,36.508],[175.837,313.635],[200.048,313.635],[200.048,36.508]]
M82 ;absolute extrusion mode
;Nozzle diameter = 0.4
;Filament type = ABS
;Filament name = ABS+ Black
;Filament weight = [16.58171689453125]
; M190 S100
; M109 S240
PRINT_START BED_TEMP=100 EXTRUDER_TEMP=240
M141 S40
G92 E0
G92 E0
G1 F1800 E-0.75
;LAYER_COUNT:58
TIMELAPSE_TAKE_FRAME
;LAYER:0
M107
G1 F600 Z0.4
G0 F7200 X145.677 Y36.453 Z0.4
;TYPE:SKIRT
G1 F600 Z0.2
G1 F720 E0
G1 F1800 X146.117 Y35.1 E0.05324
G1 X146.393 Y34.447 E0.07976
G1 X146.863 Y33.537 E0.11809
G1 X147.605 Y32.396 E0.16901
G1 X148.14 Y31.73 E0.20098
G1 X149.024 Y30.837 E0.24799
G1 X149.99 Y30.058 E0.29443
G1 X150.922 Y29.468 E0.3357
G1 X151.879 Y29 E0.37556
G1 X152.849 Y28.647 E0.41419
G1 X153.948 Y28.388 E0.45644
G1 X155.077 Y28.256 E0.49897
G1 X155.487 Y28.241 E0.51432
G1 X157.237 Y28.403 E0.58008
G1 X158.473 Y28.701 E0.62765
G1 X159.445 Y29.049 E0.66628
G1 X159.993 Y29.295 E0.68876
G1 X160.658 Y29.643 E0.71684
G1 X161.715 Y30.288 E0.76318
G1 X162.523 Y30.85 E0.8
G1 X163.184 Y31.337 E0.83073
G1 X163.615 Y31.681 E0.85136
G1 X164.254 Y32.231 E0.88291
G1 X165.214 Y33.152 E0.93269
G1 X166.036 Y34.035 E0.97783
G1 X166.737 Y34.856 E1.01822
G1 X167.426 Y35.735 E1.06001
G1 X167.78 Y36.222 E1.08254
G1 X168.473 Y37.214 E1.12782
G1 X169.212 Y38.352 E1.17859
G1 X169.474 Y38.791 E1.19772
G1 X169.591 Y36.209 E1.29443
G1 X169.878 Y34.616 E1.355
G1 X170.302 Y33.424 E1.40233
G1 X170.802 Y32.487 E1.44207
G1 X171.321 Y31.752 E1.47574
G1 X171.915 Y31.09 E1.50902
G1 X172.603 Y30.491 E1.54316
G1 X173.595 Y29.825 E1.58786
G1 X174.165 Y29.53 E1.61188
G1 X175.147 Y29.153 E1.65124
G1 X175.766 Y28.981 E1.67528
G1 X177.364 Y28.74 E1.73575
G1 X178.131 Y28.723 E1.76445
G1 X179.748 Y28.88 E1.82524
G1 X180.639 Y29.085 E1.85945
G1 X182.025 Y29.609 E1.91489
G1 X182.626 Y29.938 E1.94053
G1 X183.479 Y30.542 E1.97964
G1 X184.231 Y31.231 E2.0178
G1 X184.984 Y32.157 E2.06246
G1 X185.643 Y33.287 E2.11141
G1 X186.034 Y34.252 E2.15037
G1 X186.162 Y34.688 E2.16737
G1 X186.432 Y36.356 E2.2306
G1 X186.519 Y38.809 E2.32244
G1 X186.681 Y41.963 E2.44061
G1 X186.896 Y45.53 E2.57432
G1 X187.118 Y48.72 E2.69397
G1 X187.394 Y52.312 E2.82877
G1 X187.705 Y55.8 E2.9598
G1 X188.385 Y62.665 E3.21793
G1 X188.751 Y65.903 E3.33986
G1 X189.635 Y73.35 E3.62047
G1 X190.056 Y76.669 E3.74565
G1 X191.023 Y83.955 E4.02067
G1 X192.379 Y93.806 E4.39274
G1 X193.15 Y99.106 E4.59315
G1 X194.373 Y107.384 E4.90625
G1 X196.255 Y119.855 E5.37817
G1 X198.234 Y132.841 E5.86969
G1 X199.62 Y142.1 E6.22
G1 X201.014 Y151.645 E6.58094
G1 X201.693 Y156.534 E6.76563
G1 X202.313 Y161.136 E6.93938
G1 X202.972 Y166.187 E7.12998
G1 X203.585 Y170.99 E7.31115
G1 X204.212 Y176.249 E7.50932
G1 X204.829 Y181.636 E7.71221
G1 X205.336 Y186.489 E7.89479
G1 X205.795 Y191.217 E8.07253
G1 X206.208 Y195.806 E8.24493
G1 X206.593 Y200.301 E8.41374
G1 X206.919 Y204.686 E8.57827
G1 X207.18 Y208.635 E8.72636
G1 X207.427 Y212.831 E8.88363
G1 X207.65 Y216.966 E9.03858
G1 X207.819 Y221.024 E9.19055
G1 X207.923 Y224.139 E9.30717
G1 X208.025 Y228.076 E9.45453
G1 X208.092 Y231.975 E9.60045
G1 X208.12 Y235.802 E9.74365
G1 X208.115 Y239.275 E9.8736
G1 X208.072 Y243.015 E10.01355
G1 X207.968 Y247.665 E10.18759
G1 X207.879 Y250.325 E10.28717
G1 X207.726 Y253.592 E10.40955
G1 X207.539 Y257.112 E10.54145
G1 X207.312 Y260.59 E10.67186
G1 X207.038 Y263.934 E10.79741
G1 X206.802 Y266.677 E10.90042
G1 X206.451 Y270.016 E11.02605
G1 X206.121 Y272.789 E11.13054
G1 X205.799 Y275.354 E11.22727
G1 X205.416 Y278.047 E11.32905
G1 X204.984 Y280.788 E11.43288
G1 X204.577 Y283.158 E11.52285
G1 X204.119 Y285.635 E11.61711
G1 X203.599 Y288.129 E11.71244
G1 X203.137 Y290.229 E11.79289
G1 X202.688 Y292.096 E11.86474
G1 X202.175 Y294.066 E11.94091
G1 X201.857 Y295.211 E11.98538
G1 X201.325 Y297.049 E12.05697
G1 X200.766 Y298.837 E12.12707
G1 X200.184 Y300.564 E12.19526
G1 X199.575 Y302.244 E12.26213
G1 X198.939 Y303.882 E12.32787
G1 X198.317 Y305.35 E12.38753
G1 X197.679 Y306.772 E12.44585
G1 X196.979 Y308.207 E12.50559
G1 X196.359 Y309.398 E12.55583
G1 X195.649 Y310.657 E12.60992
G1 X194.911 Y311.871 E12.66308
G1 X194.172 Y312.991 E12.71328
G1 X193.52 Y313.912 E12.75551
G1 X193.106 Y314.461 E12.78124
G1 X192.364 Y315.389 E12.82569
G1 X191.595 Y316.269 E12.86942
G1 X190.98 Y316.91 E12.90266
G1 X190.001 Y317.833 E12.95301
G1 X189.415 Y318.332 E12.98181
G1 X188.169 Y319.266 E13.04007
G1 X187.367 Y319.808 E13.07629
G1 X186.173 Y320.493 E13.1278
G1 X184.768 Y321.114 E13.18528
G1 X183.708 Y321.432 E13.22669
G1 X182.588 Y321.639 E13.2693
G1 X181.429 Y321.7 E13.31273
G1 X179.775 Y321.569 E13.37481
G1 X179.276 Y321.465 E13.39389
G1 X178.065 Y321.082 E13.44141
G1 X176.843 Y320.523 E13.49169
G1 X176.268 Y320.181 E13.51673
G1 X175.144 Y319.355 E13.56892
G1 X174.824 Y319.071 E13.58493
G1 X173.676 Y317.835 E13.64805
G1 X173.38 Y317.444 E13.6664
G1 X172.505 Y316.017 E13.72903
G1 X172.179 Y315.329 E13.75752
G1 X171.769 Y314.259 E13.80039
G1 X171.573 Y313.615 E13.82558
G1 X171.328 Y312.61 E13.86429
G1 X171.195 Y311.921 E13.89054
G1 X170.619 Y308.485 E14.0209
G1 X170.379 Y306.859 E14.0824
G1 X170.201 Y305.363 E14.13878
G1 X170.054 Y303.86 E14.19528
G1 X169.931 Y302.203 E14.25746
G1 X169.816 Y300.374 E14.32603
G1 X169.488 Y294.676 E14.53959
G1 X169.337 Y291.337 E14.66465
G1 X169.18 Y287.28 E14.81657
G1 X169.03 Y282.787 E14.98478
G1 X168.752 Y273.006 E15.35091
G1 X168.586 Y266.371 E15.59925
G1 X168.437 Y259.738 E15.84751
G1 X168.237 Y249.022 E16.24854
G1 X168.176 Y244.829 E16.40545
G1 X167.285 Y250.856 E16.63342
G1 X166.53 Y256.142 E16.83322
G1 X165.157 Y266.002 E17.20572
G1 X164.202 Y273.237 E17.47878
G1 X163.318 Y280.379 E17.74806
G1 X162.883 Y284.051 E17.88641
G1 X162.154 Y290.939 E18.14559
G1 X161.805 Y294.517 E18.2801
G1 X161.533 Y297.656 E18.398
G1 X161.251 Y301.249 E18.53285
G1 X161.009 Y304.771 E18.66495
G1 X160.829 Y307.91 E18.78259
G1 X160.556 Y313.729 E19.00057
G1 X160.267 Y315.356 E19.0624
G1 X159.844 Y316.558 E19.11008
G1 X159.456 Y317.299 E19.14138
G1 X158.739 Y318.32 E19.18806
G1 X157.969 Y319.132 E19.22993
G1 X157.262 Y319.694 E19.26372
G1 X156.25 Y320.315 E19.30815
G1 X155.73 Y320.558 E19.32963
G1 X154.62 Y320.933 E19.37347
G1 X153.726 Y321.112 E19.40758
G1 X152.188 Y321.229 E19.4653
G1 X151.19 Y321.185 E19.50268
G1 X149.427 Y320.854 E19.5698
G1 X148.645 Y320.584 E19.60075
G1 X148.013 Y320.292 E19.6268
G1 X147.239 Y319.834 E19.66045
G1 X146.087 Y318.902 E19.7159
G1 X145.885 Y318.703 E19.72651
G1 X145.285 Y317.99 E19.76138
G1 X144.81 Y317.262 E19.7939
G1 X144.348 Y316.338 E19.83256
G1 X144.059 Y315.537 E19.86442
G1 X143.883 Y314.827 E19.89179
G1 X143.712 Y313.642 E19.93659
G1 X143.552 Y309.937 E20.07535
G1 X143.324 Y303.199 E20.32762
G1 X143.127 Y295.89 E20.6012
G1 X142.92 Y286.535 E20.95133
G1 X142.745 Y277.169 E21.30184
G1 X142.562 Y265.498 E21.7386
G1 X142.367 Y250.482 E22.30051
G1 X142.206 Y234.814 E22.8868
G1 X142.085 Y220.142 E23.43581
G1 X141.974 Y201.716 E24.12528
G1 X141.927 Y189.748 E24.5731
G1 X141.901 Y176.561 E25.06653
G1 X141.899 Y163.678 E25.54858
G1 X141.918 Y152.482 E25.96751
G1 X141.96 Y141.519 E26.37772
G1 X142.035 Y129.54 E26.82596
G1 X142.12 Y119.954 E27.18466
G1 X142.236 Y110.07 E27.55452
G1 X142.37 Y100.917 E27.89704
G1 X142.571 Y90.185 E28.29867
G1 X142.718 Y83.568 E28.54633
G1 X142.898 Y76.435 E28.81331
G1 X143.165 Y67.143 E29.16114
G1 X143.294 Y63.112 E29.31205
G1 X143.481 Y58.55 E29.48289
G1 X143.751 Y53.032 E29.68961
G1 X143.964 Y49.287 E29.82996
G1 X144.067 Y47.633 E29.89197
G1 X144.205 Y45.944 E29.95538
G1 X144.356 Y44.398 E30.01351
G1 X144.546 Y42.882 E30.07067
G1 X144.799 Y41.169 E30.13547
G1 X145.39 Y37.728 E30.26611
G1 X145.551 Y36.959 E30.2955
G1 X145.677 Y36.453 E30.31501
G0 F7200 X146.114 Y36.562
G1 F1800 X146.545 Y35.239 E30.36708
G1 X146.793 Y34.653 E30.39089
G1 X147.241 Y33.782 E30.42754
G1 X147.957 Y32.677 E30.47681
G1 X148.46 Y32.047 E30.50697
G1 X149.344 Y31.154 E30.55399
G1 X150.232 Y30.438 E30.59667
G1 X151.121 Y29.872 E30.6361
G1 X152.033 Y29.423 E30.67414
G1 X153.003 Y29.07 E30.71276
G1 X154.001 Y28.835 E30.75113
G1 X155.093 Y28.706 E30.79227
G1 X155.503 Y28.691 E30.80762
G1 X157.132 Y28.841 E30.86883
G1 X158.321 Y29.125 E30.91458
G1 X159.293 Y29.473 E30.95321
G1 X159.784 Y29.694 E30.97335
G1 X160.449 Y30.042 E31.00144
G1 X161.48 Y30.672 E31.04665
G1 X162.256 Y31.212 E31.08202
G1 X162.903 Y31.689 E31.1121
G1 X163.334 Y32.033 E31.13273
G1 X163.942 Y32.556 E31.16274
G1 X164.902 Y33.477 E31.21252
G1 X165.694 Y34.327 E31.25599
G1 X166.383 Y35.133 E31.29567
G1 X167.062 Y36 E31.33687
G1 X167.411 Y36.48 E31.35908
G1 X168.096 Y37.459 E31.40379
G1 X168.826 Y38.583 E31.45394
G1 X169.506 Y39.72 E31.50351
G1 X169.855 Y40.346 E31.53033
G1 X170.041 Y36.229 E31.68453
G1 X170.303 Y34.765 E31.74018
G1 X170.7 Y33.635 E31.785
G1 X171.17 Y32.747 E31.82259
G1 X171.689 Y32.012 E31.85626
G1 X172.249 Y31.392 E31.88752
G1 X172.855 Y30.864 E31.9176
G1 X173.802 Y30.225 E31.96034
G1 X174.372 Y29.93 E31.98436
G1 X175.267 Y29.587 E32.02022
G1 X175.886 Y29.415 E32.04426
G1 X177.376 Y29.19 E32.10064
G1 X178.088 Y29.171 E32.1273
G1 X179.647 Y29.319 E32.18589
G1 X180.538 Y29.524 E32.2201
G1 X181.809 Y30.004 E32.27094
G1 X182.41 Y30.333 E32.29658
G1 X183.176 Y30.875 E32.33169
G1 X183.883 Y31.517 E32.36742
G1 X184.595 Y32.384 E32.4094
G1 X185.254 Y33.514 E32.45835
G1 X185.602 Y34.379 E32.49323
G1 X185.73 Y34.815 E32.51024
G1 X185.982 Y36.372 E32.56925
G1 X186.07 Y38.825 E32.6611
G1 X186.232 Y41.99 E32.77968
G1 X186.447 Y45.561 E32.91354
G1 X186.669 Y48.754 E33.0333
G1 X186.945 Y52.346 E33.1681
G1 X187.257 Y55.844 E33.29951
G1 X187.572 Y59.085 E33.42135
G1 X187.938 Y62.716 E33.5579
G1 X188.304 Y65.956 E33.67991
G1 X189.188 Y73.403 E33.96051
G1 X189.61 Y76.728 E34.08593
G1 X190.577 Y84.016 E34.36101
G1 X191.934 Y93.871 E34.73325
G1 X192.705 Y99.172 E34.93368
G1 X193.928 Y107.451 E35.24683
G1 X195.81 Y119.922 E35.71874
G1 X197.789 Y132.908 E36.21026
G1 X199.175 Y142.165 E36.5605
G1 X200.568 Y151.707 E36.92132
G1 X201.247 Y156.594 E37.10594
G1 X201.867 Y161.194 E37.27961
G1 X202.526 Y166.244 E37.47018
G1 X203.138 Y171.043 E37.6512
G1 X203.765 Y176.3 E37.8493
G1 X204.381 Y181.683 E38.05203
G1 X204.888 Y186.533 E38.23449
G1 X205.347 Y191.257 E38.41209
G1 X205.76 Y195.844 E38.58442
G1 X206.144 Y200.334 E38.75304
G1 X206.47 Y204.716 E38.91745
G1 X206.731 Y208.661 E39.06539
G1 X206.978 Y212.855 E39.22259
G1 X207.2 Y216.985 E39.37735
G1 X207.369 Y221.039 E39.52917
G1 X207.473 Y224.151 E39.64568
G1 X207.575 Y228.084 E39.79289
G1 X207.642 Y231.978 E39.93862
G1 X207.67 Y235.801 E40.08167
G1 X207.665 Y239.27 E40.21147
G1 X207.622 Y243.005 E40.35124
G1 X207.518 Y247.65 E40.52508
G1 X207.429 Y250.304 E40.62445
G1 X207.277 Y253.568 E40.74671
G1 X207.09 Y257.083 E40.87842
G1 X206.864 Y260.553 E41.00853
G1 X206.59 Y263.895 E41.134
G1 X206.354 Y266.63 E41.23672
G1 X206.004 Y269.963 E41.36212
G1 X205.675 Y272.733 E41.46649
G1 X205.354 Y275.29 E41.56292
G1 X204.971 Y277.977 E41.66448
G1 X204.54 Y280.712 E41.76808
G1 X204.134 Y283.076 E41.85783
G1 X203.678 Y285.543 E41.9517
G1 X203.159 Y288.032 E42.04684
G1 X202.699 Y290.124 E42.12699
G1 X202.25 Y291.991 E42.19884
G1 X201.741 Y293.946 E42.27443
G1 X201.425 Y295.086 E42.31869
G1 X200.896 Y296.915 E42.38993
G1 X200.34 Y298.693 E42.45964
G1 X199.761 Y300.411 E42.52748
G1 X199.156 Y302.081 E42.59394
G1 X198.525 Y303.706 E42.65916
G1 X197.906 Y305.166 E42.7185
G1 X197.274 Y306.575 E42.77628
G1 X196.58 Y307.999 E42.83556
G1 X195.967 Y309.177 E42.88525
G1 X195.265 Y310.423 E42.93876
G1 X194.535 Y311.623 E42.99132
G1 X193.805 Y312.731 E43.04096
G1 X193.161 Y313.641 E43.08268
G1 X192.755 Y314.18 E43.10793
G1 X192.025 Y315.093 E43.15167
G1 X191.27 Y315.957 E43.1946
G1 X190.655 Y316.598 E43.22784
G1 X189.709 Y317.49 E43.27649
G1 X189.123 Y317.989 E43.30529
G1 X187.917 Y318.893 E43.36169
G1 X187.142 Y319.418 E43.39671
G1 X185.991 Y320.081 E43.44641
G1 X184.586 Y320.702 E43.50389
G1 X183.626 Y320.989 E43.54138
G1 X182.506 Y321.196 E43.584
G1 X181.464 Y321.251 E43.62304
G1 X179.867 Y321.128 E43.68298
G1 X179.368 Y321.024 E43.70205
G1 X178.251 Y320.672 E43.74587
G1 X177.073 Y320.136 E43.7943
G1 X176.498 Y319.794 E43.81933
G1 X175.443 Y319.018 E43.86834
G1 X175.123 Y318.734 E43.88434
G1 X174.035 Y317.563 E43.94415
G1 X173.739 Y317.172 E43.9625
G1 X172.912 Y315.824 E44.02168
G1 X172.586 Y315.136 E44.05017
G1 X172.2 Y314.128 E44.09055
G1 X172.004 Y313.484 E44.11574
G1 X171.77 Y312.525 E44.15268
G1 X171.639 Y311.847 E44.17852
G1 X171.064 Y308.419 E44.30858
G1 X170.826 Y306.806 E44.36958
G1 X170.649 Y305.319 E44.42562
G1 X170.503 Y303.827 E44.48171
G1 X170.38 Y302.175 E44.5437
G1 X170.265 Y300.348 E44.61219
G1 X169.938 Y294.656 E44.82553
G1 X169.787 Y291.32 E44.95048
G1 X169.63 Y287.265 E45.10232
G1 X169.48 Y282.774 E45.27046
G1 X169.202 Y272.995 E45.63651
G1 X169.036 Y266.361 E45.88482
G1 X168.887 Y259.73 E46.133
G1 X168.687 Y249.015 E46.534
G1 X168.545 Y239.324 E46.89665
G1 X168.062 Y242.52 E47.0176
G1 X166.84 Y250.79 E47.3304
G1 X166.084 Y256.08 E47.53035
G1 X164.711 Y265.94 E47.90285
G1 X163.755 Y273.182 E48.17618
G1 X162.871 Y280.324 E48.44545
G1 X162.437 Y283.998 E48.58388
G1 X162.088 Y287.23 E48.70552
G1 X161.706 Y290.892 E48.84329
G1 X161.357 Y294.473 E48.97791
G1 X161.084 Y297.621 E49.09615
G1 X160.802 Y301.214 E49.231
G1 X160.56 Y304.74 E49.36325
G1 X160.379 Y307.889 E49.48127
G1 X160.106 Y313.708 E49.69924
G1 X159.824 Y315.276 E49.75885
G1 X159.445 Y316.349 E49.80143
G1 X159.057 Y317.09 E49.83273
G1 X158.412 Y318.01 E49.87477
G1 X157.642 Y318.822 E49.91664
G1 X157.026 Y319.311 E49.94607
G1 X156.059 Y319.907 E49.98858
G1 X155.539 Y320.15 E50.01005
G1 X154.53 Y320.492 E50.04992
G1 X153.691 Y320.663 E50.08196
G1 X152.208 Y320.779 E50.13762
G1 X151.21 Y320.735 E50.175
G1 X149.573 Y320.428 E50.23732
G1 X148.834 Y320.175 E50.26654
G1 X148.202 Y319.883 E50.29259
G1 X147.522 Y319.484 E50.32209
G1 X146.37 Y318.552 E50.37754
G1 X146.228 Y318.412 E50.385
G1 X145.661 Y317.743 E50.41781
G1 X145.212 Y317.06 E50.4484
G1 X144.771 Y316.184 E50.4851
G1 X144.496 Y315.429 E50.51516
G1 X144.32 Y314.719 E50.54253
G1 X144.162 Y313.623 E50.58397
G1 X144.002 Y309.922 E50.72258
G1 X143.774 Y303.187 E50.97473
G1 X143.577 Y295.88 E51.24824
G1 X143.37 Y286.527 E51.59829
G1 X143.195 Y277.162 E51.94877
G1 X143.012 Y265.492 E52.38549
G1 X142.817 Y250.477 E52.94736
G1 X142.656 Y234.809 E53.53365
G1 X142.535 Y220.139 E54.08259
G1 X142.424 Y201.713 E54.77206
G1 X142.377 Y189.747 E55.2198
G1 X142.351 Y176.56 E55.71323
G1 X142.349 Y163.679 E56.19521
G1 X142.368 Y152.483 E56.61413
G1 X142.41 Y141.522 E57.02427
G1 X142.485 Y129.544 E57.47247
G1 X142.57 Y119.959 E57.83113
G1 X142.686 Y110.077 E58.20092
G1 X142.82 Y100.925 E58.5434
G1 X143.021 Y90.195 E58.94496
G1 X143.168 Y83.579 E59.19258
G1 X143.348 Y76.448 E59.45949
G1 X143.615 Y67.157 E59.80728
G1 X143.744 Y63.13 E59.95804
G1 X143.93 Y58.572 E60.12873
G1 X144.2 Y53.058 E60.3353
G1 X144.413 Y49.315 E60.47558
G1 X144.516 Y47.67 E60.53725
G1 X144.653 Y45.988 E60.6004
G1 X144.802 Y44.454 E60.65807
G1 X144.991 Y42.948 E60.71486
G1 X145.243 Y41.245 E60.77928
G1 X145.834 Y37.804 E60.90991
G1 X145.988 Y37.068 E60.93805
G1 X146.114 Y36.562 E60.95756
G0 F7200 X146.551 Y36.671
G1 F1800 X146.96 Y35.414 E61.00702
G1 X147.194 Y34.858 E61.02959
G1 X147.619 Y34.027 E61.06452
G1 X148.335 Y32.922 E61.11379
G1 X148.811 Y32.329 E61.14224
G1 X149.627 Y31.504 E61.18566
G1 X150.475 Y30.817 E61.22649
G1 X151.321 Y30.275 E61.26409
