;FLAVOR:Marlin
;TIME:2935
;Filament used: 3.62053m
;Layer height: 0.2
;MINX:124.422
;MINY:73.743
;MINZ:0.2
;MAXX:225.578
;MAXY:276.253
;MAXZ:2.1
;TARGET_MACHINE.NAME:VORON2 350
;POSTPROCESSED
;  [CreateThumbnail]
;  [CreateThumbnail]
;  [InsertAtLayerChange]
;Generated with Cura_SteamEngine 5.10.2
;
;

;
;

;Nozzle diameter = 0.4
;Filament type = ABS
;Filament name = ABS+ Black #2
;Filament weight = [9.57923291015625]; M190 S85
; M109 S250


; Pre-Processed for Cancel-Object support by preprocess_cancellation v0.2.0
; 1 known objects
EXCLUDE_OBJECT_DEFINE NAME=BATTERY_PAD_STL CENTER=175.005,165.663 POLYGON=[[132.496,81.816],[132.496,268.18],[217.5,268.18],[217.5,81.816]]
PRINT_START BED_TEMP=85 EXTRUDER_TEMP=250
M82 ;absolute extrusion mode
M141 S40
G92 E0
G92 E0
G1 F1800 E-0.75
;LAYER_COUNT:8
;LAYER:0
TIMELAPSE_TAKE_FRAME
M107
G1 F600 Z0.7
G0 F7200 X126.08 Y77.339 Z0.7
;TYPE:SKIRT
G1 F600 Z0.2
G1 F720 E0
G1 F2700 X126.831 Y76.364 E0.04605
G1 X127.655 Y75.566 E0.08897
G1 X128.568 Y74.914 E0.13095
G1 X129.564 Y74.405 E0.1728
G1 X130.798 Y73.98 E0.22164
G1 X131.555 Y73.827 E0.25054
G1 X132.145 Y73.765 E0.27273
G1 X217.338 Y73.743 E3.46046
G1 X218.805 Y73.904 E3.51568
G1 X219.784 Y74.157 E3.55351
G1 X220.714 Y74.531 E3.59102
G1 X221.689 Y75.088 E3.63303
G1 X222.771 Y75.953 E3.68487
G1 X223.466 Y76.702 E3.7231
G1 X223.918 Y77.323 E3.75184
G1 X224.549 Y78.497 E3.80171
G1 X224.84 Y79.281 E3.833
G1 X225.071 Y80.223 E3.86929
G1 X225.213 Y81.461 E3.91592
G1 X225.379 Y90.15 E4.2411
G1 X225.516 Y100.138 E4.61487
G1 X225.578 Y109.292 E4.95739
G1 X225.57 Y117.826 E5.27672
G1 X225.49 Y126.27 E5.59269
G1 X225.348 Y133.865 E5.87692
G1 X225.142 Y141.048 E6.1458
G1 X225.039 Y143.986 E6.2558
G1 X224.858 Y147.973 E6.40514
G1 X224.531 Y154.587 E6.65292
G1 X224.145 Y160.916 E6.89018
G1 X223.687 Y166.972 E7.11743
G1 X223.196 Y172.776 E7.33538
G1 X222.623 Y178.456 E7.54899
G1 X221.999 Y183.897 E7.75391
G1 X221.326 Y189.148 E7.952
G1 X220.601 Y194.202 E8.14304
G1 X219.825 Y199.112 E8.32905
G1 X219 Y203.868 E8.50966
G1 X218.117 Y208.454 E8.68441
G1 X217.161 Y213.031 E8.85937
G1 X216.178 Y217.328 E9.0243
G1 X215.145 Y221.517 E9.18574
G1 X214.077 Y225.491 E9.33972
G1 X212.933 Y229.464 E9.49442
G1 X211.756 Y233.261 E9.64316
G1 X210.533 Y236.93 E9.78787
G1 X209.268 Y240.496 E9.92945
G1 X207.957 Y243.937 E10.06723
G1 X206.599 Y247.288 E10.20252
G1 X205.197 Y250.526 E10.33455
G1 X203.749 Y253.658 E10.46366
G1 X202.261 Y256.691 E10.59007
G1 X200.73 Y259.645 E10.71457
G1 X199.146 Y262.5 E10.83673
G1 X197.535 Y265.243 E10.95576
G1 X195.882 Y267.909 E11.07314
G1 X194.147 Y270.535 E11.19091
G1 X192.095 Y273.399 E11.32274
G1 X191.455 Y274.074 E11.35754
G1 X190.086 Y275.114 E11.42187
G1 X189.216 Y275.576 E11.45873
G1 X188.728 Y275.772 E11.47841
G1 X187.846 Y276.035 E11.51285
G1 X187.23 Y276.156 E11.53634
G1 X186.128 Y276.253 E11.57773
G1 X163.56 Y276.228 E12.42217
G1 X161.962 Y275.978 E12.48269
G1 X161.69 Y275.907 E12.49321
G1 X161.007 Y275.662 E12.52036
G1 X160.117 Y275.231 E12.55736
G1 X159.052 Y274.514 E12.6054
G1 X158.267 Y273.806 E12.64496
G1 X157.73 Y273.191 E12.67551
G1 X155.719 Y270.342 E12.80599
G1 X154.034 Y267.783 E12.92064
G1 X152.391 Y265.129 E13.03743
G1 X150.749 Y262.309 E13.15953
G1 X149.182 Y259.465 E13.28103
G1 X147.653 Y256.523 E13.4051
G1 X146.164 Y253.481 E13.53183
G1 X144.729 Y250.349 E13.66073
G1 X143.331 Y247.114 E13.7926
G1 X141.974 Y243.769 E13.92767
G1 X140.674 Y240.334 E14.06509
G1 X139.414 Y236.783 E14.20608
G1 X138.192 Y233.094 E14.35149
G1 X137.032 Y229.323 E14.49912
G1 X135.897 Y225.404 E14.65178
G1 X134.82 Y221.365 E14.80819
G1 X133.787 Y217.18 E14.96949
G1 X132.821 Y212.904 E15.13352
G1 X131.856 Y208.321 E15.30876
G1 X130.982 Y203.729 E15.48367
G1 X130.158 Y198.996 E15.66343
G1 X129.381 Y194.097 E15.84903
G1 X128.657 Y189.026 E16.0407
G1 X127.983 Y183.791 E16.2382
G1 X127.36 Y178.337 E16.4436
G1 X126.804 Y172.671 E16.65663
G1 X126.296 Y166.88 E16.87414
G1 X125.854 Y160.815 E17.10168
G1 X125.469 Y154.502 E17.33834
G1 X125.125 Y147.892 E17.58601
G1 X124.858 Y140.995 E17.84427
G1 X124.652 Y133.779 E18.11438
G1 X124.51 Y126.198 E18.3981
G1 X124.43 Y117.756 E18.71399
G1 X124.422 Y109.239 E19.03268
G1 X124.484 Y100.086 E19.37517
G1 X124.621 Y90.097 E19.74897
G1 X124.815 Y81.15 E20.08382
G1 X125.092 Y79.524 E20.14554
G1 X125.391 Y78.636 E20.1806
G1 X125.671 Y78.04 E20.20524
G1 X126.08 Y77.339 E20.23561
G0 F7200 X126.437 Y77.614
G1 F2700 X127.188 Y76.639 E20.28166
G1 X127.967 Y75.89 E20.32209
G1 X128.775 Y75.314 E20.35922
G1 X129.712 Y74.83 E20.39869
G1 X130.888 Y74.421 E20.44527
G1 X131.602 Y74.275 E20.47254
G1 X132.192 Y74.213 E20.49474
G1 X217.338 Y74.193 E23.6807
G1 X218.694 Y74.34 E23.73174
G1 X219.616 Y74.575 E23.76734
G1 X220.546 Y74.949 E23.80485
G1 X221.464 Y75.478 E23.84449
G1 X222.442 Y76.26 E23.89135
G1 X223.102 Y76.967 E23.92754
G1 X223.554 Y77.588 E23.95628
G1 X224.128 Y78.655 E24.00161
G1 X224.403 Y79.39 E24.03098
G1 X224.624 Y80.275 E24.06511
G1 X224.763 Y81.47 E24.11012
G1 X224.929 Y90.156 E24.43519
G1 X225.066 Y100.141 E24.80884
G1 X225.128 Y109.292 E25.15126
G1 X225.12 Y117.822 E25.47043
G1 X225.04 Y126.262 E25.78625
G1 X224.898 Y133.852 E26.0703
G1 X224.692 Y141.032 E26.33907
G1 X224.589 Y143.966 E26.44892
G1 X224.409 Y147.951 E26.59818
G1 X224.082 Y154.56 E26.84578
G1 X223.696 Y160.882 E27.08277
G1 X223.239 Y166.934 E27.30987
G1 X222.748 Y172.731 E27.52756
G1 X222.176 Y178.405 E27.74094
G1 X221.553 Y183.84 E27.94564
G1 X220.881 Y189.084 E28.14346
G1 X220.157 Y194.132 E28.33428
G1 X219.382 Y199.035 E28.52001
G1 X218.558 Y203.783 E28.70033
G1 X217.676 Y208.362 E28.87481
G1 X216.722 Y212.931 E29.04946
G1 X215.741 Y217.22 E29.21409
G1 X214.71 Y221.4 E29.37518
G1 X213.642 Y225.374 E29.52916
G1 X212.503 Y229.331 E29.68323
G1 X211.329 Y233.119 E29.83162
G1 X210.109 Y236.78 E29.97601
G1 X208.848 Y240.336 E30.11719
G1 X207.54 Y243.768 E30.25461
G1 X206.186 Y247.109 E30.3895
G1 X204.788 Y250.337 E30.52113
G1 X203.345 Y253.46 E30.64985
G1 X201.862 Y256.484 E30.77588
G1 X200.336 Y259.427 E30.89992
G1 X198.758 Y262.272 E31.02165
G1 X197.153 Y265.006 E31.14028
G1 X195.507 Y267.661 E31.25717
G1 X193.781 Y270.273 E31.37431
G1 X191.768 Y273.089 E31.50383
G1 X191.128 Y273.764 E31.53864
G1 X189.815 Y274.755 E31.60019
G1 X189.048 Y275.158 E31.63261
G1 X188.56 Y275.354 E31.65229
G1 X187.759 Y275.593 E31.68357
G1 X187.143 Y275.714 E31.70705
G1 X186.128 Y275.803 E31.74518
G1 X163.63 Y275.783 E32.587
G1 X162.032 Y275.533 E32.64752
G1 X161.84 Y275.483 E32.65495
G1 X161.203 Y275.257 E32.68024
G1 X160.313 Y274.826 E32.71724
G1 X159.353 Y274.18 E32.76054
G1 X158.568 Y273.472 E32.80009
G1 X158.098 Y272.932 E32.82688
G1 X156.095 Y270.094 E32.95685
G1 X154.417 Y267.546 E33.07101
G1 X152.78 Y264.902 E33.18737
G1 X151.143 Y262.092 E33.30905
G1 X149.581 Y259.258 E33.43014
G1 X148.057 Y256.325 E33.55381
G1 X146.573 Y253.294 E33.68009
G1 X145.142 Y250.171 E33.80863
G1 X143.748 Y246.945 E33.94012
G1 X142.395 Y243.61 E34.07479
G1 X141.098 Y240.183 E34.2119
G1 X139.841 Y236.641 E34.35253
G1 X138.622 Y232.962 E34.49755
G1 X137.464 Y229.198 E34.6449
G1 X136.332 Y225.288 E34.79721
G1 X135.257 Y221.257 E34.95332
G1 X134.226 Y217.081 E35.11426
G1 X133.261 Y212.811 E35.27807
G1 X132.298 Y208.237 E35.45297
G1 X131.425 Y203.652 E35.62761
G1 X130.602 Y198.925 E35.80714
G1 X129.826 Y194.033 E35.99248
G1 X129.103 Y188.969 E36.18388
G1 X128.43 Y183.74 E36.38115
G1 X127.808 Y178.293 E36.58629
G1 X127.252 Y172.632 E36.79913
G1 X126.745 Y166.847 E37.01642
G1 X126.303 Y160.788 E37.24374
G1 X125.918 Y154.479 E37.48025
G1 X125.575 Y147.875 E37.72769
G1 X125.308 Y140.982 E37.9858
G1 X125.102 Y133.771 E38.25573
G1 X124.96 Y126.194 E38.53929
G1 X124.88 Y117.756 E38.85504
G1 X124.872 Y109.242 E39.17361
G1 X124.934 Y100.092 E39.51599
G1 X125.071 Y90.107 E39.88964
G1 X125.259 Y81.226 E40.22202
G1 X125.536 Y79.6 E40.28374
G1 X125.799 Y78.826 E40.31433
G1 X126.061 Y78.265 E40.33749
G1 X126.437 Y77.614 E40.36562
G0 F7200 X126.794 Y77.889
G1 F2700 X127.545 Y76.914 E40.41167
G1 X128.23 Y76.255 E40.44724
G1 X128.982 Y75.714 E40.4819
G1 X129.919 Y75.23 E40.52136
G1 X130.98 Y74.862 E40.56338
G1 X131.649 Y74.723 E40.58895
G1 X132.239 Y74.661 E40.61115
G1 X217.338 Y74.643 E43.79535
G1 X218.584 Y74.776 E43.84224
G1 X219.448 Y74.993 E43.87557
G1 X220.378 Y75.367 E43.91308
G1 X221.238 Y75.867 E43.9503
G1 X222.114 Y76.568 E43.99229
G1 X222.738 Y77.232 E44.02638
G1 X223.19 Y77.853 E44.05512
G1 X223.707 Y78.814 E44.09595
G1 X223.967 Y79.501 E44.12344
G1 X224.177 Y80.328 E44.15536
G1 X224.313 Y81.479 E44.19873
G1 X224.479 Y90.162 E44.52369
G1 X224.616 Y100.144 E44.89723
G1 X224.678 Y109.292 E45.23953
G1 X224.67 Y117.818 E45.55855
G1 X224.59 Y126.254 E45.87422
G1 X224.448 Y133.839 E46.15809
G1 X224.242 Y141.016 E46.42674
G1 X224.139 Y143.946 E46.53644
G1 X223.96 Y147.929 E46.68563
G1 X223.633 Y154.533 E46.93304
G1 X223.247 Y160.848 E47.16977
G1 X222.791 Y166.896 E47.39672
G1 X222.3 Y172.686 E47.61414
G1 X221.729 Y178.354 E47.8273
G1 X221.107 Y183.783 E48.03177
G1 X220.436 Y189.02 E48.22933
G1 X219.713 Y194.062 E48.41991
G1 X218.939 Y198.958 E48.60539
G1 X218.116 Y203.698 E48.7854
G1 X217.235 Y208.27 E48.95962
G1 X216.283 Y212.831 E49.13396
G1 X215.304 Y217.112 E49.29828
G1 X214.275 Y221.283 E49.45903
G1 X213.21 Y225.249 E49.61268
G1 X212.073 Y229.198 E49.76645
G1 X210.902 Y232.977 E49.91448
G1 X209.685 Y236.63 E50.05856
G1 X208.428 Y240.176 E50.19933
G1 X207.123 Y243.599 E50.3364
G1 X205.773 Y246.93 E50.47089
G1 X204.38 Y250.148 E50.6021
G1 X202.941 Y253.262 E50.73045
G1 X201.462 Y256.277 E50.85611
G1 X199.942 Y259.209 E50.97968
G1 X198.37 Y262.044 E51.10098
G1 X196.771 Y264.769 E51.2192
G1 X195.132 Y267.413 E51.3356
G1 X193.415 Y270.012 E51.45215
G1 X191.441 Y272.779 E51.57934
G1 X190.801 Y273.454 E51.61414
G1 X189.605 Y274.357 E51.67021
G1 X188.88 Y274.74 E51.70089
G1 X188.392 Y274.936 E51.72057
G1 X187.672 Y275.151 E51.74869
G1 X187.056 Y275.272 E51.77218
G1 X186.128 Y275.353 E51.80703
G1 X163.699 Y275.338 E52.64627
G1 X162.141 Y275.096 E52.70527
G1 X161.989 Y275.058 E52.71113
G1 X161.397 Y274.851 E52.7346
G1 X160.563 Y274.452 E52.76919
G1 X159.653 Y273.845 E52.81012
G1 X158.907 Y273.176 E52.84762
G1 X158.466 Y272.672 E52.87268
G1 X156.471 Y269.846 E53.00211
G1 X154.8 Y267.309 E53.11578
G1 X153.169 Y264.675 E53.2317
G1 X151.537 Y261.875 E53.35297
G1 X149.98 Y259.05 E53.47367
G1 X148.461 Y256.127 E53.59693
G1 X146.982 Y253.107 E53.72275
G1 X145.555 Y249.993 E53.85092
G1 X144.165 Y246.776 E53.98205
G1 X142.816 Y243.451 E54.11631
G1 X141.522 Y240.033 E54.25307
G1 X140.268 Y236.499 E54.39338
G1 X139.052 Y232.83 E54.53801
G1 X137.896 Y229.073 E54.68509
G1 X136.767 Y225.172 E54.83704
G1 X135.694 Y221.149 E54.99284
G1 X134.665 Y216.982 E55.15344
G1 X133.701 Y212.718 E55.31702
G1 X132.74 Y208.153 E55.49157
G1 X131.868 Y203.575 E55.66595
G1 X131.046 Y198.855 E55.84522
G1 X130.271 Y193.969 E56.03033
G1 X129.549 Y188.912 E56.22147
G1 X128.877 Y183.689 E56.41851
G1 X128.256 Y178.249 E56.62338
G1 X127.7 Y172.593 E56.83604
G1 X127.194 Y166.814 E57.0531
G1 X126.752 Y160.761 E57.2802
G1 X126.367 Y154.456 E57.51655
G1 X126.025 Y147.858 E57.76377
G1 X125.758 Y140.969 E58.02173
G1 X125.552 Y133.763 E58.29147
G1 X125.41 Y126.19 E58.57489
G1 X125.33 Y117.756 E58.89048
G1 X125.322 Y109.245 E59.20894
G1 X125.384 Y100.098 E59.55121
G1 X125.521 Y90.116 E59.92475
G1 X125.703 Y81.3 E60.25469
G1 X125.962 Y79.745 E60.31368
G1 X126.225 Y78.971 E60.34426
G1 X126.452 Y78.488 E60.36423
G1 X126.794 Y77.889 E60.39004
G0 F7200 X127.185 Y78.112
G1 F2700 X127.859 Y77.237 E60.43137
G1 X128.495 Y76.619 E60.46455
G1 X129.19 Y76.113 E60.49672
G1 X130.068 Y75.655 E60.53377
G1 X131.072 Y75.303 E60.57358
G1 X131.741 Y75.164 E60.59915
G1 X132.239 Y75.111 E60.61789
G1 X217.338 Y75.093 E63.80209
G1 X218.535 Y75.223 E63.84715
G1 X219.28 Y75.411 E63.8759
G1 X220.21 Y75.785 E63.9134
G1 X221.01 Y76.255 E63.94812
G1 X221.787 Y76.878 E63.98539
G1 X222.374 Y77.497 E64.01731
G1 X222.826 Y78.118 E64.04605
G1 X223.287 Y78.975 E64.08246
G1 X223.531 Y79.614 E64.10805
G1 X223.73 Y80.382 E64.13774
G1 X223.863 Y81.488 E64.17942
G1 X224.029 Y90.168 E64.50426
G1 X224.166 Y100.147 E64.87769
G1 X224.228 Y109.292 E65.21988
G1 X224.22 Y117.814 E65.53876
G1 X224.14 Y126.246 E65.85428
G1 X223.998 Y133.826 E66.13795
G1 X223.792 Y141 E66.4065
G1 X223.689 Y143.926 E66.51605
G1 X223.511 Y147.907 E66.66516
G1 X223.184 Y154.506 E66.91238
G1 X222.798 Y160.814 E67.14885
G1 X222.343 Y166.858 E67.37564
G1 X221.852 Y172.641 E67.59281
G1 X221.282 Y178.303 E67.80574
G1 X220.661 Y183.726 E68.00998
G1 X219.991 Y188.956 E68.20727
G1 X219.269 Y193.992 E68.39763
G1 X218.496 Y198.881 E68.58284
G1 X217.674 Y203.613 E68.76255
G1 X216.795 Y208.178 E68.9365
G1 X215.844 Y212.731 E69.11054
G1 X214.867 Y217.004 E69.27455
G1 X213.84 Y221.166 E69.43496
G1 X212.778 Y225.124 E69.5883
G1 X211.643 Y229.065 E69.74175
G1 X210.475 Y232.835 E69.88943
G1 X209.261 Y236.48 E70.03318
G1 X208.007 Y240.016 E70.17357
G1 X206.706 Y243.43 E70.31027
G1 X205.36 Y246.751 E70.44435
G1 X203.972 Y249.959 E70.57514
G1 X202.537 Y253.064 E70.70313
G1 X201.063 Y256.07 E70.82841
G1 X199.548 Y258.991 E70.95153
G1 X197.982 Y261.816 E71.07239
G1 X196.389 Y264.532 E71.19021
G1 X194.757 Y267.165 E71.30612
G1 X193.048 Y269.751 E71.4221
G1 X191.114 Y272.469 E71.54692
G1 X190.474 Y273.144 E71.58172
G1 X189.394 Y273.96 E71.63237
G1 X188.712 Y274.322 E71.66126
G1 X188.224 Y274.518 E71.68094
G1 X187.585 Y274.709 E71.7059
G1 X186.969 Y274.83 E71.72939
G1 X186.128 Y274.903 E71.76097
G1 X163.768 Y274.893 E72.59763
G1 X162.21 Y274.651 E72.65663
G1 X162.136 Y274.633 E72.65948
G1 X161.589 Y274.444 E72.68113
G1 X160.811 Y274.076 E72.71333
G1 X159.952 Y273.509 E72.75185
G1 X159.245 Y272.879 E72.78728
G1 X158.834 Y272.412 E72.81056
G1 X156.847 Y269.599 E72.93942
G1 X155.183 Y267.072 E73.05264
G1 X153.558 Y264.448 E73.16812
G1 X151.931 Y261.658 E73.28897
G1 X150.379 Y258.842 E73.40928
G1 X148.865 Y255.929 E73.53213
G1 X147.391 Y252.919 E73.65753
G1 X145.968 Y249.815 E73.7853
G1 X144.582 Y246.607 E73.91606
G1 X143.237 Y243.292 E74.04992
G1 X141.946 Y239.882 E74.18635
G1 X140.695 Y236.357 E74.32631
G1 X139.482 Y232.698 E74.47055
G1 X138.328 Y228.948 E74.61736
G1 X137.202 Y225.056 E74.76896
G1 X136.131 Y221.041 E74.92444
G1 X135.104 Y216.883 E75.0847
G1 X134.141 Y212.625 E75.24805
G1 X133.182 Y208.069 E75.42226
G1 X132.311 Y203.498 E75.59637
G1 X131.49 Y198.785 E75.77538
G1 X130.716 Y193.905 E75.96026
G1 X129.995 Y188.855 E76.15114
G1 X129.324 Y183.638 E76.34795
G1 X128.704 Y178.205 E76.55256
G1 X128.148 Y172.554 E76.76503
G1 X127.643 Y166.781 E76.98187
G1 X127.201 Y160.734 E77.20873
G1 X126.816 Y154.433 E77.44494
G1 X126.475 Y147.841 E77.69193
G1 X126.208 Y140.956 E77.94974
G1 X126.002 Y133.755 E78.2193
G1 X125.86 Y126.186 E78.50256
G1 X125.78 Y117.756 E78.81801
G1 X125.772 Y109.248 E79.13636
G1 X125.834 Y100.104 E79.47851
G1 X125.971 Y90.125 E79.85194
G1 X126.147 Y81.372 E80.17952
G1 X126.389 Y79.888 E80.23578
G1 X126.633 Y79.161 E80.26448
G1 X126.843 Y78.711 E80.28306
G1 X127.185 Y78.112 E80.30887
G0 F7200 X127.576 Y78.335
G1 F2700 X128.173 Y77.56 E80.34547
G1 X128.809 Y76.942 E80.37865
G1 X129.4 Y76.511 E80.40602
G1 X130.218 Y76.079 E80.44064
G1 X131.164 Y75.744 E80.47819
G1 X131.833 Y75.605 E80.50375
G1 X132.239 Y75.561 E80.51903
G1 X217.338 Y75.543 E83.70324
G1 X218.485 Y75.67 E83.74642
G1 X219.114 Y75.829 E83.7707
G1 X219.984 Y76.174 E83.80572
G1 X220.73 Y76.607 E83.83799
G1 X221.46 Y77.188 E83.8729
G1 X222.047 Y77.807 E83.90482
G1 X222.461 Y78.381 E83.9313
G1 X222.867 Y79.137 E83.96341
G1 X223.095 Y79.727 E83.98708
G1 X223.294 Y80.495 E84.01676
G1 X223.413 Y81.497 E84.05452
G1 X223.579 Y90.174 E84.37925
G1 X223.716 Y100.15 E84.75257
G1 X223.778 Y109.292 E85.09465
G1 X223.77 Y117.81 E85.41337
G1 X223.69 Y126.238 E85.72874
G1 X223.548 Y133.813 E86.01223
G1 X223.342 Y140.984 E86.28066
G1 X223.239 Y143.906 E86.39006
G1 X223.062 Y147.885 E86.5391
G1 X222.735 Y154.478 E86.78609
G1 X222.349 Y160.78 E87.02234
G1 X221.895 Y166.82 E87.24898
G1 X221.404 Y172.596 E87.46589
G1 X220.835 Y178.252 E87.67859
