;FLAVOR:Marlin
;TIME:971
;Filament used: 1.11415m
;Layer height: 0.2
;MINX:111.129
;MINY:119.976
;MINZ:0.2
;MAXX:238.871
;MAXY:229.941
;MAXZ:1.7
;TARGET_MACHINE.NAME:VORON2 350
;POSTPROCESSED
;  [CreateThumbnail]
;  [CreateThumbnail]
;  [InsertAtLayerChange]
;Generated with Cura_SteamEngine 5.10.2
;
;

;
;

;Nozzle diameter = 0.4
;Filament type = ABS
;Filament name = ABS+ Black #2
;Filament weight = [2.947828393554688]; M190 S85
; M109 S250


; Pre-Processed for Cancel-Object support by preprocess_cancellation v0.2.0
; 1 known objects
EXCLUDE_OBJECT_DEFINE NAME=FRONT_REINFORCEMENT_STL CENTER=175.198,174.904 POLYGON=[[118.928,127.834],[118.928,222.158],[231.065,222.158],[231.065,127.834]]
PRINT_START BED_TEMP=85 EXTRUDER_TEMP=250
M82 ;absolute extrusion mode
M141 S40
G92 E0
G92 E0
G1 F1800 E-0.75
;LAYER_COUNT:6
;LAYER:0
TIMELAPSE_TAKE_FRAME
M107
G1 F600 Z0.7
G0 F7200 X128.352 Y139.252 Z0.7
;TYPE:SKIRT
G1 F600 Z0.2
G1 F720 E0
G1 F2700 X129.24 Y138.466 E0.04437
G1 X130.111 Y137.721 E0.08726
G1 X131.217 Y136.827 E0.14047
G1 X132.138 Y136.117 E0.18399
G1 X133.194 Y135.332 E0.23322
G1 X134.209 Y134.612 E0.27978
G1 X135.229 Y133.925 E0.3258
G1 X136.305 Y133.226 E0.37381
G1 X137.321 Y132.595 E0.41856
G1 X138.57 Y131.855 E0.47288
G1 X139.627 Y131.254 E0.51838
G1 X140.914 Y130.552 E0.57324
G1 X142.065 Y129.954 E0.62177
G1 X143.458 Y129.262 E0.67997
G1 X144.716 Y128.66 E0.73215
G1 X146.168 Y128.003 E0.79179
G1 X147.345 Y127.494 E0.83977
G1 X149.047 Y126.794 E0.90863
G1 X150.701 Y126.149 E0.97506
G1 X152.076 Y125.634 E1.03
G1 X154.146 Y124.9 E1.11218
G1 X155.272 Y124.518 E1.15667
G1 X156.845 Y124.009 E1.21853
G1 X158.663 Y123.449 E1.28971
G1 X160.542 Y122.9 E1.36296
G1 X162.847 Y122.269 E1.45238
G1 X164.168 Y121.919 E1.50351
G1 X165.508 Y121.588 E1.55516
G1 X166.847 Y121.272 E1.60664
G1 X168.296 Y120.961 E1.66209
G1 X169.372 Y120.743 E1.70317
G1 X171.188 Y120.418 E1.7722
G1 X172.737 Y120.186 E1.83081
G1 X174.54 Y119.986 E1.89868
G1 X174.894 Y119.976 E1.91193
G1 X177.095 Y120.166 E1.9946
G1 X179.47 Y120.53 E2.0845
G1 X180.719 Y120.761 E2.13203
G1 X181.888 Y120.999 E2.17667
G1 X183.311 Y121.312 E2.23119
G1 X184.517 Y121.593 E2.27752
G1 X186.324 Y122.045 E2.34722
G1 X188.516 Y122.635 E2.43216
G1 X189.735 Y122.974 E2.4795
G1 X191.838 Y123.599 E2.56159
G1 X193.543 Y124.132 E2.62843
G1 X195.003 Y124.612 E2.68594
G1 X197.129 Y125.344 E2.77007
G1 X199.472 Y126.21 E2.86354
G1 X201.023 Y126.815 E2.92583
G1 X202.769 Y127.54 E2.99657
G1 X203.935 Y128.051 E3.0442
G1 X205.287 Y128.668 E3.09981
G1 X206.702 Y129.34 E3.15843
G1 X208.059 Y130.012 E3.21509
G1 X209.25 Y130.636 E3.2654
G1 X210.346 Y131.231 E3.31206
G1 X211.531 Y131.906 E3.36309
G1 X212.746 Y132.63 E3.41601
G1 X213.805 Y133.293 E3.46276
G1 X214.885 Y133.999 E3.51104
G1 X215.899 Y134.691 E3.55698
G1 X216.95 Y135.438 E3.60522
G1 X218.118 Y136.312 E3.65981
G1 X218.924 Y136.938 E3.69799
G1 X220.011 Y137.828 E3.75056
G1 X220.907 Y138.592 E3.79462
G1 X221.771 Y139.36 E3.83788
G1 X222.658 Y140.193 E3.88341
G1 X223.471 Y140.99 E3.92601
G1 X224.462 Y142.004 E3.97906
G1 X225.089 Y142.686 E4.01372
G1 X225.894 Y143.586 E4.0589
G1 X226.708 Y144.546 E4.106
G1 X227.39 Y145.392 E4.14666
G1 X228.148 Y146.374 E4.19308
G1 X228.819 Y147.293 E4.23565
G1 X229.494 Y148.262 E4.27984
G1 X230.193 Y149.318 E4.32723
G1 X230.774 Y150.237 E4.36791
G1 X231.389 Y151.267 E4.4128
G1 X231.985 Y152.316 E4.45794
G1 X232.543 Y153.352 E4.50197
G1 X233.085 Y154.422 E4.54685
G1 X233.613 Y155.517 E4.59234
G1 X234.126 Y156.641 E4.63857
G1 X234.621 Y157.788 E4.68531
G1 X235.077 Y158.917 E4.73087
G1 X235.608 Y160.302 E4.78638
G1 X235.974 Y161.336 E4.82742
G1 X236.406 Y162.612 E4.87782
G1 X236.81 Y163.899 E4.9283
G1 X237.2 Y165.216 E4.97969
G1 X237.648 Y166.824 E5.04215
G1 X237.816 Y167.493 E5.06796
G1 X238.075 Y168.658 E5.11262
G1 X238.33 Y169.992 E5.16344
G1 X238.487 Y171.011 E5.20201
G1 X238.649 Y172.364 E5.253
G1 X238.765 Y173.653 E5.30143
G1 X238.857 Y175.286 E5.36263
G1 X238.871 Y176.372 E5.40327
G1 X238.842 Y177.337 E5.43939
G1 X238.773 Y178.717 E5.49109
G1 X238.615 Y180.26 E5.54913
G1 X238.477 Y181.335 E5.58968
G1 X238.313 Y182.365 E5.62871
G1 X238.125 Y183.367 E5.66686
G1 X237.86 Y184.628 E5.71507
G1 X237.686 Y185.35 E5.74286
G1 X237.454 Y186.187 E5.77536
G1 X236.93 Y187.743 E5.83679
G1 X236.492 Y188.954 E5.88498
G1 X236.056 Y190.077 E5.93005
G1 X235.513 Y191.373 E5.98263
G1 X235.077 Y192.358 E6.02294
G1 X234.506 Y193.563 E6.07283
G1 X234.001 Y194.574 E6.11512
G1 X233.145 Y196.17 E6.18288
G1 X232.233 Y197.728 E6.25043
G1 X231.574 Y198.782 E6.29695
G1 X230.914 Y199.786 E6.3419
G1 X230.302 Y200.674 E6.38226
G1 X229.392 Y201.931 E6.44032
G1 X228.81 Y202.689 E6.47608
G1 X228.185 Y203.474 E6.51363
G1 X227.385 Y204.433 E6.56036
G1 X226.604 Y205.328 E6.6048
G1 X225.783 Y206.228 E6.65039
G1 X224.935 Y207.112 E6.69622
G1 X223.799 Y208.249 E6.75636
G1 X222.977 Y209.025 E6.79866
G1 X222.211 Y209.725 E6.83749
G1 X221.366 Y210.469 E6.87961
G1 X220.383 Y211.3 E6.92778
G1 X219.38 Y212.106 E6.97592
G1 X218.37 Y212.882 E7.02358
G1 X217.383 Y213.61 E7.06947
G1 X216.321 Y214.369 E7.11831
G1 X215.253 Y215.101 E7.16676
G1 X214.021 Y215.909 E7.22189
G1 X212.944 Y216.585 E7.26947
G1 X211.73 Y217.318 E7.32253
G1 X210.595 Y217.971 E7.37153
G1 X209.43 Y218.621 E7.42145
G1 X208.144 Y219.306 E7.47597
G1 X206.837 Y219.978 E7.53096
G1 X205.422 Y220.671 E7.58991
G1 X203.963 Y221.348 E7.65009
G1 X202.475 Y222.017 E7.71114
G1 X201.031 Y222.639 E7.76997
G1 X199.632 Y223.215 E7.82658
G1 X197.967 Y223.878 E7.89364
G1 X196.386 Y224.475 E7.95687
G1 X194.87 Y225.025 E8.01722
G1 X193.283 Y225.576 E8.08008
G1 X191.64 Y226.123 E8.14487
G1 X189.876 Y226.68 E8.21409
G1 X188.07 Y227.233 E8.28476
G1 X185.522 Y227.973 E8.38404
G1 X183.385 Y228.54 E8.46677
G1 X182.095 Y228.856 E8.51646
G1 X180.128 Y229.277 E8.59173
G1 X179.332 Y229.427 E8.62204
G1 X177.838 Y229.668 E8.67867
G1 X176.271 Y229.871 E8.73779
G1 X175.408 Y229.941 E8.77019
G1 X174.231 Y229.925 E8.81423
G1 X173.465 Y229.844 E8.84305
G1 X172.446 Y229.715 E8.88149
G1 X171.29 Y229.538 E8.92524
G1 X170.136 Y229.328 E8.96913
G1 X168.96 Y229.091 E9.01402
G1 X167.574 Y228.775 E9.06721
G1 X165.135 Y228.152 E9.16141
G1 X163.587 Y227.721 E9.22153
G1 X161.809 Y227.2 E9.29086
G1 X160.043 Y226.663 E9.35992
G1 X158.226 Y226.08 E9.43133
G1 X156.59 Y225.534 E9.49586
G1 X154.954 Y224.963 E9.5607
G1 X153.341 Y224.372 E9.62498
G1 X151.664 Y223.733 E9.69213
G1 X150.251 Y223.174 E9.74898
G1 X148.608 Y222.492 E9.81555
G1 X147.198 Y221.882 E9.87303
G1 X145.73 Y221.213 E9.9334
G1 X144.402 Y220.582 E9.98841
G1 X143.012 Y219.9 E10.04634
G1 X141.654 Y219.2 E10.10351
G1 X140.403 Y218.528 E10.15665
G1 X138.626 Y217.523 E10.23303
G1 X136.943 Y216.514 E10.30646
G1 X135.847 Y215.822 E10.35496
G1 X134.651 Y215.032 E10.40859
G1 X133.528 Y214.264 E10.4595
G1 X132.13 Y213.258 E10.52394
G1 X131.434 Y212.733 E10.55656
G1 X130.468 Y211.983 E10.60233
G1 X129.456 Y211.16 E10.65113
G1 X128.361 Y210.227 E10.70496
G1 X127.516 Y209.476 E10.74726
G1 X126.562 Y208.589 E10.796
G1 X125.185 Y207.237 E10.86821
G1 X124.015 Y206.012 E10.9316
G1 X123.223 Y205.134 E10.97584
G1 X122.469 Y204.263 E11.01895
G1 X121.695 Y203.325 E11.06445
G1 X120.98 Y202.412 E11.10784
G1 X120.29 Y201.498 E11.15069
G1 X119.597 Y200.535 E11.19509
G1 X118.94 Y199.566 E11.23889
G1 X118.3 Y198.583 E11.28278
G1 X117.631 Y197.496 E11.33054
G1 X117.057 Y196.516 E11.37304
G1 X116.469 Y195.458 E11.41833
G1 X115.89 Y194.357 E11.46487
G1 X115.193 Y192.939 E11.524
G1 X114.854 Y192.209 E11.55411
G1 X114.367 Y191.104 E11.5993
G1 X113.892 Y189.951 E11.64596
G1 X113.457 Y188.818 E11.69137
G1 X113.086 Y187.795 E11.73209
G1 X112.573 Y186.27 E11.79229
G1 X112.265 Y185.141 E11.83608
G1 X112.058 Y184.258 E11.87001
G1 X111.852 Y183.292 E11.90697
G1 X111.645 Y182.142 E11.95069
G1 X111.462 Y180.945 E11.996
G1 X111.33 Y179.852 E12.0372
G1 X111.256 Y179.104 E12.06532
G1 X111.176 Y178.022 E12.10592
G1 X111.138 Y176.969 E12.14534
G1 X111.129 Y176.043 E12.18
G1 X111.155 Y175.072 E12.21634
G1 X111.204 Y174.093 E12.25302
G1 X111.315 Y172.738 E12.30389
G1 X111.453 Y171.49 E12.35087
G1 X111.542 Y170.838 E12.37549
G1 X111.704 Y169.814 E12.41429
G1 X111.843 Y169.049 E12.44338
G1 X112.083 Y167.897 E12.48741
G1 X112.395 Y166.668 E12.53485
G1 X112.794 Y165.239 E12.59037
G1 X113.291 Y163.562 E12.65582
G1 X113.594 Y162.622 E12.69277
G1 X114.097 Y161.138 E12.7514
G1 X114.455 Y160.141 E12.79104
G1 X114.889 Y159.004 E12.83658
G1 X115.401 Y157.731 E12.88792
G1 X115.85 Y156.678 E12.93075
G1 X116.501 Y155.249 E12.98951
G1 X117.439 Y153.388 E13.06749
G1 X118.236 Y151.92 E13.12999
G1 X118.635 Y151.223 E13.16004
G1 X119.258 Y150.188 E13.20524
G1 X119.931 Y149.127 E13.25226
G1 X120.713 Y147.955 E13.30498
G1 X121.293 Y147.135 E13.34256
G1 X121.908 Y146.3 E13.38136
G1 X122.565 Y145.449 E13.42159
G1 X123.308 Y144.527 E13.4659
G1 X124.09 Y143.604 E13.51116
G1 X124.85 Y142.749 E13.55397
G1 X125.616 Y141.927 E13.59601
G1 X126.574 Y140.946 E13.64731
G1 X127.479 Y140.062 E13.69465
G1 X128.352 Y139.252 E13.73921
G0 F7200 X128.65 Y139.589
G1 F2700 X129.532 Y138.808 E13.78329
G1 X130.394 Y138.071 E13.82573
G1 X131.492 Y137.183 E13.87857
G1 X132.407 Y136.478 E13.92179
G1 X133.454 Y135.699 E13.97062
G1 X134.46 Y134.985 E14.01678
G1 X135.474 Y134.302 E14.06252
G1 X136.542 Y133.608 E14.11018
G1 X137.55 Y132.982 E14.15458
G1 X138.792 Y132.246 E14.2086
G1 X139.842 Y131.649 E14.2538
G1 X141.122 Y130.951 E14.30835
G1 X142.265 Y130.357 E14.35655
G1 X143.652 Y129.668 E14.4145
G1 X144.902 Y129.07 E14.46634
G1 X146.347 Y128.416 E14.52569
G1 X147.516 Y127.91 E14.57336
G1 X149.21 Y127.213 E14.6419
G1 X150.859 Y126.57 E14.70812
G1 X152.226 Y126.058 E14.76274
G1 X154.291 Y125.326 E14.84472
G1 X155.411 Y124.946 E14.88898
G1 X156.978 Y124.439 E14.9506
G1 X158.789 Y123.881 E15.02151
G1 X160.661 Y123.334 E15.09448
G1 X162.962 Y122.704 E15.18375
G1 X164.276 Y122.356 E15.23461
G1 X165.611 Y122.026 E15.28607
G1 X166.941 Y121.712 E15.3372
G1 X168.385 Y121.402 E15.39247
G1 X169.451 Y121.186 E15.43316
G1 X171.255 Y120.863 E15.50174
G1 X172.787 Y120.633 E15.5597
G1 X174.553 Y120.436 E15.62619
G1 X174.907 Y120.426 E15.63944
G1 X177.027 Y120.611 E15.71907
G1 X179.388 Y120.972 E15.80844
G1 X180.629 Y121.202 E15.85567
G1 X181.791 Y121.438 E15.90003
G1 X183.209 Y121.75 E15.95436
G1 X184.408 Y122.03 E16.00043
G1 X186.207 Y122.48 E16.06982
G1 X188.395 Y123.069 E16.15461
G1 X189.614 Y123.408 E16.20195
G1 X191.704 Y124.028 E16.28352
G1 X193.402 Y124.559 E16.35009
G1 X194.856 Y125.037 E16.40736
G1 X196.973 Y125.766 E16.49114
G1 X199.308 Y126.629 E16.58428
G1 X200.85 Y127.231 E16.64622
G1 X202.596 Y127.956 E16.71696
G1 X203.748 Y128.46 E16.76401
G1 X205.094 Y129.074 E16.81937
G1 X206.502 Y129.743 E16.8777
G1 X207.85 Y130.411 E16.93399
G1 X209.035 Y131.031 E16.98403
G1 X210.123 Y131.622 E17.03036
G1 X211.3 Y132.292 E17.08104
G1 X212.507 Y133.012 E17.13363
G1 X213.559 Y133.67 E17.18005
G1 X214.631 Y134.371 E17.22798
G1 X215.638 Y135.058 E17.27359
G1 X216.68 Y135.798 E17.32141
G1 X217.842 Y136.667 E17.37571
G1 X218.639 Y137.286 E17.41347
G1 X219.719 Y138.17 E17.46569
G1 X220.608 Y138.928 E17.5094
G1 X221.463 Y139.688 E17.55221
G1 X222.343 Y140.514 E17.59737
G1 X223.149 Y141.304 E17.6396
G1 X224.131 Y142.309 E17.69217
G1 X224.754 Y142.986 E17.7266
G1 X225.551 Y143.877 E17.77133
G1 X226.358 Y144.829 E17.81803
G1 X227.034 Y145.667 E17.85831
G1 X227.785 Y146.64 E17.90431
G1 X228.45 Y147.55 E17.94648
G1 X229.119 Y148.51 E17.99026
G1 X229.813 Y149.559 E18.03733
G1 X230.388 Y150.468 E18.07757
G1 X230.998 Y151.489 E18.12207
G1 X231.589 Y152.529 E18.16683
G1 X232.142 Y153.556 E18.21048
G1 X232.68 Y154.617 E18.25499
G1 X233.204 Y155.704 E18.30014
G1 X233.713 Y156.819 E18.346
G1 X234.204 Y157.956 E18.39235
G1 X234.657 Y159.078 E18.43762
G1 X235.184 Y160.452 E18.49268
G1 X235.548 Y161.48 E18.53349
G1 X235.977 Y162.747 E18.58354
G1 X236.379 Y164.027 E18.63374
G1 X236.767 Y165.337 E18.68486
G1 X237.212 Y166.934 E18.7469
G1 X237.377 Y167.591 E18.77224
G1 X237.633 Y168.743 E18.8164
G1 X237.885 Y170.061 E18.86661
G1 X238.04 Y171.065 E18.90462
G1 X238.201 Y172.404 E18.95509
G1 X238.316 Y173.678 E19.00295
G1 X238.407 Y175.292 E19.06344
G1 X238.421 Y176.359 E19.10337
G1 X238.393 Y177.314 E19.13912
G1 X238.325 Y178.671 E19.18995
G1 X238.169 Y180.203 E19.24758
G1 X238.033 Y181.264 E19.2876
G1 X237.871 Y182.282 E19.32617
G1 X237.685 Y183.274 E19.36394
G1 X237.422 Y184.523 E19.4117
G1 X237.252 Y185.23 E19.4389
G1 X237.02 Y186.067 E19.4714
G1 X236.507 Y187.59 E19.53154
G1 X236.073 Y188.791 E19.57932
G1 X235.641 Y189.903 E19.62396
G1 X235.102 Y191.191 E19.6762
G1 X234.67 Y192.165 E19.71607
G1 X234.103 Y193.362 E19.76563
G1 X233.604 Y194.361 E19.80741
G1 X232.748 Y195.957 E19.87518
G1 X231.851 Y197.49 E19.94164
G1 X231.198 Y198.535 E19.98775
G1 X230.544 Y199.531 E20.03233
G1 X229.938 Y200.41 E20.07228
G1 X229.035 Y201.657 E20.12989
G1 X228.458 Y202.409 E20.16535
G1 X227.839 Y203.186 E20.20253
G1 X227.046 Y204.137 E20.24886
G1 X226.272 Y205.025 E20.29293
G1 X225.458 Y205.917 E20.33812
G1 X224.617 Y206.794 E20.38359
G1 X223.49 Y207.922 E20.44325
G1 X222.674 Y208.693 E20.48525
G1 X221.914 Y209.387 E20.52376
G1 X221.076 Y210.125 E20.56555
G1 X220.101 Y210.949 E20.61331
G1 X219.106 Y211.749 E20.66108
G1 X218.103 Y212.52 E20.70842
G1 X217.122 Y213.244 E20.75404
G1 X216.066 Y213.998 E20.80259
G1 X215.006 Y214.725 E20.85069
G1 X213.782 Y215.528 E20.90546
G1 X212.712 Y216.2 E20.95274
G1 X211.505 Y216.928 E21.00548
G1 X210.376 Y217.578 E21.05423
G1 X209.219 Y218.224 E21.10381
G1 X207.938 Y218.906 E21.15811
G1 X206.639 Y219.574 E21.21277
G1 X205.233 Y220.263 E21.27136
G1 X203.778 Y220.938 E21.33137
G1 X202.297 Y221.604 E21.39213
G1 X200.86 Y222.223 E21.45068
G1 X199.465 Y222.797 E21.50712
G1 X197.808 Y223.457 E21.57386
G1 X196.232 Y224.052 E21.63689
G1 X194.722 Y224.6 E21.697
G1 X193.141 Y225.149 E21.75962
G1 X191.505 Y225.694 E21.82415
G1 X189.744 Y226.25 E21.89324
G1 X187.944 Y226.801 E21.96368
G1 X185.407 Y227.538 E22.06253
G1 X183.278 Y228.103 E22.14495
G1 X182.001 Y228.416 E22.19415
G1 X180.045 Y228.835 E22.269
G1 X179.26 Y228.983 E22.29889
G1 X177.78 Y229.222 E22.35499
G1 X176.235 Y229.422 E22.41328
G1 X175.372 Y229.492 E22.44568
G1 X174.278 Y229.477 E22.48661
G1 X173.512 Y229.396 E22.51544
G1 X172.514 Y229.27 E22.55308
G1 X171.37 Y229.095 E22.59638
G1 X170.225 Y228.887 E22.63992
G1 X169.06 Y228.652 E22.68439
G1 X167.685 Y228.339 E22.73716
G1 X165.256 Y227.719 E22.83096
G1 X163.713 Y227.289 E22.8909
G1 X161.94 Y226.77 E22.96002
G1 X160.18 Y226.234 E23.02886
G1 X158.368 Y225.653 E23.10006
G1 X156.738 Y225.109 E23.16436
G1 X155.109 Y224.54 E23.22893
G1 X153.501 Y223.951 E23.293
G1 X151.824 Y223.312 E23.36015
G1 X150.423 Y222.758 E23.41652
G1 X148.787 Y222.079 E23.4828
G1 X147.385 Y221.472 E23.53997
G1 X145.923 Y220.806 E23.60008
G1 X144.6 Y220.178 E23.65488
G1 X143.218 Y219.5 E23.71248
G1 X141.867 Y218.803 E23.76936
G1 X140.624 Y218.136 E23.82214
G1 X138.857 Y217.137 E23.8981
G1 X137.183 Y216.134 E23.97112
G1 X136.095 Y215.447 E24.01926
G1 X134.905 Y214.661 E24.07263
G1 X133.791 Y213.899 E24.12313
G1 X132.401 Y212.899 E24.1872
G1 X131.71 Y212.378 E24.21958
G1 X130.752 Y211.634 E24.26497
G1 X129.748 Y210.818 E24.31338
G1 X128.66 Y209.89 E24.36689
G1 X127.822 Y209.146 E24.40882
G1 X126.877 Y208.268 E24.45708
G1 X125.51 Y206.926 E24.52876
G1 X124.349 Y205.711 E24.59164
G1 X123.563 Y204.839 E24.63557
G1 X122.816 Y203.976 E24.67828
G1 X122.049 Y203.047 E24.72335
G1 X121.339 Y202.141 E24.76642
G1 X120.655 Y201.235 E24.8089
G1 X119.969 Y200.282 E24.85284
G1 X119.317 Y199.321 E24.89629
G1 X118.683 Y198.347 E24.93978
G1 X118.019 Y197.268 E24.98718
G1 X117.45 Y196.297 E25.02929
G1 X116.867 Y195.248 E25.0742
G1 X116.294 Y194.159 E25.12024
G1 X115.601 Y192.749 E25.17903
G1 X115.266 Y192.028 E25.20878
G1 X114.783 Y190.932 E25.25359
G1 X114.312 Y189.79 E25.29982
G1 X113.88 Y188.665 E25.34491
G1 X113.513 Y187.652 E25.38522
G1 X113 Y186.127 E25.44543
G1 X112.703 Y185.038 E25.48766
G1 X112.498 Y184.164 E25.52125
G1 X112.295 Y183.212 E25.55768
G1 X112.09 Y182.074 E25.60094
G1 X111.909 Y180.891 E25.64572
