;FLAVOR:Marlin
;TIME:5042
;Filament used: 5.30912m
;Layer height: 0.25
;MINX:122.425
;MINY:156.214
;MINZ:0.25
;MAXX:227.576
;MAXY:187.547
;MAXZ:94.25
;TARGET_MACHINE.NAME:VORON2 350
;POSTPROCESSED
;  [CreateThumbnail]
;  [CreateThumbnail]
;  [InsertAtLayerChange]
;Generated with Cura_SteamEngine 5.10.1
;
;

;
;

;Nozzle diameter = 0.4
;Filament type = PLA
;Filament name = LW-PLA Light Gray
;Filament weight = [8.938956933593749]; M190 S50
; M109 S210


; Pre-Processed for Cancel-Object support by preprocess_cancellation v0.2.0
; 1 known objects
EXCLUDE_OBJECT_DEFINE NAME=HATCH_REAR_2_STL CENTER=174.883,174.260 POLYGON=[[130.424,164.19],[130.424,185.675],[219.576,185.675],[219.576,164.19]]
PRINT_START BED_TEMP=50 EXTRUDER_TEMP=210
M82 ;absolute extrusion mode
M141 S10
G92 E0
G92 E0
G1 F3000 E-1
;LAYER_COUNT:377
;LAYER:0
TIMELAPSE_TAKE_FRAME
M107
G0 F7200 X125.578 Y169.853 Z0.25
;TYPE:SKIRT
G1 F3000 E0.20788
G1 F1800 X126.536 Y169.23 E0.25779
G1 X127.317 Y168.849 E0.29575
G1 X128.553 Y168.359 E0.35382
G1 X129.756 Y167.866 E0.41061
G1 X132.271 Y166.789 E0.53012
G1 X133.568 Y166.22 E0.59198
G1 X140.259 Y163.186 E0.91289
G1 X141.567 Y162.613 E0.97526
G1 X142.765 Y162.106 E1.03208
G1 X144.747 Y161.297 E1.12559
G1 X145.801 Y160.892 E1.17491
G1 X147.01 Y160.446 E1.2312
G1 X148.14 Y160.059 E1.28337
G1 X149.942 Y159.474 E1.36613
G1 X150.958 Y159.171 E1.41244
G1 X152.055 Y158.865 E1.46218
G1 X154.021 Y158.357 E1.55088
G1 X155.062 Y158.118 E1.59753
G1 X157.186 Y157.68 E1.69226
G1 X158.249 Y157.49 E1.73943
G1 X159.376 Y157.309 E1.78929
G1 X161.607 Y156.993 E1.88771
G1 X162.729 Y156.856 E1.93708
G1 X165.049 Y156.62 E2.03894
G1 X166.33 Y156.523 E2.09506
G1 X168.825 Y156.359 E2.20427
G1 X170.136 Y156.304 E2.26159
G1 X171.516 Y156.261 E2.32189
G1 X172.929 Y156.232 E2.38363
G1 X175.061 Y156.214 E2.47676
G1 X177.099 Y156.231 E2.56578
G1 X178.525 Y156.26 E2.62808
G1 X179.917 Y156.313 E2.68893
G1 X182.651 Y156.45 E2.8085
G1 X185.056 Y156.634 E2.91385
G1 X187.361 Y156.865 E3.01504
G1 X189.532 Y157.138 E3.11062
G1 X190.617 Y157.302 E3.15855
G1 X191.766 Y157.495 E3.20944
G1 X192.844 Y157.692 E3.25731
G1 X194.926 Y158.114 E3.3501
G1 X197.023 Y158.622 E3.44434
G1 X198.991 Y159.148 E3.53332
G1 X200.859 Y159.72 E3.61866
G1 X201.957 Y160.086 E3.66921
G1 X203.089 Y160.482 E3.72159
G1 X204.498 Y160.999 E3.78715
G1 X206.249 Y161.684 E3.86928
G1 X208.429 Y162.611 E3.97275
G1 X209.935 Y163.27 E4.04456
G1 X216.132 Y166.08 E4.34177
G1 X218.944 Y167.314 E4.4759
G1 X220.197 Y167.84 E4.53526
G1 X222.782 Y168.89 E4.65713
G1 X224.165 Y169.67 E4.72649
G1 X225.081 Y170.402 E4.77771
G1 X225.705 Y171.057 E4.81722
G1 X226.25 Y171.786 E4.85698
G1 X226.731 Y172.604 E4.89843
G1 X227.057 Y173.345 E4.93379
G1 X227.321 Y174.186 E4.97229
G1 X227.52 Y175.27 E5.02043
G1 X227.576 Y176.133 E5.05821
G1 X227.517 Y180.685 E5.25705
G1 X227.433 Y181.175 E5.27877
G1 X226.967 Y182.75 E5.35051
G1 X226.672 Y183.369 E5.38046
G1 X226.212 Y184.125 E5.41912
G1 X225.415 Y185.124 E5.47494
G1 X224.852 Y185.672 E5.50926
G1 X224.315 Y186.095 E5.53912
G1 X223.297 Y186.709 E5.59105
G1 X222.679 Y186.985 E5.62061
G1 X220.981 Y187.456 E5.69758
G1 X220.411 Y187.525 E5.72266
G1 X219.457 Y187.536 E5.76433
G1 X217.945 Y187.332 E5.83097
G1 X217.126 Y187.101 E5.86814
G1 X215.784 Y186.588 E5.9309
G1 X212.805 Y185.384 E6.07125
G1 X210.391 Y184.346 E6.18603
G1 X208.2 Y183.37 E6.29079
G1 X202.234 Y180.664 E6.57694
G1 X200.045 Y179.721 E6.68105
G1 X199.07 Y179.317 E6.72715
G1 X198.22 Y178.978 E6.76712
G1 X197.066 Y178.538 E6.82107
G1 X195.955 Y178.143 E6.87257
G1 X195.261 Y177.913 E6.90451
G1 X193.688 Y177.432 E6.97636
G1 X192.976 Y177.229 E7.0087
G1 X191.315 Y176.808 E7.08354
G1 X189.948 Y176.513 E7.14463
G1 X189.002 Y176.332 E7.1867
G1 X188.19 Y176.189 E7.22271
G1 X187.394 Y176.063 E7.25791
G1 X185.685 Y175.834 E7.33323
G1 X183.779 Y175.623 E7.41699
G1 X181.693 Y175.449 E7.50843
G1 X179.639 Y175.347 E7.59826
G1 X178.436 Y175.3 E7.65084
G1 X177.259 Y175.267 E7.70227
G1 X175.049 Y175.239 E7.79881
G1 X172.885 Y175.266 E7.89334
G1 X170.38 Y175.343 E8.00281
G1 X168.273 Y175.457 E8.09498
G1 X167.162 Y175.539 E8.14364
G1 X166.293 Y175.615 E8.18175
G1 X165.254 Y175.72 E8.22736
G1 X163.64 Y175.916 E8.29838
G1 X162.835 Y176.033 E8.33391
G1 X160.976 Y176.339 E8.4162
G1 X160.237 Y176.476 E8.44903
G1 X158.744 Y176.795 E8.51572
G1 X157.304 Y177.151 E8.58051
G1 X155.744 Y177.593 E8.65133
G1 X154.14 Y178.106 E8.72489
G1 X152.988 Y178.513 E8.77826
G1 X152.13 Y178.838 E8.81834
G1 X149.983 Y179.705 E8.91947
G1 X149.092 Y180.085 E8.96179
G1 X146.564 Y181.205 E9.08256
G1 X141.491 Y183.511 E9.32597
G1 X138.573 Y184.797 E9.46525
G1 X137.164 Y185.396 E9.53213
G1 X135.767 Y185.971 E9.59812
G1 X134.212 Y186.586 E9.67116
G1 X132.269 Y187.27 E9.76113
G1 X131.107 Y187.494 E9.81282
G1 X130.176 Y187.547 E9.85356
G1 X129.279 Y187.491 E9.89281
G1 X128.449 Y187.334 E9.92971
G1 X127.159 Y186.918 E9.98892
G1 X126.462 Y186.583 E10.02269
G1 X125.984 Y186.29 E10.04718
G1 X124.792 Y185.337 E10.11384
G1 X124.179 Y184.671 E10.15338
G1 X123.849 Y184.225 E10.17762
G1 X123.071 Y182.828 E10.24746
G1 X122.779 Y182.038 E10.28425
G1 X122.628 Y181.448 E10.31085
G1 X122.425 Y179.728 E10.3865
G1 X122.486 Y175.219 E10.58347
G1 X122.609 Y174.479 E10.61624
G1 X122.985 Y173.228 E10.6733
G1 X123.228 Y172.679 E10.69952
G1 X123.787 Y171.73 E10.74763
G1 X124.408 Y170.936 E10.79166
G1 X125.578 Y169.853 E10.8613
G0 F7200 X125.85 Y170.147
G1 F1800 X126.712 Y169.589 E10.90615
G1 X127.464 Y169.221 E10.94272
G1 X128.7 Y168.731 E11.0008
G1 X129.908 Y168.236 E11.05782
G1 X132.428 Y167.157 E11.17756
G1 X133.729 Y166.586 E11.23962
G1 X140.42 Y163.552 E11.56053
G1 X141.723 Y162.981 E11.62267
G1 X142.916 Y162.476 E11.67925
G1 X144.89 Y161.67 E11.77239
G1 X145.939 Y161.267 E11.82147
G1 X147.14 Y160.824 E11.87739
G1 X148.263 Y160.439 E11.92924
G1 X150.056 Y159.857 E12.01158
G1 X151.065 Y159.556 E12.05758
G1 X152.155 Y159.252 E12.107
G1 X154.111 Y158.747 E12.19524
G1 X155.143 Y158.51 E12.24149
G1 X157.256 Y158.074 E12.33573
G1 X158.313 Y157.885 E12.38264
G1 X159.432 Y157.705 E12.43214
G1 X161.656 Y157.39 E12.53026
G1 X162.769 Y157.254 E12.57923
G1 X165.079 Y157.019 E12.68065
G1 X166.356 Y156.922 E12.73659
G1 X168.842 Y156.759 E12.84542
G1 X170.148 Y156.704 E12.90251
G1 X171.524 Y156.661 E12.96265
G1 X172.932 Y156.632 E13.02416
G1 X175.058 Y156.614 E13.11703
G1 X177.091 Y156.631 E13.20583
G1 X178.51 Y156.66 E13.26783
G1 X179.897 Y156.713 E13.32845
G1 X182.621 Y156.849 E13.44759
G1 X185.016 Y157.032 E13.5525
G1 X187.311 Y157.262 E13.65325
G1 X189.472 Y157.534 E13.74839
G1 X190.551 Y157.697 E13.79605
G1 X191.694 Y157.888 E13.84667
G1 X192.765 Y158.084 E13.89423
G1 X194.832 Y158.503 E13.98635
G1 X196.92 Y159.008 E14.08019
G1 X198.874 Y159.531 E14.16854
G1 X200.732 Y160.099 E14.25341
G1 X201.825 Y160.464 E14.30374
G1 X202.951 Y160.858 E14.35585
G1 X204.352 Y161.372 E14.42103
G1 X206.103 Y162.057 E14.50316
G1 X208.269 Y162.977 E14.60595
G1 X209.77 Y163.634 E14.67752
G1 X215.971 Y166.446 E14.97493
G1 X218.789 Y167.683 E15.10936
G1 X220.046 Y168.211 E15.16891
G1 X222.631 Y169.261 E15.29078
G1 X223.968 Y170.018 E15.35789
G1 X224.792 Y170.679 E15.40403
G1 X225.385 Y171.298 E15.44148
G1 X225.905 Y171.989 E15.47925
G1 X226.386 Y172.807 E15.5207
G1 X226.675 Y173.465 E15.55209
G1 X226.939 Y174.306 E15.59059
G1 X227.121 Y175.296 E15.63456
G1 X227.176 Y176.128 E15.67098
G1 X227.122 Y180.62 E15.86721
G1 X227.049 Y181.063 E15.88682
G1 X226.605 Y182.579 E15.95582
G1 X226.33 Y183.161 E15.98393
G1 X225.87 Y183.917 E16.02259
G1 X225.136 Y184.837 E16.074
G1 X224.573 Y185.385 E16.10832
G1 X224.108 Y185.752 E16.13419
G1 X223.09 Y186.366 E16.18612
G1 X222.517 Y186.619 E16.21348
G1 X220.931 Y187.059 E16.28537
G1 X220.406 Y187.125 E16.30848
G1 X219.452 Y187.136 E16.35016
G1 X218.054 Y186.947 E16.41178
G1 X217.235 Y186.716 E16.44895
G1 X215.934 Y186.217 E16.50981
G1 X212.963 Y185.017 E16.64977
G1 X210.554 Y183.981 E16.76431
G1 X208.365 Y183.006 E16.86898
G1 X202.399 Y180.3 E17.15513
G1 X200.198 Y179.351 E17.25983
G1 X199.223 Y178.947 E17.30592
G1 X198.368 Y178.606 E17.34613
G1 X197.209 Y178.164 E17.40031
G1 X196.081 Y177.763 E17.45261
G1 X195.378 Y177.53 E17.48495
G1 X193.805 Y177.049 E17.5568
G1 X193.086 Y176.844 E17.58946
G1 X191.413 Y176.42 E17.66485
G1 X190.023 Y176.12 E17.72696
G1 X189.077 Y175.939 E17.76903
G1 X188.259 Y175.795 E17.80531
G1 X187.456 Y175.668 E17.84082
G1 X185.729 Y175.436 E17.91694
G1 X183.82 Y175.225 E18.00083
G1 X181.726 Y175.051 E18.09261
G1 X179.655 Y174.947 E18.18318
G1 X178.452 Y174.9 E18.23577
G1 X177.27 Y174.867 E18.28742
G1 X175.049 Y174.839 E18.38444
G1 X172.873 Y174.866 E18.4795
G1 X170.368 Y174.943 E18.58897
G1 X168.244 Y175.058 E18.68188
G1 X167.133 Y175.14 E18.73054
G1 X166.253 Y175.217 E18.76912
G1 X165.214 Y175.322 E18.81474
G1 X163.582 Y175.52 E18.88655
G1 X162.77 Y175.638 E18.92239
G1 X160.911 Y175.944 E19.00468
G1 X160.153 Y176.085 E19.03836
G1 X158.66 Y176.404 E19.10504
G1 X157.195 Y176.766 E19.17096
G1 X155.635 Y177.208 E19.24178
G1 X154.018 Y177.725 E19.31594
G1 X152.846 Y178.139 E19.37023
G1 X151.98 Y178.467 E19.41068
G1 X149.833 Y179.334 E19.51182
G1 X148.935 Y179.717 E19.55446
G1 X146.402 Y180.84 E19.67549
G1 X141.33 Y183.145 E19.91884
G1 X138.416 Y184.429 E20.05793
G1 X137.012 Y185.026 E20.12457
G1 X135.62 Y185.599 E20.19032
G1 X134.078 Y186.209 E20.26275
G1 X132.193 Y186.877 E20.35011
G1 X131.031 Y187.101 E20.4018
G1 X130.2 Y187.148 E20.43815
G1 X129.352 Y187.098 E20.47526
G1 X128.571 Y186.953 E20.50996
G1 X127.331 Y186.557 E20.56681
G1 X126.669 Y186.241 E20.59886
G1 X126.233 Y185.977 E20.62112
G1 X125.086 Y185.065 E20.68513
G1 X124.501 Y184.433 E20.72274
G1 X124.171 Y183.987 E20.74698
G1 X123.446 Y182.689 E20.81192
G1 X123.167 Y181.939 E20.84687
G1 X123.016 Y181.349 E20.87347
G1 X122.825 Y179.733 E20.94455
G1 X122.881 Y175.285 E21.13886
G1 X123.004 Y174.545 E21.17162
G1 X123.352 Y173.388 E21.2244
G1 X123.573 Y172.882 E21.24851
G1 X124.132 Y171.933 E21.29662
G1 X124.68 Y171.23 E21.33556
G1 X125.85 Y170.147 E21.4052
G0 F7200 X126.122 Y170.441
G1 F1800 X126.888 Y169.948 E21.44499
G1 X127.611 Y169.593 E21.48017
G1 X128.847 Y169.103 E21.53824
G1 X130.06 Y168.606 E21.5955
G1 X132.585 Y167.525 E21.71548
G1 X133.89 Y166.952 E21.77773
G1 X140.58 Y163.918 E22.0986
G1 X141.879 Y163.349 E22.16054
G1 X143.067 Y162.846 E22.21689
G1 X145.034 Y162.043 E22.3097
G1 X146.077 Y161.642 E22.35851
G1 X147.27 Y161.202 E22.41405
G1 X148.386 Y160.819 E22.46558
G1 X150.17 Y160.24 E22.54751
G1 X151.172 Y159.941 E22.59319
G1 X152.255 Y159.639 E22.6423
G1 X154.201 Y159.137 E22.73008
G1 X155.224 Y158.902 E22.77593
G1 X157.326 Y158.468 E22.86968
G1 X158.377 Y158.28 E22.91632
G1 X159.488 Y158.101 E22.96547
G1 X161.705 Y157.787 E23.06327
G1 X162.81 Y157.652 E23.1119
G1 X165.109 Y157.418 E23.21284
G1 X166.382 Y157.321 E23.2686
G1 X168.859 Y157.159 E23.37703
G1 X170.161 Y157.104 E23.43395
G1 X171.532 Y157.061 E23.49387
G1 X172.935 Y157.032 E23.55516
G1 X175.055 Y157.014 E23.64777
G1 X177.083 Y157.031 E23.73635
G1 X178.495 Y157.06 E23.79804
G1 X179.877 Y157.112 E23.85845
G1 X182.591 Y157.248 E23.97715
G1 X184.976 Y157.43 E24.08163
G1 X187.261 Y157.659 E24.18194
G1 X189.412 Y157.93 E24.27663
G1 X190.485 Y158.092 E24.32403
G1 X191.622 Y158.282 E24.37439
G1 X192.686 Y158.476 E24.42163
G1 X194.738 Y158.892 E24.51308
G1 X196.816 Y159.394 E24.60646
G1 X198.757 Y159.914 E24.69423
G1 X200.605 Y160.478 E24.77863
G1 X201.693 Y160.841 E24.82873
G1 X202.813 Y161.234 E24.88057
G1 X204.206 Y161.745 E24.94538
G1 X205.957 Y162.43 E25.02751
G1 X208.109 Y163.344 E25.12964
G1 X209.605 Y163.998 E25.20096
G1 X215.81 Y166.812 E25.49856
G1 X218.634 Y168.052 E25.63328
G1 X219.895 Y168.582 E25.69303
G1 X222.48 Y169.632 E25.8149
G1 X223.719 Y170.331 E25.87704
G1 X224.503 Y170.956 E25.92083
G1 X225.096 Y171.575 E25.95827
G1 X225.56 Y172.192 E25.99199
G1 X226.041 Y173.01 E26.03344
G1 X226.293 Y173.585 E26.06087
G1 X226.557 Y174.426 E26.09937
G1 X226.727 Y175.367 E26.14114
G1 X226.776 Y176.123 E26.17423
G1 X226.722 Y180.615 E26.37045
G1 X226.665 Y180.952 E26.38538
G1 X226.243 Y182.409 E26.45164
G1 X225.988 Y182.953 E26.47788
G1 X225.528 Y183.709 E26.51654
G1 X224.824 Y184.587 E26.56569
G1 X224.323 Y185.072 E26.59615
G1 X223.901 Y185.409 E26.61974
G1 X222.883 Y186.023 E26.67167
G1 X222.357 Y186.252 E26.69673
G1 X220.879 Y186.662 E26.76372
G1 X220.401 Y186.725 E26.78478
G1 X219.447 Y186.736 E26.82646
G1 X218.162 Y186.562 E26.8831
G1 X217.378 Y186.342 E26.91866
G1 X216.084 Y185.846 E26.9792
G1 X213.121 Y184.649 E27.11878
G1 X210.717 Y183.616 E27.23307
G1 X208.53 Y182.642 E27.33765
G1 X202.564 Y179.936 E27.62379
G1 X200.351 Y178.981 E27.72907
G1 X199.376 Y178.577 E27.77517
G1 X198.516 Y178.234 E27.81562
G1 X197.352 Y177.79 E27.87003
G1 X196.207 Y177.383 E27.92311
G1 X195.495 Y177.147 E27.95588
G1 X193.922 Y176.666 E28.02772
G1 X193.196 Y176.459 E28.0607
G1 X191.511 Y176.032 E28.13663
G1 X190.098 Y175.727 E28.19977
G1 X189.152 Y175.546 E28.24184
G1 X188.328 Y175.401 E28.27838
G1 X187.519 Y175.273 E28.31416
G1 X185.773 Y175.038 E28.39111
G1 X183.861 Y174.827 E28.47514
G1 X181.759 Y174.653 E28.56727
G1 X179.671 Y174.547 E28.65859
G1 X178.468 Y174.5 E28.71117
G1 X177.281 Y174.467 E28.76304
G1 X175.049 Y174.439 E28.86054
G1 X172.861 Y174.466 E28.95612
G1 X170.356 Y174.543 E29.06559
G1 X168.215 Y174.659 E29.15925
G1 X167.104 Y174.741 E29.20791
G1 X166.213 Y174.819 E29.24698
G1 X165.174 Y174.924 E29.29259
G1 X163.524 Y175.124 E29.36519
G1 X162.705 Y175.243 E29.40134
G1 X160.846 Y175.549 E29.48363
G1 X160.075 Y175.693 E29.51789
G1 X158.571 Y176.014 E29.58507
G1 X157.086 Y176.381 E29.65188
G1 X155.526 Y176.823 E29.72271
G1 X153.896 Y177.344 E29.79745
G1 X152.704 Y177.765 E29.85267
G1 X151.83 Y178.096 E29.89349
G1 X149.683 Y178.963 E29.99463
G1 X148.778 Y179.349 E30.03761
G1 X146.24 Y180.474 E30.15887
G1 X141.169 Y182.779 E30.40218
G1 X138.259 Y184.061 E30.54108
G1 X136.86 Y184.656 E30.60748
G1 X135.473 Y185.227 E30.673
G1 X133.943 Y185.832 E30.74486
G1 X132.117 Y186.484 E30.82956
G1 X130.955 Y186.708 E30.88125
G1 X130.222 Y186.749 E30.91331
G1 X129.423 Y186.704 E30.94827
G1 X128.693 Y186.572 E30.98067
G1 X127.453 Y186.176 E31.03753
G1 X126.874 Y185.897 E31.0656
G1 X126.481 Y185.663 E31.08558
G1 X125.379 Y184.792 E31.14694
G1 X124.823 Y184.195 E31.18257
G1 X124.493 Y183.749 E31.20681
G1 X123.796 Y182.495 E31.26947
G1 X123.555 Y181.84 E31.29996
G1 X123.404 Y181.25 E31.32656
G1 X123.225 Y179.738 E31.39307
G1 X123.276 Y175.351 E31.5847
G1 X123.399 Y174.611 E31.61747
G1 X123.719 Y173.548 E31.66596
G1 X123.94 Y173.042 E31.69008
G1 X124.476 Y172.137 E31.73602
G1 X124.952 Y171.524 E31.76992
G1 X126.122 Y170.441 E31.83956
G0 F7200 X126.34 Y170.777
G1 F1800 X127.065 Y170.307 E31.8773
G1 X127.759 Y169.965 E31.9111
G1 X128.995 Y169.474 E31.96919
G1 X130.217 Y168.974 E32.02686
G1 X132.742 Y167.893 E32.14683
G1 X134.051 Y167.318 E32.20928
G1 X140.741 Y164.284 E32.53015
G1 X142.035 Y163.717 E32.59186
G1 X143.218 Y163.216 E32.64798
G1 X145.178 Y162.416 E32.74044
G1 X146.216 Y162.017 E32.78902
G1 X147.4 Y161.58 E32.84415
G1 X148.509 Y161.199 E32.89537
G1 X150.284 Y160.623 E32.97688
G1 X151.279 Y160.326 E33.02223
G1 X152.355 Y160.026 E33.07103
G1 X154.29 Y159.527 E33.15831
G1 X155.305 Y159.294 E33.2038
G1 X157.396 Y158.862 E33.29706
G1 X158.441 Y158.675 E33.34343
G1 X159.544 Y158.497 E33.39224
G1 X161.754 Y158.184 E33.48973
G1 X162.851 Y158.05 E33.53801
G1 X165.14 Y157.817 E33.63851
G1 X166.408 Y157.72 E33.69405
G1 X168.876 Y157.559 E33.80208
G1 X170.174 Y157.504 E33.85883
G1 X171.54 Y157.461 E33.91853
G1 X172.938 Y157.432 E33.97961
G1 X175.052 Y157.414 E34.07195
G1 X177.075 Y157.431 E34.16032
G1 X178.48 Y157.46 E34.2217
G1 X179.857 Y157.512 E34.28189
G1 X182.561 Y157.647 E34.40015
G1 X184.936 Y157.828 E34.50419
G1 X187.211 Y158.056 E34.60406
G1 X189.352 Y158.326 E34.69832
G1 X190.419 Y158.487 E34.74545
G1 X191.55 Y158.675 E34.79553
G1 X192.607 Y158.868 E34.84246
G1 X194.644 Y159.281 E34.93325
G1 X196.712 Y159.78 E35.02617
G1 X198.64 Y160.297 E35.11336
G1 X200.478 Y160.857 E35.19729
G1 X201.56 Y161.218 E35.24711
