;FLAVOR:Marlin
;TIME:5893
;Filament used: 6.29009m
;Layer height: 0.25
;MINX:121.25
;MINY:155.548
;MINZ:0.25
;MAXX:228.75
;MAXY:189.205
;MAXZ:102.25
;TARGET_MACHINE.NAME:VORON2 350
;POSTPROCESSED
;  [CreateThumbnail]
;  [CreateThumbnail]
;  [InsertAtLayerChange]
;Generated with Cura_SteamEngine 5.10.1
;
;

;
;

;Nozzle diameter = 0.4
;Filament type = PLA
;Filament name = LW-PLA Light Gray
;Filament weight = [10.590608300781248]; M190 S50
; M109 S210


; Pre-Processed for Cancel-Object support by preprocess_cancellation v0.2.0
; 1 known objects
EXCLUDE_OBJECT_DEFINE NAME=HATCH_FRONT_1_STL CENTER=174.802,174.814 POLYGON=[[129.248,163.465],[129.248,186.38],[220.748,186.38],[220.748,163.465]]
PRINT_START BED_TEMP=50 EXTRUDER_TEMP=210
M82 ;absolute extrusion mode
M141 S10
G92 E0
G92 E0
G1 F3000 E-1
;LAYER_COUNT:409
;LAYER:0
TIMELAPSE_TAKE_FRAME
M107
G0 F7200 X124.349 Y171.221 Z0.25
;TYPE:SKIRT
G1 F3000 E0.20788
G1 F1800 X125.002 Y170.768 E0.24259
G1 X126.636 Y169.829 E0.32491
G1 X127.888 Y169.137 E0.38739
G1 X129.191 Y168.445 E0.45184
G1 X130.544 Y167.762 E0.51804
G1 X132.237 Y166.935 E0.60034
G1 X133.425 Y166.379 E0.65763
G1 X134.475 Y165.902 E0.70801
G1 X135.785 Y165.328 E0.77048
G1 X137.371 Y164.668 E0.84552
G1 X138.814 Y164.091 E0.9134
G1 X140.028 Y163.623 E0.97023
G1 X141.382 Y163.12 E1.03332
G1 X142.916 Y162.575 E1.10443
G1 X144.535 Y162.029 E1.17906
G1 X147.305 Y161.147 E1.30604
G1 X149.044 Y160.636 E1.38521
G1 X150.752 Y160.151 E1.46277
G1 X152.801 Y159.61 E1.55533
G1 X154.457 Y159.194 E1.62991
G1 X157.013 Y158.581 E1.74473
G1 X159.979 Y157.934 E1.87733
G1 X162.322 Y157.459 E1.98175
G1 X165.734 Y156.817 E2.1334
G1 X167.456 Y156.516 E2.20976
G1 X170.513 Y156.025 E2.345
G1 X172.075 Y155.798 E2.41395
G1 X174.005 Y155.548 E2.49895
G1 X175.999 Y155.548 E2.58605
G1 X177.756 Y155.778 E2.66345
G1 X179.743 Y156.065 E2.75114
G1 X184.082 Y156.781 E2.94323
G1 X185.732 Y157.082 E3.01649
G1 X187.794 Y157.481 E3.10823
G1 X189.482 Y157.826 E3.18349
G1 X191.115 Y158.172 E3.2564
G1 X192.868 Y158.56 E3.33483
G1 X194.725 Y158.994 E3.41812
G1 X196.783 Y159.5 E3.5107
G1 X198.906 Y160.062 E3.60662
G1 X201.112 Y160.688 E3.70678
G1 X203.148 Y161.291 E3.79954
G1 X204.73 Y161.789 E3.87198
G1 X206.266 Y162.3 E3.94269
G1 X208.553 Y163.102 E4.04855
G1 X209.963 Y163.621 E4.11418
G1 X211.392 Y164.169 E4.18103
G1 X213.332 Y164.959 E4.27252
G1 X214.726 Y165.548 E4.33862
G1 X215.926 Y166.073 E4.39584
G1 X217.382 Y166.742 E4.46583
G1 X218.851 Y167.449 E4.53704
G1 X220.092 Y168.071 E4.59767
G1 X221.676 Y168.899 E4.67574
G1 X223.887 Y170.125 E4.78617
G1 X225.777 Y171.33 E4.88408
G1 X226.501 Y171.993 E4.92696
G1 X227.335 Y172.997 E4.98397
G1 X227.906 Y173.964 E5.03302
G1 X228.462 Y175.386 E5.09972
G1 X228.599 Y175.975 E5.12613
G1 X228.75 Y177.471 E5.19181
G1 X228.7 Y182.193 E5.39808
G1 X228.559 Y183.04 E5.43558
G1 X228.107 Y184.479 E5.50147
G1 X227.78 Y185.16 E5.53446
G1 X227.353 Y185.837 E5.56943
G1 X226.698 Y186.651 E5.61506
G1 X225.449 Y187.776 E5.68849
G1 X224.747 Y188.218 E5.72472
G1 X223.887 Y188.631 E5.76639
G1 X222.991 Y188.939 E5.80778
G1 X222.369 Y189.077 E5.83561
G1 X220.678 Y189.198 E5.90966
G1 X219.966 Y189.138 E5.94087
G1 X219.164 Y188.99 E5.97649
G1 X217.614 Y188.46 E6.04804
G1 X216.988 Y188.14 E6.07875
G1 X215.916 Y187.487 E6.13358
G1 X215.046 Y186.974 E6.1777
G1 X213.976 Y186.365 E6.23148
G1 X212.972 Y185.814 E6.2815
G1 X211.9 Y185.247 E6.33447
G1 X210.911 Y184.739 E6.38304
G1 X209.795 Y184.196 E6.43725
G1 X208.145 Y183.429 E6.51673
G1 X206.326 Y182.635 E6.60342
G1 X205.055 Y182.109 E6.6635
G1 X202.844 Y181.252 E6.76708
G1 X201.526 Y180.775 E6.8283
G1 X198.963 Y179.909 E6.94647
G1 X197.24 Y179.364 E7.02541
G1 X195.4 Y178.819 E7.10923
G1 X193.458 Y178.282 E7.19724
G1 X191.844 Y177.869 E7.27001
G1 X190.533 Y177.548 E7.32897
G1 X187.829 Y176.918 E7.45024
G1 X186.316 Y176.586 E7.5179
G1 X183.617 Y176.035 E7.63823
G1 X181.009 Y175.543 E7.75415
G1 X177.681 Y174.974 E7.90163
G1 X176.111 Y174.736 E7.97099
G1 X175.037 Y174.59 E8.01833
G1 X173.113 Y174.859 E8.10319
G1 X171.817 Y175.058 E8.16046
G1 X169.989 Y175.379 E8.24153
G1 X167.336 Y175.861 E8.35931
G1 X164.615 Y176.389 E8.48038
G1 X162.309 Y176.88 E8.58337
G1 X160.657 Y177.255 E8.65736
G1 X159.483 Y177.535 E8.71008
G1 X158.218 Y177.853 E8.76705
G1 X155.872 Y178.472 E8.87303
G1 X153.564 Y179.129 E8.97785
G1 X152.426 Y179.466 E9.02969
G1 X149.989 Y180.252 E9.14154
G1 X148.503 Y180.762 E9.21017
G1 X147.457 Y181.142 E9.25878
G1 X146.152 Y181.639 E9.31977
G1 X144.405 Y182.333 E9.40188
G1 X143.075 Y182.887 E9.46481
G1 X142.234 Y183.257 E9.50495
G1 X141.236 Y183.713 E9.55287
G1 X139.852 Y184.366 E9.61972
G1 X138.974 Y184.794 E9.66238
G1 X138 Y185.29 E9.71013
G1 X136.985 Y185.825 E9.76024
G1 X136.104 Y186.312 E9.80421
G1 X134.98 Y186.955 E9.86078
G1 X132.938 Y188.18 E9.96479
G1 X131.799 Y188.713 E10.01972
G1 X131.293 Y188.877 E10.04295
G1 X129.65 Y189.187 E10.11598
G1 X128.823 Y189.205 E10.15212
G1 X128.021 Y189.14 E10.18726
G1 X126.622 Y188.808 E10.25007
G1 X125.528 Y188.355 E10.30179
G1 X124.571 Y187.776 E10.35065
G1 X123.569 Y186.947 E10.40745
G1 X122.816 Y186.088 E10.45735
G1 X122.41 Y185.461 E10.48997
G1 X121.809 Y184.239 E10.54946
G1 X121.472 Y183.175 E10.59821
G1 X121.3 Y182.187 E10.64201
G1 X121.25 Y181.384 E10.67716
G1 X121.297 Y176.677 E10.88277
G1 X121.355 Y176.252 E10.9015
G1 X121.575 Y175.303 E10.94405
G1 X121.999 Y174.158 E10.99739
G1 X122.591 Y173.105 E11.05015
G1 X123.226 Y172.264 E11.09618
G1 X123.463 Y172.006 E11.11149
G1 X124.349 Y171.221 E11.16319
G0 F7200 X124.578 Y171.549
G1 F1800 X125.201 Y171.115 E11.19636
G1 X126.829 Y170.179 E11.27838
G1 X128.076 Y169.49 E11.34061
G1 X129.371 Y168.802 E11.40466
G1 X130.719 Y168.121 E11.47063
G1 X132.407 Y167.297 E11.55268
G1 X133.591 Y166.743 E11.60978
G1 X134.636 Y166.268 E11.65992
G1 X135.939 Y165.697 E11.72206
G1 X137.52 Y165.039 E11.79686
G1 X138.958 Y164.464 E11.86451
G1 X140.167 Y163.998 E11.9211
G1 X141.516 Y163.497 E11.98396
G1 X143.044 Y162.954 E12.05479
G1 X144.656 Y162.41 E12.1291
G1 X147.418 Y161.531 E12.25571
G1 X149.153 Y161.021 E12.3347
G1 X150.854 Y160.538 E12.41194
G1 X152.898 Y159.998 E12.50428
G1 X154.55 Y159.583 E12.57868
G1 X157.098 Y158.972 E12.69313
G1 X160.058 Y158.326 E12.82547
G1 X162.396 Y157.852 E12.92967
G1 X165.803 Y157.211 E13.0811
G1 X167.519 Y156.911 E13.15719
G1 X170.571 Y156.421 E13.29221
G1 X172.126 Y156.195 E13.36085
G1 X174.056 Y155.945 E13.44585
G1 X175.947 Y155.945 E13.52845
G1 X177.699 Y156.174 E13.60563
G1 X179.678 Y156.46 E13.69297
G1 X184.01 Y157.175 E13.88475
G1 X185.656 Y157.475 E13.95783
G1 X187.714 Y157.873 E14.04939
G1 X189.399 Y158.217 E14.12451
G1 X191.029 Y158.563 E14.1973
G1 X192.777 Y158.95 E14.2755
G1 X194.634 Y159.384 E14.3588
G1 X196.681 Y159.887 E14.45087
G1 X198.797 Y160.447 E14.54648
G1 X200.998 Y161.071 E14.64641
G1 X203.028 Y161.673 E14.73889
G1 X204.604 Y162.169 E14.81106
G1 X206.134 Y162.677 E14.88148
G1 X208.415 Y163.477 E14.98706
G1 X209.82 Y163.994 E15.05246
G1 X211.241 Y164.539 E15.11893
G1 X213.176 Y165.327 E15.21019
G1 X214.566 Y165.915 E15.27612
G1 X215.759 Y166.436 E15.33298
G1 X217.209 Y167.102 E15.40268
G1 X218.672 Y167.806 E15.4736
G1 X219.907 Y168.426 E15.53396
G1 X221.482 Y169.249 E15.61158
G1 X223.673 Y170.463 E15.72099
G1 X225.508 Y171.626 E15.81589
G1 X226.193 Y172.249 E15.85633
G1 X227.027 Y173.253 E15.91334
G1 X227.534 Y174.111 E15.95687
G1 X228.072 Y175.477 E16.021
G1 X228.209 Y176.066 E16.04741
G1 X228.35 Y177.467 E16.10892
G1 X228.3 Y182.189 E16.31519
G1 X228.177 Y182.92 E16.34757
G1 X227.725 Y184.359 E16.41345
G1 X227.42 Y184.985 E16.44387
G1 X227.041 Y185.586 E16.4749
G1 X226.386 Y186.4 E16.52054
G1 X225.182 Y187.478 E16.59113
G1 X224.574 Y187.857 E16.62242
G1 X223.714 Y188.27 E16.6641
G1 X222.904 Y188.548 E16.7015
G1 X222.282 Y188.686 E16.72933
G1 X220.712 Y188.799 E16.79809
G1 X220 Y188.739 E16.8293
G1 X219.237 Y188.597 E16.8632
G1 X217.796 Y188.104 E16.92972
G1 X217.196 Y187.798 E16.95914
G1 X216.124 Y187.145 E17.01397
G1 X215.249 Y186.629 E17.05834
G1 X214.174 Y186.017 E17.11237
G1 X213.159 Y185.46 E17.16294
G1 X212.087 Y184.893 E17.21591
G1 X211.094 Y184.383 E17.26467
G1 X209.97 Y183.836 E17.31928
G1 X208.314 Y183.066 E17.39905
G1 X206.486 Y182.268 E17.48617
G1 X205.208 Y181.739 E17.54659
G1 X202.989 Y180.879 E17.65054
G1 X201.654 Y180.396 E17.71255
G1 X199.091 Y179.53 E17.83072
G1 X197.354 Y178.98 E17.9103
G1 X195.514 Y178.435 E17.99413
G1 X193.565 Y177.896 E18.08245
G1 X191.943 Y177.481 E18.15558
G1 X190.628 Y177.159 E18.21472
G1 X187.92 Y176.528 E18.33617
G1 X186.402 Y176.195 E18.40406
G1 X183.697 Y175.643 E18.52465
G1 X181.083 Y175.15 E18.64084
G1 X177.748 Y174.58 E18.78862
G1 X176.165 Y174.34 E18.85856
G1 X175.036 Y174.187 E18.90832
G1 X173.058 Y174.463 E18.99556
G1 X171.748 Y174.664 E19.05345
G1 X169.917 Y174.985 E19.13465
G1 X167.264 Y175.467 E19.25243
G1 X164.539 Y175.996 E19.37368
G1 X162.22 Y176.49 E19.47724
G1 X160.568 Y176.865 E19.55124
G1 X159.385 Y177.147 E19.60436
G1 X158.12 Y177.465 E19.66134
G1 X155.77 Y178.085 E19.7675
G1 X153.45 Y178.745 E19.87285
G1 X152.312 Y179.082 E19.92469
G1 X149.866 Y179.872 E20.03697
G1 X148.366 Y180.386 E20.10623
G1 X147.32 Y180.766 E20.15484
G1 X146.004 Y181.267 E20.21635
G1 X144.257 Y181.961 E20.29846
G1 X142.921 Y182.518 E20.36168
G1 X142.068 Y182.893 E20.40238
G1 X141.065 Y183.351 E20.45055
G1 X139.681 Y184.004 E20.51739
G1 X138.799 Y184.434 E20.56025
G1 X137.818 Y184.934 E20.60834
G1 X136.791 Y185.475 E20.65905
G1 X135.91 Y185.962 E20.70302
G1 X134.781 Y186.608 E20.75983
G1 X132.732 Y187.837 E20.8642
G1 X131.673 Y188.333 E20.91528
G1 X131.218 Y188.484 E20.93622
G1 X129.64 Y188.787 E21.00641
G1 X128.855 Y188.806 E21.0407
G1 X128.053 Y188.741 E21.07585
G1 X126.775 Y188.438 E21.13322
G1 X125.681 Y187.985 E21.18494
G1 X124.825 Y187.467 E21.22864
G1 X123.869 Y186.682 E21.28268
G1 X123.151 Y185.869 E21.33005
G1 X122.769 Y185.284 E21.36057
G1 X122.168 Y184.062 E21.42006
G1 X121.866 Y183.105 E21.46389
G1 X121.699 Y182.162 E21.50572
G1 X121.65 Y181.388 E21.5396
G1 X121.694 Y176.729 E21.74311
G1 X121.745 Y176.341 E21.7602
G1 X121.95 Y175.442 E21.80048
G1 X122.374 Y174.297 E21.85381
G1 X122.91 Y173.346 E21.9015
G1 X123.521 Y172.535 E21.94585
G1 X123.758 Y172.277 E21.96115
G1 X124.578 Y171.549 E22.00905
G0 F7200 X124.843 Y171.849
G1 F1800 X125.4 Y171.462 E22.03867
G1 X127.023 Y170.529 E22.12044
G1 X128.264 Y169.843 E22.18238
G1 X129.551 Y169.159 E22.24604
G1 X130.894 Y168.48 E22.31178
G1 X132.576 Y167.659 E22.39353
G1 X133.756 Y167.107 E22.45043
G1 X134.797 Y166.634 E22.50038
G1 X136.093 Y166.066 E22.56219
G1 X137.669 Y165.41 E22.63675
G1 X139.102 Y164.837 E22.70416
G1 X140.306 Y164.373 E22.76052
G1 X141.65 Y163.874 E22.82315
G1 X143.172 Y163.333 E22.8937
G1 X144.777 Y162.791 E22.9677
G1 X147.531 Y161.915 E23.09393
G1 X149.262 Y161.406 E23.17274
G1 X150.956 Y160.925 E23.24966
G1 X152.995 Y160.386 E23.34178
G1 X154.643 Y159.972 E23.416
G1 X157.183 Y159.363 E23.5301
G1 X160.137 Y158.718 E23.66217
G1 X162.47 Y158.245 E23.76614
G1 X165.872 Y157.605 E23.91735
G1 X167.582 Y157.306 E23.99318
G1 X170.628 Y156.817 E24.12793
G1 X172.177 Y156.592 E24.1963
G1 X174.107 Y156.342 E24.28131
G1 X175.895 Y156.342 E24.35941
G1 X177.642 Y156.57 E24.43636
G1 X179.614 Y156.855 E24.52339
G1 X181.598 Y157.176 E24.61118
G1 X183.938 Y157.569 E24.71482
G1 X185.58 Y157.868 E24.78772
G1 X187.634 Y158.265 E24.8791
G1 X189.316 Y158.608 E24.95409
G1 X190.943 Y158.954 E25.02674
G1 X192.686 Y159.34 E25.10472
G1 X194.538 Y159.772 E25.18779
G1 X196.579 Y160.274 E25.2796
G1 X198.688 Y160.832 E25.37489
G1 X200.884 Y161.454 E25.47458
G1 X202.908 Y162.055 E25.5668
G1 X204.478 Y162.549 E25.6387
G1 X206.002 Y163.055 E25.70884
G1 X208.277 Y163.852 E25.81413
G1 X209.677 Y164.367 E25.87929
G1 X211.09 Y164.909 E25.94539
G1 X213.02 Y165.695 E26.03642
G1 X214.406 Y166.282 E26.10216
G1 X215.592 Y166.8 E26.15869
G1 X217.036 Y167.463 E26.2281
G1 X218.492 Y168.163 E26.29867
G1 X219.722 Y168.781 E26.35879
G1 X221.288 Y169.599 E26.43596
G1 X223.479 Y170.813 E26.54538
G1 X225.24 Y171.923 E26.6363
G1 X225.885 Y172.505 E26.67425
G1 X226.719 Y173.509 E26.73126
G1 X227.162 Y174.259 E26.76931
G1 X227.682 Y175.568 E26.83083
G1 X227.819 Y176.157 E26.85725
G1 X227.95 Y177.463 E26.91458
G1 X227.9 Y182.185 E27.12085
G1 X227.795 Y182.801 E27.14814
G1 X227.365 Y184.184 E27.2114
G1 X227.06 Y184.81 E27.24182
G1 X226.729 Y185.335 E27.26893
G1 X226.074 Y186.149 E27.31457
G1 X224.969 Y187.139 E27.37937
G1 X224.401 Y187.496 E27.40867
G1 X223.541 Y187.909 E27.45035
G1 X222.817 Y188.157 E27.48377
G1 X222.195 Y188.295 E27.5116
G1 X220.746 Y188.4 E27.57506
G1 X220.034 Y188.34 E27.60627
G1 X219.311 Y188.204 E27.63841
G1 X217.977 Y187.747 E27.7
G1 X217.404 Y187.456 E27.72807
G1 X216.332 Y186.803 E27.7829
G1 X215.452 Y186.284 E27.82752
G1 X214.372 Y185.669 E27.88181
G1 X213.352 Y185.109 E27.93264
G1 X212.274 Y184.539 E27.9859
G1 X211.277 Y184.027 E28.03486
G1 X210.145 Y183.476 E28.08985
G1 X208.483 Y182.703 E28.16991
G1 X206.646 Y181.901 E28.25747
G1 X205.361 Y181.369 E28.31822
G1 X203.134 Y180.506 E28.42254
G1 X201.782 Y180.017 E28.48534
G1 X199.219 Y179.151 E28.60351
G1 X197.475 Y178.599 E28.68341
G1 X195.621 Y178.049 E28.76788
G1 X193.672 Y177.51 E28.85621
G1 X192.042 Y177.093 E28.9297
G1 X190.723 Y176.77 E28.98902
G1 X188.011 Y176.138 E29.11065
G1 X186.488 Y175.804 E29.17876
G1 X183.777 Y175.251 E29.29961
G1 X181.157 Y174.757 E29.41607
G1 X177.815 Y174.186 E29.56416
G1 X176.219 Y173.944 E29.63467
G1 X175.035 Y173.783 E29.68687
G1 X173.003 Y174.067 E29.77649
G1 X171.679 Y174.27 E29.83499
G1 X169.845 Y174.591 E29.91632
G1 X167.192 Y175.073 E30.0341
G1 X164.463 Y175.603 E30.15553
G1 X162.131 Y176.1 E30.25968
G1 X160.479 Y176.475 E30.33367
G1 X159.287 Y176.759 E30.3872
G1 X158.022 Y177.077 E30.44417
G1 X155.668 Y177.698 E30.55051
G1 X153.341 Y178.36 E30.65619
G1 X152.191 Y178.701 E30.70858
G1 X150.731 Y179.166 E30.77551
G1 X149.741 Y179.492 E30.82104
G1 X148.229 Y180.01 E30.89085
G1 X147.183 Y180.39 E30.93946
G1 X145.856 Y180.895 E31.00148
G1 X144.109 Y181.589 E31.08359
G1 X142.767 Y182.149 E31.14711
G1 X141.902 Y182.529 E31.18838
G1 X140.894 Y182.989 E31.23677
G1 X139.51 Y183.642 E31.30362
G1 X138.624 Y184.074 E31.34667
G1 X137.636 Y184.578 E31.39512
G1 X136.597 Y185.125 E31.44641
G1 X135.716 Y185.612 E31.49038
G1 X134.582 Y186.261 E31.54745
G1 X132.526 Y187.494 E31.65217
G1 X131.544 Y187.954 E31.69953
G1 X131.141 Y188.091 E31.71813
G1 X129.629 Y188.387 E31.78542
G1 X128.887 Y188.407 E31.81785
G1 X128.085 Y188.342 E31.85299
G1 X126.928 Y188.068 E31.90493
G1 X125.834 Y187.615 E31.95665
G1 X125.079 Y187.158 E31.9952
G1 X124.123 Y186.373 E32.04923
G1 X123.485 Y185.649 E32.09138
G1 X123.127 Y185.106 E32.11979
G1 X122.549 Y183.941 E32.17659
G1 X122.26 Y183.034 E32.21818
G1 X122.098 Y182.136 E32.25803
G1 X122.05 Y181.392 E32.2906
G1 X122.094 Y176.733 E32.49411
G1 X122.135 Y176.43 E32.50747
G1 X122.34 Y175.531 E32.54774
G1 X122.723 Y174.492 E32.59611
G1 X123.23 Y173.586 E32.64146
G1 X123.816 Y172.806 E32.68408
G1 X124.053 Y172.548 E32.69938
G1 X124.843 Y171.849 E32.74545
G0 F7200 X125.072 Y172.177
G1 F1800 X125.6 Y171.809 E32.77357
G1 X127.216 Y170.879 E32.85501
G1 X128.452 Y170.196 E32.91669
G1 X129.731 Y169.516 E32.97996
G1 X131.07 Y168.839 E33.0455
G1 X132.745 Y168.021 E33.12692
G1 X133.921 Y167.471 E33.18363
G1 X134.958 Y167 E33.23338
G1 X136.247 Y166.435 E33.29485
G1 X137.818 Y165.781 E33.36918
G1 X139.246 Y165.21 E33.43636
G1 X140.445 Y164.748 E33.49249
G1 X141.784 Y164.251 E33.55487
G1 X143.3 Y163.712 E33.62515
G1 X144.898 Y163.172 E33.69883
G1 X147.644 Y162.299 E33.82469
G1 X149.371 Y161.791 E33.90332
G1 X151.058 Y161.312 E33.97992
G1 X153.092 Y160.774 E34.07182
G1 X154.736 Y160.361 E34.14586
G1 X157.268 Y159.754 E34.25959
G1 X160.216 Y159.11 E34.3914
G1 X162.544 Y158.638 E34.49516
G1 X165.941 Y157.999 E34.64614
G1 X167.645 Y157.701 E34.7217
G1 X170.686 Y157.213 E34.85623
G1 X172.228 Y156.989 E34.92429
G1 X174.158 Y156.739 E35.0093
G1 X175.843 Y156.739 E35.0829
G1 X177.585 Y156.966 E35.15963
G1 X179.55 Y157.25 E35.24635
G1 X181.532 Y157.57 E35.33405
