;FLAVOR:Marlin
;TIME:1197
;Filament used: 0.891832m
;Layer height: 0.25
;MINX:128.224
;MINY:159.867
;MINZ:0.25
;MAXX:223.762
;MAXY:182.245
;MAXZ:15
;TARGET_MACHINE.NAME:VORON2 350
;POSTPROCESSED
;  [CreateThumbnail]
;  [CreateThumbnail]
;  [InsertAtLayerChange]
;Generated with Cura_SteamEngine 5.10.2
;
;

;
;

;Nozzle diameter = 0.4
;Filament type = PLA
;Filament name = LW-PLA Light Gray
;Filament weight = [1.5015753662109372]; M190 S50
; M109 S210


; Pre-Processed for Cancel-Object support by preprocess_cancellation v0.2.0
; 1 known objects
EXCLUDE_OBJECT_DEFINE NAME=V_TAIL_TIP_R_STL CENTER=187.108,171.023 POLYGON=[[134.254,167.865],[134.254,174.244],[215.781,174.244],[215.781,167.865]]
PRINT_START BED_TEMP=50 EXTRUDER_TEMP=210
M82 ;absolute extrusion mode
M141 S10
G92 E0
G92 E0
G1 F2100 E-3
;LAYER_COUNT:60
;LAYER:0
TIMELAPSE_TAKE_FRAME
M107
G0 F7200 X130.826 Y164.322 Z0.25
;TYPE:SKIRT
G1 F2100 E0.41575
G1 F1800 X131.76 Y163.594 E0.46748
G1 X132.226 Y163.313 E0.49125
G1 X133.707 Y162.663 E0.56189
G1 X133.956 Y162.59 E0.57323
G1 X135.462 Y162.31 E0.64014
G1 X139.82 Y161.981 E0.83104
G1 X145.577 Y161.581 E1.08311
G1 X151.79 Y161.186 E1.35504
G1 X160.809 Y160.666 E1.74964
G1 X167.553 Y160.351 E2.04454
G1 X173.568 Y160.125 E2.30746
G1 X176.206 Y160.046 E2.42274
G1 X180.563 Y159.943 E2.61311
G1 X183.713 Y159.894 E2.75071
G1 X186.689 Y159.869 E2.88071
G1 X189.021 Y159.867 E2.98257
G1 X191.624 Y159.887 E3.09627
G1 X195.079 Y159.948 E3.24721
G1 X197.72 Y160.025 E3.36262
G1 X202.378 Y160.266 E3.56635
G1 X204.536 Y160.426 E3.66087
G1 X206.185 Y160.569 E3.73317
G1 X207.891 Y160.746 E3.80809
G1 X210.261 Y161.062 E3.91253
G1 X211.385 Y161.232 E3.96218
G1 X212.49 Y161.43 E4.01122
G1 X213.593 Y161.647 E4.06032
G1 X214.892 Y161.963 E4.11871
G1 X215.902 Y162.243 E4.16449
G1 X216.762 Y162.518 E4.20393
G1 X217.445 Y162.774 E4.23579
G1 X218.642 Y163.333 E4.2935
G1 X219.429 Y163.79 E4.33325
G1 X220.296 Y164.413 E4.37988
G1 X221.423 Y165.434 E4.44631
G1 X221.926 Y166.02 E4.48004
G1 X222.777 Y167.317 E4.5478
G1 X223.127 Y168.062 E4.58375
G1 X223.498 Y169.164 E4.63454
G1 X223.724 Y170.342 E4.68694
G1 X223.762 Y170.982 E4.71494
G1 X223.612 Y172.891 E4.79858
G1 X223.388 Y173.764 E4.83795
G1 X222.849 Y175.078 E4.89999
G1 X222.273 Y176.036 E4.94881
G1 X221.437 Y177.08 E5.00723
G1 X220.748 Y177.751 E5.04924
G1 X220.046 Y178.31 E5.08844
G1 X219.109 Y178.93 E5.13752
G1 X218.38 Y179.329 E5.17382
G1 X217.855 Y179.573 E5.19911
G1 X216.7 Y180.007 E5.253
G1 X215.622 Y180.329 E5.30214
G1 X214.593 Y180.595 E5.34857
G1 X213.517 Y180.836 E5.39673
G1 X212.257 Y181.07 E5.45271
G1 X211.301 Y181.217 E5.49496
G1 X209.949 Y181.402 E5.55456
G1 X208.61 Y181.561 E5.61346
G1 X206.231 Y181.791 E5.71786
G1 X202.86 Y182.021 E5.86545
G1 X200.592 Y182.118 E5.9646
G1 X198.65 Y182.175 E6.04947
G1 X196.587 Y182.217 E6.1396
G1 X194.001 Y182.242 E6.25256
G1 X192.149 Y182.245 E6.33345
G1 X189.361 Y182.225 E6.45524
G1 X186.499 Y182.178 E6.58027
G1 X183.484 Y182.103 E6.712
G1 X180.234 Y181.999 E6.85403
G1 X175.904 Y181.809 E7.04335
G1 X171.249 Y181.576 E7.24693
G1 X166.947 Y181.333 E7.43514
G1 X162.113 Y181.028 E7.64671
G1 X156.545 Y180.642 E7.89051
G1 X151.052 Y180.231 E8.13111
G1 X145.529 Y179.772 E8.37319
G1 X140.33 Y179.32 E8.60114
G1 X134.651 Y178.75 E8.85044
G1 X134.131 Y178.633 E8.87372
G1 X132.894 Y178.211 E8.93081
G1 X131.983 Y177.747 E8.97547
G1 X131.562 Y177.474 E8.99738
G1 X130.68 Y176.74 E9.04751
G1 X129.782 Y175.745 E9.10605
G1 X129.48 Y175.306 E9.12932
G1 X128.806 Y173.982 E9.19422
G1 X128.569 Y173.298 E9.22584
G1 X128.285 Y171.904 E9.28798
G1 X128.224 Y170.998 E9.32764
G1 X128.24 Y170.081 E9.3677
G1 X128.301 Y169.304 E9.40175
G1 X128.721 Y167.456 E9.48453
G1 X128.968 Y166.848 E9.51319
G1 X129.598 Y165.729 E9.56928
G1 X130.116 Y165.056 E9.60638
G1 X130.826 Y164.322 E9.65099
G0 F7200 X131.114 Y164.6
G1 F1800 X131.967 Y163.937 E9.69818
G1 X132.433 Y163.656 E9.72194
G1 X133.82 Y163.047 E9.78811
G1 X134.069 Y162.974 E9.79945
G1 X135.492 Y162.709 E9.86267
G1 X139.848 Y162.38 E10.05348
G1 X145.602 Y161.98 E10.30542
G1 X151.813 Y161.585 E10.57727
G1 X160.828 Y161.066 E10.97169
G1 X167.568 Y160.751 E11.26642
G1 X173.58 Y160.525 E11.52921
G1 X176.215 Y160.446 E11.64435
G1 X180.569 Y160.343 E11.83459
G1 X183.716 Y160.294 E11.97207
G1 X186.689 Y160.269 E12.10193
G1 X189.018 Y160.267 E12.20366
G1 X191.617 Y160.287 E12.31719
G1 X195.067 Y160.348 E12.46791
G1 X197.7 Y160.425 E12.58297
G1 X200.495 Y160.563 E12.7052
G1 X202.349 Y160.665 E12.78631
G1 X204.501 Y160.824 E12.88056
G1 X206.144 Y160.967 E12.9526
G1 X207.838 Y161.142 E13.02699
G1 X210.201 Y161.457 E13.13112
G1 X211.314 Y161.626 E13.18029
G1 X212.413 Y161.823 E13.22906
G1 X213.499 Y162.036 E13.2774
G1 X214.785 Y162.348 E13.3352
G1 X215.78 Y162.624 E13.3803
G1 X216.622 Y162.893 E13.41891
G1 X217.305 Y163.149 E13.45077
G1 X218.441 Y163.679 E13.50553
G1 X219.228 Y164.136 E13.54528
G1 X220.028 Y164.71 E13.58829
G1 X221.119 Y165.695 E13.65249
G1 X221.622 Y166.281 E13.68622
G1 X222.442 Y167.536 E13.75171
G1 X222.748 Y168.191 E13.78329
G1 X223.105 Y169.239 E13.83165
G1 X223.331 Y170.417 E13.88404
G1 X223.363 Y170.951 E13.90741
G1 X223.213 Y172.86 E13.99105
G1 X223.017 Y173.613 E14.02503
G1 X222.505 Y174.873 E14.08444
G1 X221.96 Y175.787 E14.13092
G1 X221.158 Y176.793 E14.18712
G1 X220.469 Y177.464 E14.22913
G1 X219.825 Y177.976 E14.26507
G1 X218.888 Y178.596 E14.31414
G1 X218.211 Y178.966 E14.34784
G1 X217.686 Y179.21 E14.37313
G1 X216.585 Y179.624 E14.42451
G1 X215.522 Y179.942 E14.47297
G1 X214.505 Y180.205 E14.51886
G1 X213.444 Y180.443 E14.56635
G1 X212.196 Y180.675 E14.6218
G1 X211.247 Y180.821 E14.66374
G1 X209.902 Y181.005 E14.72304
G1 X208.571 Y181.163 E14.78158
G1 X206.204 Y181.392 E14.88546
G1 X202.843 Y181.621 E15.0326
G1 X200.58 Y181.718 E15.13154
G1 X198.642 Y181.775 E15.21623
G1 X196.583 Y181.817 E15.30619
G1 X194 Y181.842 E15.41902
G1 X192.152 Y181.845 E15.49974
G1 X189.368 Y181.825 E15.62135
G1 X186.509 Y181.778 E15.74624
G1 X183.497 Y181.703 E15.87785
G1 X180.251 Y181.599 E16.01971
G1 X175.924 Y181.41 E16.20889
G1 X171.272 Y181.177 E16.41234
G1 X166.972 Y180.934 E16.60047
G1 X162.141 Y180.629 E16.8119
G1 X156.575 Y180.243 E17.05561
G1 X151.085 Y179.832 E17.29608
G1 X145.564 Y179.373 E17.53807
G1 X140.37 Y178.922 E17.7658
G1 X134.737 Y178.359 E18.01307
G1 X134.259 Y178.254 E18.03445
G1 X133.075 Y177.854 E18.08904
G1 X132.201 Y177.411 E18.13184
G1 X131.78 Y177.138 E18.15376
G1 X130.976 Y176.471 E18.19939
G1 X130.112 Y175.518 E18.25558
G1 X129.81 Y175.079 E18.27885
G1 X129.183 Y173.849 E18.33915
G1 X128.961 Y173.217 E18.36841
G1 X128.684 Y171.877 E18.42818
G1 X128.624 Y171.005 E18.46636
G1 X128.639 Y170.112 E18.50537
G1 X128.7 Y169.335 E18.53942
G1 X129.092 Y167.607 E18.61681
G1 X129.339 Y166.999 E18.64548
G1 X129.916 Y165.972 E18.69693
G1 X130.404 Y165.334 E18.73202
G1 X131.114 Y164.6 E18.77662
G0 F7200 X131.402 Y164.878
G1 F1800 X132.174 Y164.28 E18.81928
G1 X132.64 Y163.999 E18.84305
G1 X133.933 Y163.431 E18.90474
G1 X134.182 Y163.358 E18.91607
G1 X135.522 Y163.108 E18.97561
G1 X139.876 Y162.779 E19.16633
G1 X145.627 Y162.379 E19.41814
G1 X151.836 Y161.984 E19.6899
G1 X160.847 Y161.466 E20.08415
G1 X167.583 Y161.151 E20.3787
G1 X173.592 Y160.925 E20.64136
G1 X176.224 Y160.846 E20.75638
G1 X180.575 Y160.743 E20.94648
G1 X183.719 Y160.694 E21.08383
G1 X186.689 Y160.669 E21.21356
G1 X189.015 Y160.667 E21.31516
G1 X191.61 Y160.687 E21.42851
G1 X195.055 Y160.748 E21.57901
G1 X197.68 Y160.825 E21.69372
G1 X200.473 Y160.962 E21.81587
G1 X202.319 Y161.064 E21.89662
G1 X204.466 Y161.223 E21.99066
G1 X206.103 Y161.365 E22.06243
G1 X207.785 Y161.538 E22.13629
G1 X210.141 Y161.852 E22.24011
G1 X211.244 Y162.02 E22.28885
G1 X212.336 Y162.215 E22.3373
G1 X213.405 Y162.425 E22.38488
G1 X214.678 Y162.733 E22.44209
G1 X215.658 Y163.005 E22.48652
G1 X216.482 Y163.268 E22.5243
G1 X217.136 Y163.512 E22.55479
G1 X218.24 Y164.025 E22.60796
G1 X219.027 Y164.482 E22.64772
G1 X219.76 Y165.007 E22.6871
G1 X220.815 Y165.956 E22.74908
G1 X221.318 Y166.542 E22.78281
G1 X222.08 Y167.707 E22.84362
G1 X222.369 Y168.32 E22.87322
G1 X222.726 Y169.368 E22.92158
G1 X222.938 Y170.491 E22.9715
G1 X222.964 Y170.921 E22.99032
G1 X222.825 Y172.761 E23.07092
G1 X222.646 Y173.462 E23.10252
G1 X222.134 Y174.722 E23.16193
G1 X221.647 Y175.538 E23.20343
G1 X220.878 Y176.507 E23.25747
G1 X220.219 Y177.151 E23.29772
G1 X219.604 Y177.642 E23.33209
G1 X218.667 Y178.262 E23.38117
G1 X218.042 Y178.603 E23.41227
G1 X217.517 Y178.847 E23.43755
G1 X216.444 Y179.25 E23.48762
G1 X215.422 Y179.555 E23.53421
G1 X214.417 Y179.815 E23.57955
G1 X213.371 Y180.05 E23.62638
G1 X212.135 Y180.28 E23.68129
G1 X211.193 Y180.425 E23.72292
G1 X209.855 Y180.608 E23.78191
G1 X208.532 Y180.765 E23.84011
G1 X206.177 Y180.993 E23.94345
G1 X202.826 Y181.221 E24.09016
G1 X200.568 Y181.318 E24.18888
G1 X198.634 Y181.375 E24.2734
G1 X196.579 Y181.417 E24.36318
G1 X193.999 Y181.442 E24.47588
G1 X192.155 Y181.445 E24.55642
G1 X189.375 Y181.425 E24.67786
G1 X186.519 Y181.378 E24.80262
G1 X183.51 Y181.303 E24.9341
G1 X180.268 Y181.199 E25.07578
G1 X175.944 Y181.011 E25.26483
G1 X171.295 Y180.778 E25.46815
G1 X166.997 Y180.535 E25.65619
G1 X162.169 Y180.23 E25.8675
G1 X156.605 Y179.844 E26.11111
G1 X151.118 Y179.433 E26.35146
G1 X145.599 Y178.975 E26.59336
G1 X140.41 Y178.524 E26.82087
G1 X134.823 Y177.968 E27.06611
G1 X134.345 Y177.863 E27.08749
G1 X133.255 Y177.497 E27.13771
G1 X132.419 Y177.075 E27.17862
G1 X131.998 Y176.802 E27.20053
G1 X131.272 Y176.201 E27.2417
G1 X130.442 Y175.291 E27.2955
G1 X130.14 Y174.852 E27.31877
G1 X129.56 Y173.714 E27.37457
G1 X129.353 Y173.136 E27.40138
G1 X129.076 Y171.796 E27.46115
G1 X129.024 Y171.011 E27.49552
G1 X129.038 Y170.143 E27.53343
G1 X129.099 Y169.366 E27.56748
G1 X129.463 Y167.758 E27.63949
G1 X129.71 Y167.15 E27.66816
G1 X130.235 Y166.214 E27.71503
G1 X130.692 Y165.612 E27.74805
G1 X131.402 Y164.878 E27.79265
G0 F7200 X131.69 Y165.156
G1 F1800 X132.381 Y164.623 E27.83077
G1 X132.847 Y164.342 E27.85454
G1 X134.046 Y163.815 E27.91175
G1 X134.295 Y163.742 E27.92308
G1 X135.552 Y163.507 E27.97894
G1 X139.904 Y163.178 E28.16958
G1 X145.652 Y162.778 E28.42126
G1 X151.859 Y162.383 E28.69293
G1 X160.866 Y161.866 E29.087
G1 X167.598 Y161.551 E29.38137
G1 X173.604 Y161.325 E29.6439
G1 X176.233 Y161.246 E29.75879
G1 X180.581 Y161.143 E29.94876
G1 X183.722 Y161.094 E30.08598
G1 X186.689 Y161.069 E30.21558
G1 X189.012 Y161.067 E30.31705
G1 X191.603 Y161.087 E30.43023
G1 X195.043 Y161.148 E30.58051
G1 X197.661 Y161.225 E30.69491
G1 X200.451 Y161.361 E30.81692
G1 X202.29 Y161.463 E30.89737
G1 X204.431 Y161.621 E30.99115
G1 X206.062 Y161.763 E31.06266
G1 X207.732 Y161.934 E31.13599
G1 X210.081 Y162.247 E31.2395
G1 X211.174 Y162.414 E31.28779
G1 X212.259 Y162.607 E31.33593
G1 X213.311 Y162.814 E31.38276
G1 X214.571 Y163.119 E31.43939
G1 X215.536 Y163.386 E31.48312
G1 X216.342 Y163.643 E31.52008
G1 X216.996 Y163.887 E31.55057
G1 X218.039 Y164.371 E31.60079
G1 X218.826 Y164.828 E31.64054
G1 X219.493 Y165.305 E31.67636
G1 X220.511 Y166.217 E31.73606
G1 X221.014 Y166.803 E31.76979
G1 X221.718 Y167.878 E31.82592
G1 X222.007 Y168.491 E31.85552
G1 X222.333 Y169.443 E31.89948
G1 X222.539 Y170.519 E31.94733
G1 X222.565 Y170.892 E31.96366
G1 X222.437 Y172.664 E32.04127
G1 X222.275 Y173.311 E32.0704
G1 X221.763 Y174.571 E32.12981
G1 X221.333 Y175.29 E32.1664
G1 X220.598 Y176.221 E32.21821
G1 X219.939 Y176.865 E32.25846
G1 X219.383 Y177.308 E32.28951
G1 X218.446 Y177.928 E32.33859
G1 X217.873 Y178.24 E32.36709
G1 X217.348 Y178.484 E32.39237
G1 X216.329 Y178.867 E32.43992
G1 X215.322 Y179.168 E32.48583
G1 X214.329 Y179.425 E32.53064
G1 X213.298 Y179.657 E32.5768
G1 X212.074 Y179.885 E32.63118
G1 X211.139 Y180.029 E32.6725
G1 X209.808 Y180.211 E32.73118
G1 X208.493 Y180.367 E32.78902
G1 X206.15 Y180.594 E32.89184
G1 X202.809 Y180.821 E33.03812
G1 X200.556 Y180.918 E33.13662
G1 X198.626 Y180.975 E33.22096
G1 X196.575 Y181.017 E33.31056
G1 X193.998 Y181.042 E33.42313
G1 X192.158 Y181.045 E33.5035
G1 X189.382 Y181.025 E33.62476
G1 X186.529 Y180.978 E33.7494
G1 X183.523 Y180.903 E33.88074
G1 X180.285 Y180.799 E34.02225
G1 X175.964 Y180.612 E34.21116
G1 X171.318 Y180.379 E34.41436
G1 X167.022 Y180.136 E34.60231
G1 X162.197 Y179.831 E34.81348
G1 X156.635 Y179.445 E35.05701
G1 X151.151 Y179.034 E35.29723
G1 X145.634 Y178.576 E35.53904
G1 X140.449 Y178.126 E35.76637
G1 X134.909 Y177.577 E36.00954
G1 X134.431 Y177.472 E36.03092
G1 X133.434 Y177.139 E36.07683
G1 X132.637 Y176.739 E36.11578
G1 X132.216 Y176.466 E36.1377
G1 X131.567 Y175.93 E36.17447
G1 X130.772 Y175.064 E36.22582
G1 X130.47 Y174.625 E36.24909
G1 X129.937 Y173.579 E36.30037
G1 X129.73 Y173.001 E36.32719
G1 X129.468 Y171.716 E36.38447
G1 X129.424 Y171.017 E36.41506
G1 X129.437 Y170.174 E36.45189
G1 X129.498 Y169.397 E36.48593
G1 X129.834 Y167.909 E36.55256
G1 X130.081 Y167.301 E36.58123
G1 X130.554 Y166.455 E36.62357
G1 X130.98 Y165.89 E36.65447
G1 X131.69 Y165.156 E36.69908
G0 F7200 X131.978 Y165.434
G1 F1800 X132.588 Y164.966 E36.73266
G1 X133.054 Y164.685 E36.75643
G1 X134.159 Y164.199 E36.80916
G1 X134.408 Y164.126 E36.8205
G1 X135.582 Y163.906 E36.87267
G1 X139.932 Y163.577 E37.06322
G1 X145.677 Y163.177 E37.31477
G1 X151.882 Y162.782 E37.58635
G1 X160.885 Y162.266 E37.98025
G1 X167.613 Y161.951 E38.27445
G1 X173.616 Y161.725 E38.53684
G1 X176.242 Y161.646 E38.6516
G1 X180.587 Y161.543 E38.84144
G1 X183.725 Y161.494 E38.97852
G1 X186.689 Y161.469 E39.108
G1 X189.009 Y161.467 E39.20933
G1 X191.596 Y161.487 E39.32234
G1 X195.031 Y161.548 E39.4724
G1 X197.642 Y161.625 E39.5865
G1 X200.429 Y161.76 E39.70838
G1 X202.26 Y161.862 E39.78848
G1 X204.396 Y162.02 E39.88203
G1 X206.021 Y162.161 E39.95328
G1 X207.679 Y162.331 E40.02608
G1 X210.02 Y162.642 E40.12924
G1 X211.104 Y162.808 E40.17714
G1 X212.182 Y162.999 E40.22496
G1 X213.217 Y163.203 E40.27104
G1 X214.464 Y163.505 E40.32708
G1 X215.429 Y163.772 E40.37081
G1 X216.202 Y164.018 E40.40625
G1 X216.856 Y164.262 E40.43674
G1 X217.839 Y164.717 E40.48405
G1 X218.594 Y165.154 E40.52215
G1 X219.227 Y165.604 E40.55608
G1 X220.207 Y166.478 E40.61344
G1 X220.71 Y167.064 E40.64717
G1 X221.356 Y168.049 E40.69862
G1 X221.645 Y168.662 E40.72822
G1 X221.94 Y169.519 E40.76781
G1 X222.14 Y170.552 E40.81377
G1 X222.166 Y170.864 E40.82745
G1 X222.048 Y172.569 E40.9021
G1 X221.904 Y173.16 E40.92867
G1 X221.392 Y174.42 E40.98808
G1 X221.018 Y175.043 E41.01982
G1 X220.318 Y175.935 E41.06934
G1 X219.659 Y176.579 E41.10959
G1 X219.162 Y176.975 E41.13735
G1 X218.254 Y177.577 E41.18493
G1 X217.704 Y177.877 E41.2123
G1 X217.179 Y178.121 E41.23759
G1 X216.214 Y178.484 E41.28262
G1 X215.222 Y178.781 E41.32785
G1 X214.241 Y179.035 E41.37212
G1 X213.225 Y179.264 E41.41761
G1 X212.013 Y179.49 E41.47146
G1 X211.085 Y179.633 E41.51247
G1 X209.761 Y179.814 E41.57084
G1 X208.454 Y179.969 E41.62833
G1 X206.123 Y180.195 E41.73063
G1 X202.792 Y180.421 E41.87646
G1 X200.544 Y180.518 E41.97475
G1 X198.618 Y180.575 E42.05891
G1 X196.571 Y180.617 E42.14834
G1 X193.997 Y180.642 E42.26078
G1 X192.161 Y180.645 E42.34098
G1 X189.389 Y180.625 E42.46206
G1 X186.539 Y180.578 E42.58656
G1 X183.536 Y180.503 E42.71778
G1 X180.302 Y180.399 E42.85911
G1 X175.984 Y180.213 E43.04789
G1 X171.341 Y179.98 E43.25096
G1 X167.047 Y179.737 E43.43882
G1 X162.225 Y179.432 E43.64986
G1 X156.665 Y179.046 E43.89331
G1 X151.184 Y178.635 E44.13339
G1 X145.669 Y178.178 E44.37511
G1 X140.488 Y177.728 E44.60227
G1 X134.948 Y177.179 E44.84544
G1 X134.556 Y177.092 E44.86298
G1 X133.613 Y176.781 E44.90635
G1 X132.855 Y176.403 E44.94335
G1 X132.434 Y176.13 E44.96527
G1 X131.861 Y175.658 E44.99769
G1 X131.102 Y174.837 E45.04653
G1 X130.8 Y174.398 E45.0698
G1 X130.314 Y173.444 E45.11657
G1 X130.107 Y172.866 E45.14339
G1 X129.86 Y171.637 E45.19814
G1 X129.824 Y171.023 E45.22501
G1 X129.836 Y170.205 E45.26074
G1 X129.897 Y169.428 E45.29479
G1 X130.205 Y168.06 E45.35604
G1 X130.452 Y167.452 E45.3847
G1 X130.874 Y166.695 E45.42256
G1 X131.268 Y166.168 E45.4513
G1 X131.978 Y165.434 E45.49591
G0 F7200 X132.223 Y165.751
