;FLAVOR:Marlin
;TIME:7397
;Filament used: 4.61536m
;Layer height: 0.25
;MINX:114.618
;MINY:136.934
;MINZ:0.25
;MAXX:243.787
;MAXY:159.326
;MAXZ:108.25
;TARGET_MACHINE.NAME:VORON2 350
;POSTPROCESSED
;  [CreateThumbnail]
;  [CreateThumbnail]
;  [InsertAtLayerChange]
;Generated with Cura_SteamEngine 5.10.2
;
;

;
;

;Nozzle diameter = 0.4
;Filament type = PLA
;Filament name = LW-PLA Light Gray
;Filament weight = [7.770862695312499]; M190 S50
; M109 S210


; Pre-Processed for Cancel-Object support by preprocess_cancellation v0.2.0
; 1 known objects
EXCLUDE_OBJECT_DEFINE NAME=V_TAIL_2_L_STL CENTER=161.994,147.980 POLYGON=[[114.618,143.637],[114.618,152.172],[235.714,152.172],[235.714,143.637]]
PRINT_START BED_TEMP=50 EXTRUDER_TEMP=210
M82 ;absolute extrusion mode
M141 S10
G92 E0
G92 E0
G1 F2100 E-3
;LAYER_COUNT:433
;LAYER:0
TIMELAPSE_TAKE_FRAME
M107
G0 F7200 X150.297 Y142.372 Z0.25
;TYPE:SKIRT
G1 F2100 E0.41575
G1 F1800 X151.165 Y141.513 E0.46909
G1 X152.227 Y140.683 E0.52797
G1 X152.8 Y140.319 E0.55762
G1 X153.732 Y139.816 E0.60388
G1 X154.239 Y139.587 E0.62818
G1 X155.35 Y139.179 E0.67988
G1 X156.657 Y138.798 E0.73934
G1 X157.447 Y138.601 E0.77491
G1 X158.25 Y138.419 E0.81087
G1 X159.095 Y138.25 E0.84851
G1 X159.869 Y138.117 E0.88282
G1 X160.627 Y137.999 E0.91632
G1 X162.037 Y137.804 E0.9785
G1 X163.435 Y137.634 E1.04001
G1 X164.863 Y137.485 E1.10273
G1 X166.244 Y137.374 E1.16324
G1 X167.622 Y137.28 E1.22357
G1 X170.339 Y137.118 E1.34246
G1 X173.01 Y137.022 E1.45921
G1 X175.668 Y136.964 E1.57534
G1 X178.306 Y136.937 E1.69057
G1 X180.941 Y136.934 E1.80567
G1 X183.568 Y136.958 E1.92042
G1 X186.188 Y137.003 E2.03488
G1 X188.788 Y137.067 E2.14848
G1 X191.431 Y137.147 E2.26398
G1 X196.629 Y137.361 E2.49122
G1 X201.863 Y137.623 E2.72012
G1 X207.062 Y137.921 E2.94759
G1 X212.19 Y138.249 E3.17204
G1 X217.271 Y138.604 E3.39452
G1 X222.467 Y138.995 E3.62212
G1 X227.609 Y139.418 E3.84748
G1 X232.777 Y139.867 E4.07407
G1 X237.702 Y140.393 E4.29041
G1 X238.244 Y140.537 E4.31491
G1 X239.607 Y141.099 E4.37931
G1 X240.233 Y141.466 E4.41101
G1 X241.079 Y142.103 E4.45726
G1 X241.806 Y142.836 E4.50236
G1 X242.74 Y144.128 E4.57199
G1 X243.076 Y144.812 E4.60528
G1 X243.517 Y146.071 E4.66355
G1 X243.73 Y147.192 E4.71339
G1 X243.787 Y148.091 E4.75274
G1 X243.746 Y149.547 E4.81636
G1 X243.594 Y150.575 E4.86175
G1 X243.052 Y152.242 E4.93832
G1 X242.659 Y152.989 E4.97519
G1 X242.126 Y153.765 E5.01631
G1 X241.345 Y154.629 E5.06718
G1 X240.632 Y155.221 E5.10766
G1 X239.335 Y156.008 E5.17393
G1 X238.709 Y156.277 E5.20369
G1 X237.449 Y156.641 E5.26098
G1 X236.716 Y156.756 E5.29338
G1 X232.526 Y157.086 E5.47697
G1 X227.386 Y157.459 E5.70208
G1 X222.247 Y157.804 E5.92705
G1 X217.049 Y158.125 E6.15453
G1 X206.774 Y158.694 E6.60403
G1 X201.58 Y158.921 E6.83112
G1 X196.382 Y159.105 E7.05831
G1 X191.207 Y159.238 E7.28443
G1 X188.602 Y159.284 E7.39823
G1 X185.986 Y159.314 E7.51251
G1 X183.349 Y159.326 E7.62769
G1 X180.726 Y159.314 E7.74227
G1 X178.075 Y159.279 E7.85807
G1 X175.407 Y159.217 E7.97464
G1 X172.749 Y159.113 E8.09083
G1 X170.038 Y158.977 E8.2094
G1 X167.348 Y158.79 E8.32718
G1 X165.95 Y158.669 E8.38847
G1 X163.171 Y158.365 E8.51058
G1 X161.795 Y158.181 E8.57122
G1 X160.376 Y157.963 E8.63393
G1 X159.545 Y157.821 E8.67075
G1 X158.726 Y157.659 E8.70722
G1 X157.918 Y157.476 E8.74341
G1 X157.14 Y157.286 E8.77839
G1 X156.334 Y157.071 E8.81483
G1 X155.651 Y156.869 E8.84594
G1 X154.781 Y156.579 E8.886
G1 X154.443 Y156.447 E8.90185
G1 X153.182 Y155.835 E8.96307
G1 X152.573 Y155.474 E8.99399
G1 X151.327 Y154.56 E9.06149
G1 X150.622 Y153.897 E9.10376
G1 X149.548 Y152.556 E9.17881
G1 X149.143 Y151.877 E9.21334
G1 X148.598 Y150.589 E9.27443
G1 X148.326 Y149.575 E9.32029
G1 X148.215 Y148.841 E9.35271
G1 X148.176 Y147.658 E9.40442
G1 X148.314 Y146.439 E9.458
G1 X148.629 Y145.251 E9.51169
G1 X149.008 Y144.355 E9.55418
G1 X149.979 Y142.755 E9.63593
G1 X150.297 Y142.372 E9.65768
G0 F7200 X150.605 Y142.628
G1 F1800 X151.446 Y141.798 E9.70929
G1 X152.442 Y141.02 E9.76449
G1 X152.99 Y140.671 E9.79287
G1 X153.897 Y140.181 E9.8379
G1 X154.404 Y139.952 E9.8622
G1 X155.462 Y139.563 E9.91144
G1 X156.754 Y139.186 E9.97023
G1 X157.535 Y138.991 E10.00539
G1 X158.338 Y138.809 E10.04135
G1 X159.163 Y138.644 E10.0781
G1 X159.93 Y138.512 E10.1121
G1 X160.682 Y138.395 E10.14534
G1 X162.085 Y138.201 E10.20721
G1 X163.477 Y138.032 E10.26845
G1 X164.895 Y137.884 E10.33073
G1 X166.271 Y137.773 E10.39103
G1 X167.646 Y137.679 E10.45123
G1 X170.353 Y137.518 E10.56968
G1 X173.019 Y137.422 E10.6862
G1 X175.672 Y137.364 E10.80212
G1 X178.306 Y137.337 E10.91717
G1 X180.937 Y137.334 E11.0321
G1 X183.561 Y137.358 E11.14672
G1 X186.178 Y137.403 E11.26104
G1 X188.776 Y137.467 E11.37456
G1 X191.415 Y137.547 E11.48988
G1 X196.609 Y137.76 E11.71695
G1 X201.84 Y138.022 E11.94572
G1 X207.036 Y138.32 E12.17306
G1 X212.162 Y138.648 E12.39742
G1 X217.241 Y139.003 E12.61981
G1 X222.434 Y139.394 E12.84728
G1 X227.574 Y139.817 E13.07256
G1 X232.735 Y140.265 E13.29884
G1 X237.599 Y140.78 E13.51248
G1 X238.141 Y140.924 E13.53698
G1 X239.406 Y141.445 E13.59674
G1 X239.992 Y141.786 E13.62635
G1 X240.838 Y142.423 E13.67261
G1 X241.483 Y143.072 E13.71257
G1 X242.382 Y144.306 E13.77926
G1 X242.698 Y144.944 E13.81036
G1 X243.139 Y146.203 E13.86863
G1 X243.331 Y147.218 E13.91375
G1 X243.387 Y148.08 E13.95148
G1 X243.35 Y149.488 E14.01301
G1 X243.198 Y150.516 E14.0584
G1 X242.697 Y152.057 E14.12918
G1 X242.328 Y152.764 E14.16401
G1 X241.828 Y153.498 E14.2028
G1 X241.089 Y154.321 E14.25112
G1 X240.376 Y154.913 E14.2916
G1 X239.177 Y155.64 E14.35285
G1 X238.551 Y155.909 E14.38261
G1 X237.386 Y156.246 E14.43558
G1 X236.685 Y156.357 E14.46658
G1 X232.497 Y156.687 E14.65008
G1 X227.359 Y157.06 E14.8751
G1 X222.222 Y157.405 E15.09999
G1 X217.026 Y157.726 E15.32738
G1 X211.93 Y158.014 E15.55033
G1 X206.757 Y158.294 E15.77662
G1 X201.566 Y158.521 E16.00357
G1 X196.372 Y158.705 E16.23059
G1 X191.2 Y158.838 E16.45658
G1 X188.597 Y158.884 E16.57029
G1 X185.984 Y158.914 E16.68444
G1 X183.351 Y158.926 E16.79945
G1 X180.731 Y158.914 E16.91389
G1 X178.084 Y158.879 E17.02952
G1 X175.423 Y158.817 E17.14578
G1 X172.769 Y158.713 E17.2618
G1 X170.066 Y158.578 E17.38001
G1 X167.383 Y158.392 E17.49749
G1 X165.993 Y158.271 E17.55843
G1 X163.224 Y157.969 E17.6801
G1 X161.856 Y157.786 E17.74039
G1 X160.443 Y157.569 E17.80283
G1 X159.623 Y157.429 E17.83917
G1 X158.814 Y157.269 E17.87519
G1 X158.013 Y157.088 E17.91106
G1 X157.243 Y156.899 E17.94569
G1 X156.447 Y156.687 E17.98167
G1 X155.764 Y156.485 E18.01278
G1 X154.927 Y156.206 E18.05132
G1 X154.589 Y156.074 E18.06717
G1 X153.385 Y155.49 E18.12562
G1 X152.81 Y155.151 E18.15477
G1 X151.564 Y154.237 E18.22227
G1 X150.897 Y153.606 E18.26238
G1 X149.892 Y152.351 E18.33261
G1 X149.487 Y151.672 E18.36714
G1 X148.984 Y150.485 E18.42345
G1 X148.722 Y149.515 E18.46734
G1 X148.611 Y148.781 E18.49977
G1 X148.576 Y147.646 E18.54937
G1 X148.701 Y146.54 E18.59798
G1 X148.998 Y145.405 E18.64923
G1 X149.35 Y144.562 E18.68913
G1 X150.287 Y143.011 E18.76828
G1 X150.605 Y142.628 E18.79003
G0 F7200 X150.913 Y142.884
G1 F1800 X151.727 Y142.083 E18.83991
G1 X152.657 Y141.357 E18.89145
G1 X153.18 Y141.023 E18.91855
G1 X154.062 Y140.546 E18.96235
G1 X154.569 Y140.317 E18.98665
G1 X155.574 Y139.947 E19.03343
G1 X156.851 Y139.574 E19.09154
G1 X157.623 Y139.381 E19.1263
G1 X158.417 Y139.201 E19.16186
G1 X159.231 Y139.038 E19.19812
G1 X159.991 Y138.907 E19.23181
G1 X160.737 Y138.791 E19.26478
G1 X162.133 Y138.598 E19.32634
G1 X163.519 Y138.43 E19.38732
G1 X164.927 Y138.283 E19.44916
G1 X166.298 Y138.172 E19.50924
G1 X167.67 Y138.078 E19.56931
G1 X170.367 Y137.918 E19.68732
G1 X173.028 Y137.822 E19.80363
G1 X175.676 Y137.764 E19.91932
G1 X178.306 Y137.737 E20.03421
G1 X180.933 Y137.734 E20.14895
G1 X183.554 Y137.758 E20.26344
G1 X186.168 Y137.803 E20.37764
G1 X188.764 Y137.867 E20.49107
G1 X191.399 Y137.947 E20.60622
G1 X196.589 Y138.159 E20.8331
G1 X201.817 Y138.421 E21.06175
G1 X207.01 Y138.719 E21.28895
G1 X212.134 Y139.047 E21.51323
G1 X217.211 Y139.402 E21.73553
G1 X222.401 Y139.793 E21.96287
G1 X227.539 Y140.215 E22.18806
G1 X232.693 Y140.663 E22.41403
G1 X237.496 Y141.167 E22.62498
G1 X238.038 Y141.311 E22.64947
G1 X239.206 Y141.792 E22.70465
G1 X239.751 Y142.106 E22.73212
G1 X240.597 Y142.743 E22.77838
G1 X241.161 Y143.309 E22.81328
G1 X242.024 Y144.485 E22.877
G1 X242.32 Y145.076 E22.90587
G1 X242.761 Y146.335 E22.96414
G1 X242.932 Y147.245 E23.00458
G1 X242.987 Y148.07 E23.0407
G1 X242.954 Y149.429 E23.10007
G1 X242.802 Y150.457 E23.14547
G1 X242.342 Y151.873 E23.2105
G1 X241.996 Y152.54 E23.24332
G1 X241.529 Y153.232 E23.27979
G1 X240.833 Y154.013 E23.32548
G1 X240.12 Y154.605 E23.36596
G1 X239.019 Y155.272 E23.42219
G1 X238.393 Y155.541 E23.45195
G1 X237.323 Y155.851 E23.50061
G1 X236.654 Y155.958 E23.5302
G1 X232.468 Y156.288 E23.71361
G1 X227.332 Y156.661 E23.93854
G1 X222.197 Y157.006 E24.16335
G1 X217.003 Y157.327 E24.39065
G1 X211.908 Y157.615 E24.61356
G1 X206.74 Y157.894 E24.83962
G1 X201.552 Y158.121 E25.06645
G1 X196.362 Y158.305 E25.29329
G1 X191.193 Y158.438 E25.51915
G1 X188.592 Y158.484 E25.63278
G1 X185.982 Y158.514 E25.74679
G1 X183.353 Y158.526 E25.86163
G1 X180.736 Y158.514 E25.97594
G1 X178.093 Y158.479 E26.09139
G1 X175.439 Y158.417 E26.20735
G1 X172.789 Y158.314 E26.32319
G1 X170.094 Y158.179 E26.44106
G1 X167.418 Y157.993 E26.55823
G1 X166.036 Y157.873 E26.61882
G1 X163.277 Y157.573 E26.74004
G1 X161.917 Y157.391 E26.79998
G1 X160.51 Y157.175 E26.86215
G1 X159.701 Y157.037 E26.898
G1 X158.902 Y156.879 E26.93358
G1 X158.109 Y156.7 E26.96909
G1 X157.346 Y156.512 E27.00341
G1 X156.56 Y156.303 E27.03894
G1 X155.877 Y156.101 E27.07005
G1 X155.073 Y155.833 E27.10707
G1 X154.735 Y155.701 E27.12292
G1 X153.588 Y155.145 E27.17859
G1 X153.013 Y154.806 E27.20775
G1 X151.839 Y153.946 E27.27132
G1 X151.172 Y153.315 E27.31142
G1 X150.236 Y152.146 E27.37683
G1 X149.831 Y151.467 E27.41137
G1 X149.37 Y150.38 E27.46294
G1 X149.118 Y149.455 E27.50482
G1 X149.007 Y148.721 E27.53724
G1 X148.976 Y147.635 E27.5847
G1 X149.088 Y146.64 E27.62844
G1 X149.368 Y145.557 E27.6773
G1 X149.693 Y144.768 E27.71457
G1 X150.595 Y143.267 E27.79106
G1 X150.913 Y142.884 E27.8128
G0 F7200 X151.221 Y143.14
G1 F1800 X152.007 Y142.369 E27.8609
G1 X152.873 Y141.694 E27.90886
G1 X153.371 Y141.375 E27.93469
G1 X154.227 Y140.911 E27.97722
G1 X154.734 Y140.682 E28.00152
G1 X155.712 Y140.323 E28.04702
G1 X156.948 Y139.962 E28.10327
G1 X157.711 Y139.771 E28.13762
G1 X158.496 Y139.593 E28.17278
G1 X159.299 Y139.432 E28.20856
G1 X160.053 Y139.302 E28.24198
G1 X160.792 Y139.187 E28.27465
G1 X162.181 Y138.995 E28.33589
G1 X163.561 Y138.828 E28.39661
G1 X164.959 Y138.682 E28.45801
G1 X166.325 Y138.571 E28.51787
G1 X167.694 Y138.477 E28.57781
G1 X170.381 Y138.318 E28.69538
G1 X173.037 Y138.222 E28.81147
G1 X175.68 Y138.164 E28.92695
G1 X178.306 Y138.137 E29.04166
G1 X180.929 Y138.134 E29.15623
G1 X183.547 Y138.158 E29.27059
G1 X186.158 Y138.203 E29.38465
G1 X188.752 Y138.267 E29.49799
G1 X191.383 Y138.347 E29.61297
G1 X196.569 Y138.558 E29.83968
G1 X201.794 Y138.82 E30.06819
G1 X206.984 Y139.118 E30.29527
G1 X212.106 Y139.446 E30.51945
G1 X217.181 Y139.801 E30.74167
G1 X222.368 Y140.192 E30.96888
G1 X227.504 Y140.614 E31.19398
G1 X232.652 Y141.061 E31.41969
G1 X237.393 Y141.554 E31.62789
G1 X237.935 Y141.698 E31.65239
G1 X239.006 Y142.139 E31.70298
G1 X239.551 Y142.453 E31.73045
G1 X240.356 Y143.062 E31.77454
G1 X240.839 Y143.547 E31.80444
G1 X241.667 Y144.666 E31.86524
G1 X241.942 Y145.208 E31.89179
G1 X242.383 Y146.467 E31.95006
G1 X242.533 Y147.272 E31.98583
G1 X242.587 Y148.061 E32.02037
G1 X242.558 Y149.37 E32.07756
G1 X242.406 Y150.398 E32.12295
G1 X241.986 Y151.69 E32.1823
G1 X241.663 Y152.318 E32.21314
G1 X241.229 Y152.967 E32.24725
G1 X240.577 Y153.705 E32.29026
G1 X239.864 Y154.297 E32.33074
G1 X238.861 Y154.904 E32.38195
G1 X238.235 Y155.173 E32.41171
G1 X237.259 Y155.456 E32.4561
G1 X236.623 Y155.559 E32.48424
G1 X232.439 Y155.889 E32.66756
G1 X227.305 Y156.262 E32.89241
G1 X222.172 Y156.607 E33.11712
G1 X216.98 Y156.928 E33.34434
G1 X211.886 Y157.216 E33.5672
G1 X206.723 Y157.494 E33.79305
G1 X201.538 Y157.721 E34.01975
G1 X196.352 Y157.905 E34.24641
G1 X191.186 Y158.038 E34.47214
G1 X188.587 Y158.084 E34.58568
G1 X185.98 Y158.114 E34.69956
G1 X183.355 Y158.126 E34.81422
G1 X180.741 Y158.114 E34.9284
G1 X178.102 Y158.079 E35.04368
G1 X175.454 Y158.017 E35.15938
G1 X172.809 Y157.915 E35.275
G1 X170.122 Y157.78 E35.39251
G1 X167.453 Y157.594 E35.50938
G1 X166.079 Y157.475 E35.56962
G1 X163.33 Y157.176 E35.6904
G1 X161.978 Y156.996 E35.74998
G1 X160.577 Y156.781 E35.81189
G1 X159.779 Y156.645 E35.84725
G1 X158.99 Y156.489 E35.88238
G1 X158.204 Y156.311 E35.91758
G1 X157.449 Y156.126 E35.95154
G1 X156.673 Y155.919 E35.98662
G1 X155.99 Y155.717 E36.01773
G1 X155.219 Y155.46 E36.05323
G1 X154.881 Y155.328 E36.06908
G1 X153.791 Y154.8 E36.12198
G1 X153.216 Y154.461 E36.15114
G1 X152.114 Y153.655 E36.21077
G1 X151.447 Y153.024 E36.25088
G1 X150.58 Y151.941 E36.31148
G1 X150.175 Y151.262 E36.34601
G1 X149.756 Y150.274 E36.39289
G1 X149.514 Y149.395 E36.43271
G1 X149.403 Y148.661 E36.46513
G1 X149.376 Y147.625 E36.5104
G1 X149.476 Y146.739 E36.54935
G1 X149.739 Y145.707 E36.59587
G1 X150.036 Y144.973 E36.63045
G1 X150.903 Y143.523 E36.70425
G1 X151.221 Y143.14 E36.72599
G0 F7200 X151.529 Y143.396
G1 F1800 X152.253 Y142.684 E36.77035
G1 X153.089 Y142.031 E36.81668
G1 X153.587 Y141.712 E36.84251
G1 X154.392 Y141.276 E36.8825
G1 X154.899 Y141.047 E36.9068
G1 X155.824 Y140.707 E36.94985
G1 X157.045 Y140.35 E37.00542
G1 X157.799 Y140.161 E37.03937
G1 X158.575 Y139.985 E37.07413
G1 X159.367 Y139.826 E37.10941
G1 X160.114 Y139.697 E37.14252
G1 X160.847 Y139.583 E37.17493
G1 X162.229 Y139.392 E37.23586
G1 X163.603 Y139.226 E37.29632
G1 X164.992 Y139.081 E37.35732
G1 X166.352 Y138.97 E37.41692
G1 X167.718 Y138.876 E37.47673
G1 X170.395 Y138.718 E37.59386
G1 X173.046 Y138.622 E37.70973
G1 X175.684 Y138.564 E37.82499
G1 X178.306 Y138.537 E37.93952
G1 X180.925 Y138.534 E38.05392
G1 X183.54 Y138.558 E38.16815
G1 X186.148 Y138.603 E38.28208
G1 X188.74 Y138.667 E38.39534
G1 X191.367 Y138.747 E38.51014
G1 X196.549 Y138.957 E38.73667
G1 X201.771 Y139.219 E38.96506
G1 X206.958 Y139.517 E39.192
G1 X212.078 Y139.845 E39.4161
G1 X217.151 Y140.2 E39.63823
G1 X222.335 Y140.591 E39.86531
G1 X227.469 Y141.012 E40.09031
G1 X232.611 Y141.459 E40.31576
G1 X237.29 Y141.941 E40.52122
G1 X237.832 Y142.085 E40.54572
G1 X238.806 Y142.486 E40.59173
G1 X239.351 Y142.8 E40.6192
G1 X240.074 Y143.346 E40.65877
G1 X240.518 Y143.786 E40.68608
G1 X241.31 Y144.847 E40.74391
G1 X241.585 Y145.389 E40.77046
G1 X241.99 Y146.542 E40.82384
G1 X242.134 Y147.3 E40.85754
G1 X242.187 Y148.053 E40.89051
G1 X242.162 Y149.311 E40.94547
G1 X242.01 Y150.339 E40.99086
G1 X241.63 Y151.508 E41.04455
G1 X241.329 Y152.097 E41.07345
G1 X240.929 Y152.702 E41.10513
G1 X240.277 Y153.44 E41.14814
G1 X239.61 Y153.988 E41.18585
G1 X238.703 Y154.536 E41.23213
G1 X238.077 Y154.805 E41.2619
G1 X237.194 Y155.061 E41.30205
G1 X236.592 Y155.16 E41.3287
G1 X232.41 Y155.49 E41.51194
G1 X227.278 Y155.863 E41.7367
G1 X222.147 Y156.208 E41.96132
G1 X216.957 Y156.529 E42.18846
G1 X211.865 Y156.817 E42.41123
G1 X206.705 Y157.094 E42.63694
G1 X201.524 Y157.321 E42.86346
G1 X196.342 Y157.505 E43.08996
G1 X191.179 Y157.638 E43.31555
G1 X188.582 Y157.684 E43.42901
G1 X185.978 Y157.714 E43.54276
G1 X183.357 Y157.726 E43.65724
G1 X180.746 Y157.714 E43.77129
G1 X178.111 Y157.679 E43.8864
G1 X175.469 Y157.617 E44.00183
G1 X172.829 Y157.515 E44.11723
G1 X170.15 Y157.381 E44.2344
G1 X167.487 Y157.195 E44.351
G1 X166.122 Y157.077 E44.41085
G1 X163.383 Y156.779 E44.53119
G1 X162.031 Y156.599 E44.59077
G1 X160.644 Y156.387 E44.65206
G1 X159.857 Y156.253 E44.68693
G1 X159.078 Y156.099 E44.72161
G1 X158.3 Y155.923 E44.75645
G1 X157.552 Y155.739 E44.7901
G1 X156.786 Y155.535 E44.82472
G1 X156.103 Y155.333 E44.85584
G1 X155.365 Y155.087 E44.88981
G1 X155.027 Y154.955 E44.90566
G1 X153.994 Y154.455 E44.95579
