;FLAVOR:Marlin
;TIME:1196
;Filament used: 0.887407m
;Layer height: 0.25
;MINX:128.229
;MINY:167.758
;MINZ:0.25
;MAXX:223.753
;MAXY:190.132
;MAXZ:15
;TARGET_MACHINE.NAME:VORON2 350
;POSTPROCESSED
;  [CreateThumbnail]
;  [CreateThumbnail]
;  [InsertAtLayerChange]
;Generated with Cura_SteamEngine 5.10.2
;
;

;
;

;Nozzle diameter = 0.4
;Filament type = PLA
;Filament name = LW-PLA Light Gray
;Filament weight = [1.4941240234375]; M190 S50
; M109 S210


; Pre-Processed for Cancel-Object support by preprocess_cancellation v0.2.0
; 1 known objects
EXCLUDE_OBJECT_DEFINE NAME=V_TAIL_TIP_L_STL CENTER=187.080,178.963 POLYGON=[[134.256,175.756],[134.256,182.132],[215.782,182.132],[215.782,175.756]]
PRINT_START BED_TEMP=50 EXTRUDER_TEMP=210
M82 ;absolute extrusion mode
M141 S10
G92 E0
G92 E0
G1 F2100 E-3
;LAYER_COUNT:60
;LAYER:0
TIMELAPSE_TAKE_FRAME
M107
G0 F7200 X131.418 Y172.637 Z0.25
;TYPE:SKIRT
G1 F2100 E0.41575
G1 F1800 X131.952 Y172.277 E0.44388
G1 X132.814 Y171.82 E0.4865
G1 X133.354 Y171.606 E0.51187
G1 X134.73 Y171.22 E0.57429
G1 X134.883 Y171.195 E0.58107
G1 X140.392 Y170.681 E0.82274
G1 X145.587 Y170.215 E1.05057
G1 X151.107 Y169.769 E1.29247
G1 X156.584 Y169.357 E1.53238
G1 X160.647 Y169.074 E1.71028
G1 X167.545 Y168.634 E2.0122
G1 X172.361 Y168.351 E2.22292
G1 X175.982 Y168.176 E2.38127
G1 X180.306 Y168.002 E2.5703
G1 X183.542 Y167.896 E2.71172
G1 X186.558 Y167.822 E2.8435
G1 X189.438 Y167.775 E2.96932
G1 X191.395 Y167.758 E3.0548
G1 X194.06 Y167.758 E3.17121
G1 X196.665 Y167.783 E3.285
G1 X198.727 Y167.825 E3.37509
G1 X200.729 Y167.884 E3.46257
G1 X204.741 Y168.096 E3.63806
G1 X206.411 Y168.228 E3.71123
G1 X208.431 Y168.423 E3.79988
G1 X210.071 Y168.618 E3.87202
G1 X211.447 Y168.802 E3.93265
G1 X212.56 Y168.975 E3.98185
G1 X213.73 Y169.205 E4.03394
G1 X215.072 Y169.524 E4.09419
G1 X216.123 Y169.805 E4.14171
G1 X216.785 Y170.017 E4.17207
G1 X217.776 Y170.394 E4.21838
G1 X218.473 Y170.725 E4.25209
G1 X219.651 Y171.416 E4.31174
G1 X220.517 Y172.06 E4.35888
G1 X221.304 Y172.788 E4.40571
G1 X222.243 Y173.911 E4.46965
G1 X222.793 Y174.81 E4.51569
G1 X223.145 Y175.566 E4.55211
G1 X223.666 Y177.426 E4.63648
G1 X223.753 Y178.204 E4.67068
G1 X223.65 Y180.113 E4.75418
G1 X223.414 Y181.133 E4.79991
G1 X222.961 Y182.327 E4.8557
G1 X222.711 Y182.812 E4.87953
G1 X222.129 Y183.711 E4.92631
G1 X221.433 Y184.556 E4.97413
G1 X220.933 Y185.051 E5.00486
G1 X220.13 Y185.719 E5.05048
G1 X219.146 Y186.381 E5.10229
G1 X218.169 Y186.906 E5.15073
G1 X217.18 Y187.331 E5.19775
G1 X216.348 Y187.617 E5.23618
G1 X215.681 Y187.815 E5.26657
G1 X214.595 Y188.105 E5.31567
G1 X213.29 Y188.411 E5.37422
G1 X212.301 Y188.608 E5.41827
G1 X211.149 Y188.807 E5.46933
G1 X208.803 Y189.137 E5.57281
G1 X207.657 Y189.276 E5.62324
G1 X204.408 Y189.586 E5.7658
G1 X200.424 Y189.855 E5.94021
G1 X196.749 Y190.003 E6.10087
G1 X194.145 Y190.071 E6.21465
G1 X191.546 Y190.113 E6.32819
G1 X188.961 Y190.132 E6.4411
G1 X186.63 Y190.131 E6.54292
G1 X183.636 Y190.106 E6.6737
G1 X179.504 Y190.037 E6.85421
G1 X176.142 Y189.955 E7.00111
G1 X171.392 Y189.802 E7.2087
G1 X167.469 Y189.649 E7.38018
G1 X160.769 Y189.315 E7.6732
G1 X157.133 Y189.124 E7.83224
G1 X151.752 Y188.815 E8.06767
G1 X146.326 Y188.473 E8.30515
G1 X139.758 Y188.018 E8.59273
G1 X135.217 Y187.658 E8.7917
G1 X133.551 Y187.275 E8.86637
G1 X132.396 Y186.788 E8.92112
G1 X131.812 Y186.444 E8.95072
G1 X130.951 Y185.785 E8.99808
G1 X129.948 Y184.75 E9.06104
G1 X129.576 Y184.236 E9.08875
G1 X129.053 Y183.306 E9.13536
G1 X128.693 Y182.439 E9.17636
G1 X128.487 Y181.741 E9.20815
G1 X128.258 Y180.316 E9.2712
G1 X128.229 Y179.441 E9.30944
G1 X128.254 Y178.396 E9.35509
G1 X128.378 Y177.457 E9.39647
G1 X128.736 Y176.182 E9.45431
G1 X129.109 Y175.339 E9.49458
G1 X129.732 Y174.332 E9.5463
G1 X130.503 Y173.43 E9.59813
G1 X131.418 Y172.637 E9.65102
G0 F7200 X131.642 Y172.969
G1 F1800 X132.176 Y172.609 E9.67915
G1 X132.963 Y172.191 E9.71807
G1 X133.463 Y171.991 E9.7416
G1 X134.795 Y171.615 E9.80205
G1 X134.948 Y171.59 E9.80882
G1 X140.428 Y171.079 E10.04923
G1 X145.619 Y170.614 E10.27688
G1 X151.137 Y170.168 E10.51869
G1 X156.612 Y169.756 E10.75851
G1 X160.672 Y169.473 E10.93628
G1 X167.568 Y169.033 E11.23811
G1 X172.38 Y168.751 E11.44866
G1 X175.998 Y168.576 E11.60688
G1 X180.319 Y168.402 E11.79577
G1 X183.552 Y168.296 E11.93707
G1 X186.565 Y168.222 E12.06871
G1 X189.441 Y168.175 E12.19435
G1 X191.398 Y168.158 E12.27984
G1 X194.056 Y168.158 E12.39594
G1 X196.657 Y168.183 E12.50956
G1 X198.715 Y168.225 E12.59947
G1 X200.708 Y168.283 E12.68656
G1 X204.71 Y168.495 E12.86161
G1 X206.373 Y168.626 E12.93448
G1 X208.384 Y168.82 E13.02273
G1 X210.018 Y169.014 E13.0946
G1 X211.386 Y169.197 E13.15489
G1 X212.483 Y169.367 E13.20337
G1 X213.637 Y169.594 E13.25475
G1 X214.969 Y169.911 E13.31455
G1 X216.001 Y170.186 E13.3612
G1 X216.643 Y170.391 E13.39064
G1 X217.634 Y170.768 E13.43696
G1 X218.271 Y171.07 E13.46775
G1 X219.413 Y171.737 E13.52552
G1 X220.245 Y172.354 E13.57076
G1 X221.032 Y173.082 E13.61759
G1 X221.902 Y174.121 E13.67678
G1 X222.43 Y174.979 E13.72079
G1 X222.782 Y175.735 E13.75721
G1 X223.268 Y177.47 E13.83591
G1 X223.355 Y178.248 E13.87011
G1 X223.251 Y180.09 E13.9507
G1 X223.04 Y180.992 E13.99116
G1 X222.605 Y182.144 E14.04495
G1 X222.355 Y182.629 E14.06878
G1 X221.82 Y183.457 E14.11184
G1 X221.151 Y184.272 E14.1579
G1 X220.677 Y184.743 E14.18708
G1 X219.874 Y185.411 E14.23271
G1 X218.956 Y186.029 E14.28105
G1 X218.011 Y186.538 E14.32793
G1 X217.022 Y186.963 E14.37495
G1 X216.234 Y187.234 E14.41135
G1 X215.578 Y187.429 E14.44124
G1 X214.504 Y187.716 E14.4898
G1 X213.212 Y188.019 E14.54776
G1 X212.233 Y188.214 E14.59137
G1 X211.093 Y188.411 E14.6419
G1 X208.755 Y188.74 E14.74503
G1 X207.619 Y188.878 E14.79502
G1 X204.38 Y189.187 E14.93714
G1 X202.262 Y189.336 E15.02988
G1 X200.408 Y189.455 E15.11103
G1 X196.739 Y189.603 E15.27142
G1 X194.139 Y189.671 E15.38503
G1 X191.543 Y189.713 E15.49844
G1 X188.961 Y189.732 E15.61122
G1 X186.633 Y189.731 E15.71291
G1 X183.643 Y189.706 E15.84351
G1 X179.514 Y189.637 E16.02389
G1 X176.155 Y189.555 E16.17066
G1 X171.408 Y189.402 E16.37811
G1 X167.489 Y189.249 E16.54943
G1 X160.79 Y188.916 E16.8424
G1 X157.156 Y188.725 E17.00135
G1 X151.777 Y188.416 E17.23669
G1 X146.354 Y188.074 E17.47404
G1 X139.79 Y187.619 E17.76144
G1 X135.249 Y187.259 E17.96042
G1 X133.706 Y186.906 E18.02955
G1 X132.551 Y186.419 E18.08431
G1 X132.055 Y186.126 E18.10947
G1 X131.194 Y185.467 E18.15683
G1 X130.271 Y184.514 E18.21478
G1 X129.924 Y184.039 E18.24047
G1 X129.422 Y183.152 E18.28499
G1 X129.077 Y182.326 E18.32409
G1 X128.871 Y181.628 E18.35588
G1 X128.658 Y180.302 E18.41454
G1 X128.629 Y179.45 E18.45178
G1 X128.651 Y178.448 E18.49556
G1 X128.775 Y177.509 E18.53693
G1 X129.102 Y176.344 E18.58978
G1 X129.475 Y175.501 E18.63005
G1 X130.037 Y174.591 E18.67677
G1 X130.766 Y173.732 E18.72598
G1 X131.642 Y172.969 E18.77672
G0 F7200 X131.866 Y173.301
G1 F1800 X132.4 Y172.941 E18.80485
G1 X133.113 Y172.562 E18.84012
G1 X133.572 Y172.376 E18.86176
G1 X134.86 Y172.01 E18.92024
G1 X135.013 Y171.985 E18.92701
G1 X140.464 Y171.477 E19.16615
G1 X145.651 Y171.013 E19.39362
G1 X151.167 Y170.567 E19.63534
G1 X156.64 Y170.155 E19.87508
G1 X160.697 Y169.872 E20.05272
G1 X167.591 Y169.432 E20.35446
G1 X172.399 Y169.151 E20.56483
G1 X176.014 Y168.976 E20.72292
G1 X180.332 Y168.802 E20.91168
G1 X183.562 Y168.696 E21.05284
G1 X186.572 Y168.622 E21.18436
G1 X189.444 Y168.575 E21.30983
G1 X191.401 Y168.558 E21.39531
G1 X194.052 Y168.558 E21.51111
G1 X196.649 Y168.583 E21.62455
G1 X198.704 Y168.625 E21.71433
G1 X200.688 Y168.682 E21.80103
G1 X202.93 Y168.795 E21.89908
G1 X204.679 Y168.894 E21.9756
G1 X206.335 Y169.024 E22.04816
G1 X208.337 Y169.217 E22.13601
G1 X209.965 Y169.41 E22.20762
G1 X211.325 Y169.592 E22.26755
G1 X212.406 Y169.759 E22.31533
G1 X213.544 Y169.983 E22.36599
G1 X214.866 Y170.298 E22.42535
G1 X215.898 Y170.573 E22.472
G1 X216.501 Y170.765 E22.49965
G1 X217.492 Y171.142 E22.54596
G1 X218.07 Y171.416 E22.5739
G1 X219.175 Y172.059 E22.62974
G1 X219.974 Y172.649 E22.67313
G1 X220.725 Y173.339 E22.71767
G1 X221.595 Y174.378 E22.77687
G1 X222.067 Y175.148 E22.81632
G1 X222.419 Y175.904 E22.85274
G1 X222.87 Y177.514 E22.92577
G1 X222.957 Y178.292 E22.95997
G1 X222.861 Y180 E23.03469
G1 X222.665 Y180.852 E23.07288
G1 X222.249 Y181.961 E23.12462
G1 X221.999 Y182.446 E23.14845
G1 X221.511 Y183.203 E23.18779
G1 X220.842 Y184.018 E23.23385
G1 X220.421 Y184.435 E23.25973
G1 X219.618 Y185.103 E23.30535
G1 X218.733 Y185.697 E23.35191
G1 X217.853 Y186.17 E23.39555
G1 X216.864 Y186.595 E23.44257
G1 X216.12 Y186.851 E23.47694
G1 X215.475 Y187.043 E23.50633
G1 X214.413 Y187.327 E23.55435
G1 X213.134 Y187.627 E23.61173
G1 X212.165 Y187.82 E23.65489
G1 X211.037 Y188.015 E23.70489
G1 X208.707 Y188.343 E23.80767
G1 X207.581 Y188.48 E23.85722
G1 X204.352 Y188.788 E23.9989
G1 X202.236 Y188.937 E24.09155
G1 X200.392 Y189.055 E24.17227
G1 X196.729 Y189.203 E24.3324
G1 X194.133 Y189.271 E24.44583
G1 X191.54 Y189.313 E24.5591
G1 X188.961 Y189.332 E24.67176
G1 X186.636 Y189.331 E24.77331
G1 X183.65 Y189.306 E24.90375
G1 X179.524 Y189.237 E25.08399
G1 X176.168 Y189.155 E25.23063
G1 X171.424 Y189.002 E25.43795
G1 X167.509 Y188.849 E25.60909
G1 X160.811 Y188.517 E25.90202
G1 X157.179 Y188.326 E26.06088
G1 X151.802 Y188.017 E26.29614
G1 X146.382 Y187.675 E26.53335
G1 X139.822 Y187.22 E26.82058
G1 X135.281 Y186.86 E27.01955
G1 X133.861 Y186.537 E27.08316
G1 X132.753 Y186.073 E27.13563
G1 X132.297 Y185.807 E27.15869
G1 X131.481 Y185.188 E27.20343
G1 X130.593 Y184.276 E27.25903
G1 X130.272 Y183.841 E27.28265
G1 X129.791 Y182.997 E27.32508
G1 X129.461 Y182.213 E27.36223
G1 X129.255 Y181.515 E27.39402
G1 X129.058 Y180.288 E27.4483
G1 X129.029 Y179.458 E27.48458
G1 X129.048 Y178.5 E27.52643
G1 X129.172 Y177.561 E27.5678
G1 X129.469 Y176.504 E27.61576
G1 X129.816 Y175.71 E27.65361
G1 X130.343 Y174.849 E27.69771
G1 X131.03 Y174.033 E27.7443
G1 X131.866 Y173.301 E27.79283
G0 F7200 X132.09 Y173.633
G1 F1800 X132.624 Y173.273 E27.82097
G1 X133.265 Y172.932 E27.85268
G1 X133.682 Y172.761 E27.87237
G1 X134.925 Y172.405 E27.92884
G1 X135.078 Y172.38 E27.93561
G1 X140.5 Y171.875 E28.17347
G1 X145.683 Y171.412 E28.40077
G1 X151.197 Y170.966 E28.6424
G1 X156.668 Y170.554 E28.88205
G1 X160.722 Y170.271 E29.05956
G1 X167.614 Y169.831 E29.36122
G1 X172.418 Y169.551 E29.57141
G1 X176.03 Y169.376 E29.72937
G1 X180.345 Y169.202 E29.918
G1 X183.572 Y169.096 E30.05903
G1 X186.579 Y169.022 E30.19042
G1 X189.447 Y168.975 E30.31571
G1 X191.404 Y168.958 E30.40119
G1 X194.048 Y168.958 E30.51668
G1 X196.641 Y168.983 E30.62995
G1 X198.692 Y169.025 E30.71956
G1 X200.668 Y169.082 E30.8059
G1 X202.907 Y169.194 E30.90383
G1 X204.648 Y169.293 E30.98
G1 X206.297 Y169.422 E31.05224
G1 X208.29 Y169.614 E31.1397
G1 X209.912 Y169.806 E31.21104
G1 X211.264 Y169.987 E31.27063
G1 X212.329 Y170.151 E31.31769
G1 X213.451 Y170.372 E31.36764
G1 X214.763 Y170.685 E31.42656
G1 X215.795 Y170.96 E31.47321
G1 X216.359 Y171.139 E31.49906
G1 X217.35 Y171.516 E31.54537
G1 X217.869 Y171.762 E31.57046
G1 X218.937 Y172.381 E31.62438
G1 X219.736 Y172.971 E31.66776
G1 X220.418 Y173.596 E31.70817
G1 X221.288 Y174.635 E31.76736
G1 X221.704 Y175.317 E31.80226
G1 X222.056 Y176.073 E31.83868
G1 X222.472 Y177.558 E31.90604
G1 X222.559 Y178.336 E31.94024
G1 X222.471 Y179.91 E32.0091
G1 X222.275 Y180.762 E32.04728
G1 X221.893 Y181.778 E32.0947
G1 X221.643 Y182.263 E32.11853
G1 X221.201 Y182.95 E32.15421
G1 X220.56 Y183.734 E32.19845
G1 X220.165 Y184.127 E32.22279
G1 X219.362 Y184.795 E32.26841
G1 X218.511 Y185.364 E32.31312
G1 X217.695 Y185.802 E32.35358
G1 X216.706 Y186.227 E32.4006
G1 X216.006 Y186.468 E32.43293
G1 X215.372 Y186.657 E32.46183
G1 X214.322 Y186.938 E32.50931
G1 X213.056 Y187.235 E32.56611
G1 X212.097 Y187.426 E32.60882
G1 X210.981 Y187.619 E32.65829
G1 X208.659 Y187.946 E32.76072
G1 X207.543 Y188.082 E32.80982
G1 X204.324 Y188.389 E32.95107
G1 X202.211 Y188.538 E33.04359
G1 X200.376 Y188.655 E33.12391
G1 X196.719 Y188.803 E33.28378
G1 X194.127 Y188.871 E33.39703
G1 X191.537 Y188.913 E33.51018
G1 X188.961 Y188.932 E33.6227
G1 X186.639 Y188.931 E33.72413
G1 X183.657 Y188.906 E33.85439
G1 X179.534 Y188.837 E34.0345
G1 X176.181 Y188.755 E34.18101
G1 X171.44 Y188.602 E34.3882
G1 X167.529 Y188.449 E34.55916
G1 X160.832 Y188.118 E34.85204
G1 X157.202 Y187.927 E35.01082
G1 X151.827 Y187.618 E35.24599
G1 X146.41 Y187.276 E35.48307
G1 X139.854 Y186.821 E35.77013
G1 X135.313 Y186.461 E35.9691
G1 X134.015 Y186.168 E36.02722
G1 X132.955 Y185.727 E36.07737
G1 X132.499 Y185.461 E36.10043
G1 X131.767 Y184.908 E36.1405
G1 X130.915 Y184.038 E36.19369
G1 X130.594 Y183.603 E36.21731
G1 X130.159 Y182.841 E36.25563
G1 X129.845 Y182.1 E36.29079
G1 X129.639 Y181.402 E36.32257
G1 X129.458 Y180.274 E36.37248
G1 X129.429 Y179.465 E36.40783
G1 X129.445 Y178.552 E36.44772
G1 X129.569 Y177.613 E36.48909
G1 X129.836 Y176.664 E36.53215
G1 X130.183 Y175.87 E36.57
G1 X130.65 Y175.105 E36.60915
G1 X131.294 Y174.333 E36.65307
G1 X132.09 Y173.633 E36.69937
G0 F7200 X132.314 Y173.965
G1 F1800 X132.848 Y173.605 E36.7275
G1 X133.419 Y173.301 E36.75575
G1 X133.793 Y173.145 E36.77345
G1 X134.99 Y172.8 E36.82787
G1 X135.143 Y172.775 E36.83464
G1 X140.536 Y172.273 E37.07122
G1 X145.715 Y171.811 E37.29834
G1 X151.227 Y171.365 E37.53989
G1 X156.696 Y170.953 E37.77945
G1 X160.747 Y170.67 E37.95683
G1 X167.637 Y170.23 E38.2584
G1 X172.437 Y169.951 E38.46842
G1 X176.046 Y169.776 E38.62624
G1 X180.358 Y169.602 E38.81474
G1 X183.582 Y169.496 E38.95564
G1 X186.586 Y169.422 E39.0869
G1 X189.45 Y169.375 E39.21201
G1 X191.407 Y169.358 E39.2975
G1 X194.044 Y169.358 E39.41268
G1 X196.633 Y169.383 E39.52577
G1 X198.68 Y169.425 E39.61521
G1 X200.648 Y169.482 E39.7012
G1 X202.884 Y169.593 E39.79899
G1 X204.617 Y169.692 E39.87481
G1 X206.259 Y169.82 E39.94675
G1 X208.243 Y170.011 E40.03382
G1 X209.859 Y170.202 E40.10489
G1 X211.203 Y170.382 E40.16412
G1 X212.252 Y170.543 E40.21048
G1 X213.358 Y170.761 E40.25972
G1 X214.66 Y171.072 E40.31819
G1 X215.692 Y171.347 E40.36484
G1 X216.217 Y171.513 E40.38889
G1 X217.18 Y171.878 E40.43388
G1 X217.669 Y172.108 E40.45748
G1 X218.699 Y172.703 E40.50944
G1 X219.498 Y173.293 E40.55282
G1 X220.147 Y173.89 E40.59134
G1 X220.947 Y174.844 E40.64572
G1 X221.341 Y175.486 E40.67863
G1 X221.693 Y176.242 E40.71505
G1 X222.074 Y177.602 E40.77674
G1 X222.161 Y178.38 E40.81094
G1 X222.081 Y179.82 E40.87393
G1 X221.885 Y180.672 E40.91212
G1 X221.537 Y181.595 E40.95521
G1 X221.287 Y182.08 E40.97904
G1 X220.865 Y182.733 E41.013
G1 X220.277 Y183.451 E41.05354
G1 X219.909 Y183.819 E41.07627
G1 X219.106 Y184.487 E41.1219
G1 X218.321 Y185.012 E41.16315
G1 X217.537 Y185.434 E41.20204
G1 X216.548 Y185.859 E41.24906
G1 X215.892 Y186.085 E41.27936
G1 X215.269 Y186.271 E41.30776
G1 X214.231 Y186.549 E41.3547
G1 X212.978 Y186.843 E41.41092
G1 X212.029 Y187.032 E41.45318
G1 X210.925 Y187.223 E41.50212
G1 X208.611 Y187.549 E41.6042
G1 X207.505 Y187.684 E41.65287
G1 X204.296 Y187.99 E41.79367
G1 X202.186 Y188.139 E41.88606
G1 X200.36 Y188.255 E41.96598
G1 X196.708 Y188.403 E42.12563
G1 X194.121 Y188.471 E42.23867
G1 X191.534 Y188.513 E42.35169
G1 X188.961 Y188.532 E42.46408
G1 X186.642 Y188.531 E42.56537
G1 X183.664 Y188.506 E42.69546
G1 X179.544 Y188.437 E42.87544
G1 X176.194 Y188.355 E43.02181
G1 X171.456 Y188.202 E43.22888
G1 X167.549 Y188.049 E43.39967
G1 X160.853 Y187.719 E43.6925
G1 X157.225 Y187.528 E43.85119
G1 X151.852 Y187.219 E44.08627
G1 X146.438 Y186.877 E44.32323
G1 X139.886 Y186.422 E44.61011
G1 X135.345 Y186.062 E44.80908
G1 X134.168 Y185.798 E44.86177
G1 X133.157 Y185.381 E44.90954
G1 X132.701 Y185.115 E44.9326
G1 X132.053 Y184.628 E44.968
G1 X131.201 Y183.758 E45.02119
G1 X130.918 Y183.368 E45.04224
G1 X130.527 Y182.684 E45.07665
G1 X130.229 Y181.987 E45.10977
G1 X130.023 Y181.289 E45.14155
G1 X129.858 Y180.259 E45.18712
G1 X129.829 Y179.471 E45.22156
G1 X129.842 Y178.604 E45.25944
G1 X129.966 Y177.665 E45.30081
G1 X130.203 Y176.824 E45.33897
G1 X130.55 Y176.03 E45.37682
G1 X130.959 Y175.36 E45.41111
