;FLAVOR:Marlin
;TIME:7398
;Filament used: 4.62463m
;Layer height: 0.25
;MINX:114.62
;MINY:190.674
;MINZ:0.25
;MAXX:243.779
;MAXY:213.066
;MAXZ:108.25
;TARGET_MACHINE.NAME:VORON2 350
;POSTPROCESSED
;  [CreateThumbnail]
;  [CreateThumbnail]
;  [InsertAtLayerChange]
;Generated with Cura_SteamEngine 5.10.2
;
;

;
;

;Nozzle diameter = 0.4
;Filament type = PLA
;Filament name = LW-PLA Light Gray
;Filament weight = [7.7864841796875]; M190 S50
; M109 S210


; Pre-Processed for Cancel-Object support by preprocess_cancellation v0.2.0
; 1 known objects
EXCLUDE_OBJECT_DEFINE NAME=V_TAIL_2_R_STL CENTER=162.163,202.007 POLYGON=[[114.62,197.824],[114.62,206.36],[235.715,206.36],[235.715,197.824]]
PRINT_START BED_TEMP=50 EXTRUDER_TEMP=210
M82 ;absolute extrusion mode
M141 S10
G92 E0
G92 E0
G1 F2100 E-3
;LAYER_COUNT:433
;LAYER:0
TIMELAPSE_TAKE_FRAME
M107
G0 F7200 X152.014 Y194.9 Z0.25
;TYPE:SKIRT
G1 F2100 E0.41575
G1 F1800 X152.655 Y194.472 E0.44942
G1 X153.557 Y193.966 E0.49459
G1 X154.258 Y193.637 E0.52842
G1 X155.054 Y193.332 E0.56565
G1 X156.5 Y192.884 E0.63177
G1 X157.327 Y192.66 E0.6692
G1 X158.122 Y192.469 E0.70491
G1 X159.008 Y192.276 E0.74452
G1 X160.513 Y192.005 E0.81132
G1 X161.934 Y191.795 E0.87406
G1 X163.309 Y191.624 E0.93458
G1 X164.744 Y191.458 E0.99768
G1 X167.503 Y191.2 E1.11872
G1 X170.175 Y191.023 E1.23569
G1 X172.87 Y190.875 E1.35358
G1 X175.518 Y190.783 E1.46932
G1 X178.165 Y190.721 E1.58497
G1 X180.788 Y190.686 E1.69955
G1 X183.422 Y190.674 E1.81461
G1 X186.045 Y190.686 E1.92918
G1 X188.645 Y190.716 E2.04276
G1 X191.274 Y190.761 E2.15761
G1 X196.472 Y190.896 E2.38473
G1 X201.673 Y191.08 E2.61205
G1 X206.829 Y191.326 E2.83752
G1 X211.995 Y191.588 E3.06346
G1 X217.143 Y191.877 E3.28868
G1 X222.285 Y192.196 E3.51372
G1 X227.369 Y192.537 E3.73628
G1 X232.673 Y192.92 E3.96856
G1 X236.838 Y193.263 E4.15111
G1 X238.315 Y193.594 E4.21722
G1 X238.383 Y193.616 E4.22034
G1 X239.717 Y194.186 E4.28371
G1 X240.587 Y194.73 E4.32853
G1 X241.058 Y195.109 E4.35494
G1 X241.969 Y196.038 E4.41177
G1 X242.564 Y196.851 E4.45578
G1 X242.811 Y197.28 E4.4774
G1 X243.553 Y199.216 E4.56796
G1 X243.669 Y199.772 E4.59277
G1 X243.779 Y200.974 E4.64549
G1 X243.762 Y202.463 E4.71054
G1 X243.546 Y203.86 E4.77228
G1 X243.302 Y204.66 E4.80881
G1 X242.696 Y205.939 E4.87064
G1 X241.91 Y207.058 E4.93037
G1 X241.27 Y207.735 E4.97106
G1 X240.825 Y208.106 E4.99637
G1 X239.536 Y208.925 E5.06307
G1 X238.63 Y209.324 E5.10631
G1 X237.761 Y209.593 E5.14605
G1 X237.277 Y209.694 E5.16765
G1 X232.69 Y210.151 E5.369
G1 X227.552 Y210.593 E5.59425
G1 X222.363 Y211.01 E5.82164
G1 X217.284 Y211.39 E6.04411
G1 X212.105 Y211.754 E6.27089
G1 X206.92 Y212.085 E6.49783
G1 X201.727 Y212.399 E6.72507
G1 X196.542 Y212.651 E6.95182
G1 X191.348 Y212.853 E7.17886
G1 X188.745 Y212.933 E7.29262
G1 X186.129 Y212.997 E7.40692
G1 X183.508 Y213.042 E7.52142
G1 X180.87 Y213.066 E7.63665
G1 X178.228 Y213.063 E7.75205
G1 X175.567 Y213.036 E7.86829
G1 X172.875 Y212.978 E7.98591
G1 X170.199 Y212.863 E8.1029
G1 X167.501 Y212.719 E8.22092
G1 X166.112 Y212.618 E8.28175
G1 X164.704 Y212.496 E8.34348
G1 X163.322 Y212.347 E8.4042
G1 X161.879 Y212.176 E8.46767
G1 X159.669 Y211.856 E8.56521
G1 X158.861 Y211.708 E8.60109
G1 X158.038 Y211.535 E8.63782
G1 X157.268 Y211.353 E8.67238
G1 X156.416 Y211.132 E8.71083
G1 X155.535 Y210.877 E8.75089
G1 X154.876 Y210.659 E8.78121
G1 X154.511 Y210.52 E8.79827
G1 X153.227 Y209.919 E8.86019
G1 X152.539 Y209.514 E8.89507
G1 X151.439 Y208.718 E8.95438
G1 X150.623 Y207.968 E9.00279
G1 X149.792 Y206.979 E9.05921
G1 X149.251 Y206.135 E9.103
G1 X148.894 Y205.413 E9.13818
G1 X148.543 Y204.495 E9.18111
G1 X148.249 Y203.187 E9.23967
G1 X148.164 Y202.152 E9.28503
G1 X148.176 Y201.619 E9.30832
G1 X148.361 Y200.284 E9.36719
G1 X148.684 Y199.168 E9.41794
G1 X149.038 Y198.344 E9.45711
G1 X149.648 Y197.305 E9.50974
G1 X150.488 Y196.234 E9.56919
G1 X150.826 Y195.888 E9.59032
G1 X152.014 Y194.9 E9.65781
G0 F7200 X152.269 Y195.208
G1 F1800 X152.851 Y194.821 E9.68834
G1 X153.753 Y194.315 E9.73351
G1 X154.401 Y194.011 E9.76478
G1 X155.197 Y193.706 E9.80201
G1 X156.605 Y193.27 E9.86639
G1 X157.421 Y193.049 E9.90332
G1 X158.207 Y192.86 E9.93863
G1 X159.079 Y192.67 E9.97761
G1 X160.572 Y192.401 E10.04388
G1 X161.983 Y192.192 E10.10618
G1 X163.355 Y192.021 E10.16658
G1 X164.781 Y191.856 E10.22928
G1 X167.529 Y191.599 E10.34984
G1 X170.197 Y191.422 E10.46663
G1 X172.884 Y191.275 E10.58417
G1 X175.527 Y191.183 E10.69969
G1 X178.17 Y191.121 E10.81517
G1 X180.79 Y191.086 E10.92962
G1 X183.42 Y191.074 E11.0445
G1 X186.04 Y191.086 E11.15894
G1 X188.638 Y191.116 E11.27243
G1 X191.264 Y191.161 E11.38715
G1 X196.458 Y191.296 E11.6141
G1 X201.654 Y191.48 E11.8412
G1 X206.809 Y191.725 E12.06663
G1 X211.973 Y191.987 E12.29248
G1 X217.118 Y192.276 E12.51757
G1 X222.258 Y192.595 E12.74251
G1 X227.34 Y192.936 E12.96499
G1 X232.64 Y193.319 E13.1971
G1 X236.805 Y193.662 E13.37964
G1 X238.227 Y193.984 E13.44333
G1 X239.506 Y194.526 E13.504
G1 X240.336 Y195.042 E13.54669
G1 X240.807 Y195.421 E13.5731
G1 X241.647 Y196.275 E13.62542
G1 X242.217 Y197.051 E13.66748
G1 X242.464 Y197.48 E13.6891
G1 X243.161 Y199.298 E13.77415
G1 X243.277 Y199.854 E13.79896
G1 X243.379 Y200.969 E13.84787
G1 X243.362 Y202.458 E13.91291
G1 X243.163 Y203.743 E13.96971
G1 X242.919 Y204.543 E14.00624
G1 X242.368 Y205.71 E14.06261
G1 X241.619 Y206.783 E14.11977
G1 X240.979 Y207.46 E14.16046
G1 X240.57 Y207.798 E14.18364
G1 X239.374 Y208.559 E14.24556
G1 X238.511 Y208.942 E14.2868
G1 X237.679 Y209.201 E14.32486
G1 X237.195 Y209.302 E14.34646
G1 X232.656 Y209.752 E14.54569
G1 X227.52 Y210.194 E14.77086
G1 X222.333 Y210.611 E14.99816
G1 X217.256 Y210.991 E15.22054
G1 X212.08 Y211.355 E15.44719
G1 X206.896 Y211.686 E15.67409
G1 X201.708 Y211.999 E15.90111
G1 X196.526 Y212.251 E16.12773
G1 X191.336 Y212.453 E16.3546
G1 X188.735 Y212.533 E16.46826
G1 X186.122 Y212.597 E16.58243
G1 X183.504 Y212.642 E16.6968
G1 X180.87 Y212.666 E16.81186
G1 X178.232 Y212.663 E16.92709
G1 X175.576 Y212.636 E17.04311
G1 X172.892 Y212.578 E17.16037
G1 X170.22 Y212.464 E17.27719
G1 X167.53 Y212.32 E17.39486
G1 X166.146 Y212.219 E17.45547
G1 X164.747 Y212.098 E17.51681
G1 X163.369 Y211.95 E17.57735
G1 X161.936 Y211.78 E17.64038
G1 X159.741 Y211.463 E17.73725
G1 X158.943 Y211.317 E17.77269
G1 X158.13 Y211.146 E17.80897
G1 X157.368 Y210.966 E17.84317
G1 X156.527 Y210.748 E17.88112
G1 X155.66 Y210.497 E17.92055
G1 X155.018 Y210.285 E17.95008
G1 X154.653 Y210.146 E17.96714
G1 X153.43 Y209.574 E18.02612
G1 X152.742 Y209.169 E18.06099
G1 X151.71 Y208.423 E18.11661
G1 X150.894 Y207.673 E18.16502
G1 X150.128 Y206.762 E18.21701
G1 X149.609 Y205.957 E18.25885
G1 X149.268 Y205.27 E18.29235
G1 X148.917 Y204.352 E18.33528
G1 X148.648 Y203.154 E18.38891
G1 X148.563 Y202.119 E18.43427
G1 X148.576 Y201.63 E18.45564
G1 X148.746 Y200.394 E18.51013
G1 X149.052 Y199.326 E18.55866
G1 X149.406 Y198.502 E18.59783
G1 X149.963 Y197.551 E18.64597
G1 X150.774 Y196.514 E18.70348
G1 X151.112 Y196.168 E18.7246
G1 X152.269 Y195.208 E18.79027
G0 F7200 X152.491 Y195.541
G1 F1800 X153.047 Y195.17 E18.81947
G1 X153.949 Y194.664 E18.86464
G1 X154.544 Y194.385 E18.89335
G1 X155.34 Y194.08 E18.93058
G1 X156.71 Y193.656 E18.99323
G1 X157.514 Y193.438 E19.02961
G1 X158.292 Y193.251 E19.06456
G1 X159.15 Y193.064 E19.10292
G1 X160.631 Y192.797 E19.16865
G1 X162.033 Y192.589 E19.23056
G1 X163.401 Y192.418 E19.29078
G1 X164.818 Y192.254 E19.35309
G1 X167.556 Y191.998 E19.47321
G1 X170.219 Y191.821 E19.58978
G1 X172.898 Y191.675 E19.70698
G1 X175.536 Y191.583 E19.82227
G1 X178.175 Y191.521 E19.93758
G1 X180.792 Y191.486 E20.0519
G1 X183.418 Y191.474 E20.1666
G1 X186.035 Y191.486 E20.28091
G1 X188.631 Y191.516 E20.39431
G1 X191.254 Y191.561 E20.5089
G1 X196.444 Y191.696 E20.73568
G1 X201.635 Y191.88 E20.96256
G1 X206.789 Y192.124 E21.18794
G1 X211.951 Y192.386 E21.41371
G1 X217.093 Y192.675 E21.63866
G1 X222.231 Y192.994 E21.86352
G1 X227.311 Y193.335 E22.08592
G1 X232.607 Y193.718 E22.31785
G1 X236.772 Y194.061 E22.50039
G1 X238.138 Y194.374 E22.56161
G1 X239.296 Y194.866 E22.61656
G1 X240.087 Y195.355 E22.65718
G1 X240.523 Y195.702 E22.68152
G1 X241.325 Y196.512 E22.73131
G1 X241.87 Y197.251 E22.77142
G1 X242.117 Y197.68 E22.79304
G1 X242.769 Y199.38 E22.87257
G1 X242.885 Y199.936 E22.89738
G1 X242.979 Y200.964 E22.94247
G1 X242.962 Y202.453 E23.00752
G1 X242.78 Y203.626 E23.05937
G1 X242.536 Y204.426 E23.0959
G1 X242.039 Y205.482 E23.14688
G1 X241.327 Y206.509 E23.20146
G1 X240.722 Y207.153 E23.24006
G1 X240.354 Y207.461 E23.26102
G1 X239.212 Y208.193 E23.32027
G1 X238.349 Y208.576 E23.36151
G1 X237.597 Y208.809 E23.3959
G1 X237.113 Y208.91 E23.4175
G1 X232.622 Y209.353 E23.61461
G1 X227.488 Y209.795 E23.8397
G1 X222.303 Y210.212 E24.06691
G1 X217.228 Y210.592 E24.2892
G1 X212.055 Y210.956 E24.51572
G1 X206.872 Y211.287 E24.74257
G1 X201.689 Y211.599 E24.96938
G1 X196.51 Y211.851 E25.19586
G1 X191.324 Y212.053 E25.42256
G1 X188.725 Y212.133 E25.53614
G1 X186.115 Y212.197 E25.65017
G1 X183.5 Y212.242 E25.76441
G1 X180.87 Y212.266 E25.8793
G1 X178.236 Y212.263 E25.99435
G1 X175.585 Y212.236 E26.11015
G1 X172.909 Y212.178 E26.22707
G1 X170.241 Y212.065 E26.34371
G1 X167.559 Y211.921 E26.46103
G1 X166.181 Y211.821 E26.52138
G1 X164.79 Y211.7 E26.58236
G1 X163.416 Y211.553 E26.64272
G1 X161.993 Y211.384 E26.70532
G1 X159.813 Y211.07 E26.80152
G1 X159.025 Y210.926 E26.83651
G1 X158.222 Y210.757 E26.87235
G1 X157.468 Y210.579 E26.90619
G1 X156.638 Y210.364 E26.94365
G1 X155.785 Y210.117 E26.98244
G1 X155.16 Y209.911 E27.01118
G1 X154.795 Y209.772 E27.02824
G1 X153.632 Y209.229 E27.0843
G1 X152.976 Y208.844 E27.11753
G1 X151.981 Y208.128 E27.17107
G1 X151.165 Y207.378 E27.21948
G1 X150.464 Y206.544 E27.26707
G1 X149.967 Y205.778 E27.30696
G1 X149.642 Y205.127 E27.33874
G1 X149.291 Y204.209 E27.38167
G1 X149.047 Y203.12 E27.43041
G1 X148.963 Y202.13 E27.47381
G1 X148.976 Y201.641 E27.49518
G1 X149.131 Y200.503 E27.54535
G1 X149.42 Y199.484 E27.59161
G1 X149.774 Y198.66 E27.63079
G1 X150.278 Y197.797 E27.67444
G1 X151.06 Y196.794 E27.72999
G1 X151.398 Y196.448 E27.75112
G1 X152.491 Y195.541 E27.81316
G0 F7200 X152.746 Y195.849
G1 F1800 X153.243 Y195.519 E27.83922
G1 X154.145 Y195.013 E27.88439
G1 X154.687 Y194.759 E27.91054
G1 X155.483 Y194.454 E27.94777
G1 X156.815 Y194.042 E28.00867
G1 X157.608 Y193.827 E28.04456
G1 X158.377 Y193.642 E28.07911
G1 X159.221 Y193.458 E28.11684
G1 X160.69 Y193.193 E28.18204
G1 X162.083 Y192.986 E28.24356
G1 X163.447 Y192.815 E28.3036
G1 X164.855 Y192.652 E28.36552
G1 X167.583 Y192.397 E28.48519
G1 X170.241 Y192.22 E28.60155
G1 X172.912 Y192.075 E28.71839
G1 X175.545 Y191.983 E28.83347
G1 X178.18 Y191.921 E28.9486
G1 X180.794 Y191.886 E29.06279
G1 X183.416 Y191.874 E29.17732
G1 X186.03 Y191.886 E29.2915
G1 X188.624 Y191.916 E29.40481
G1 X191.244 Y191.961 E29.51927
G1 X196.43 Y192.096 E29.74587
G1 X201.616 Y192.28 E29.97254
G1 X206.769 Y192.523 E30.19787
G1 X211.929 Y192.785 E30.42355
G1 X217.068 Y193.074 E30.64838
G1 X222.204 Y193.393 E30.87315
G1 X227.282 Y193.734 E31.09546
G1 X232.574 Y194.117 E31.32721
G1 X236.739 Y194.46 E31.50976
G1 X238.048 Y194.764 E31.56846
G1 X239.087 Y195.207 E31.61779
G1 X239.84 Y195.669 E31.65638
G1 X240.24 Y195.984 E31.67862
G1 X241.004 Y196.75 E31.72588
G1 X241.523 Y197.451 E31.76397
G1 X241.77 Y197.88 E31.7856
G1 X242.377 Y199.462 E31.85961
G1 X242.493 Y200.018 E31.88442
G1 X242.579 Y200.959 E31.92569
G1 X242.562 Y202.448 E31.99074
G1 X242.397 Y203.509 E32.03764
G1 X242.153 Y204.309 E32.07417
G1 X241.709 Y205.255 E32.11982
G1 X241.035 Y206.235 E32.17177
G1 X240.43 Y206.879 E32.21037
G1 X240.138 Y207.124 E32.22702
G1 X238.996 Y207.856 E32.28627
G1 X238.23 Y208.194 E32.32284
G1 X237.515 Y208.417 E32.35555
G1 X237.031 Y208.518 E32.37715
G1 X232.588 Y208.954 E32.57215
G1 X227.456 Y209.396 E32.79715
G1 X222.273 Y209.813 E33.02427
G1 X217.2 Y210.193 E33.24648
G1 X212.03 Y210.557 E33.47286
G1 X206.848 Y210.888 E33.69967
G1 X201.67 Y211.199 E33.92626
G1 X196.494 Y211.451 E34.15261
G1 X191.312 Y211.653 E34.37913
G1 X188.715 Y211.733 E34.49262
G1 X186.108 Y211.797 E34.60653
G1 X183.496 Y211.842 E34.72064
G1 X180.87 Y211.866 E34.83535
G1 X178.24 Y211.863 E34.95023
G1 X175.594 Y211.836 E35.06581
G1 X172.926 Y211.778 E35.18237
G1 X170.263 Y211.666 E35.2988
G1 X167.588 Y211.522 E35.41581
G1 X166.216 Y211.422 E35.4759
G1 X164.832 Y211.302 E35.53658
G1 X163.463 Y211.156 E35.59671
G1 X162.05 Y210.988 E35.65887
G1 X159.884 Y210.676 E35.75446
G1 X159.107 Y210.535 E35.78895
G1 X158.314 Y210.368 E35.82435
G1 X157.568 Y210.192 E35.85783
G1 X156.749 Y209.98 E35.89478
G1 X155.91 Y209.737 E35.93293
G1 X155.302 Y209.537 E35.96089
G1 X154.937 Y209.398 E35.97795
G1 X153.834 Y208.883 E36.03112
G1 X153.21 Y208.519 E36.06268
G1 X152.215 Y207.803 E36.11622
G1 X151.436 Y207.084 E36.16253
G1 X150.8 Y206.326 E36.20575
G1 X150.303 Y205.56 E36.24563
G1 X150.016 Y204.984 E36.27374
G1 X149.665 Y204.066 E36.31667
G1 X149.445 Y203.085 E36.36059
G1 X149.363 Y202.141 E36.40197
G1 X149.376 Y201.652 E36.42334
G1 X149.516 Y200.611 E36.46922
G1 X149.788 Y199.642 E36.51318
G1 X150.142 Y198.818 E36.55236
G1 X150.623 Y198 E36.59381
G1 X151.346 Y197.074 E36.64512
G1 X151.684 Y196.728 E36.66625
G1 X152.746 Y195.849 E36.72647
G0 F7200 X152.968 Y196.182
G1 F1800 X153.439 Y195.868 E36.75119
G1 X154.341 Y195.362 E36.79637
G1 X154.83 Y195.133 E36.81995
G1 X155.626 Y194.828 E36.85719
G1 X156.92 Y194.428 E36.91635
G1 X157.702 Y194.216 E36.95174
G1 X158.462 Y194.033 E36.98588
G1 X159.292 Y193.852 E37.02299
G1 X160.749 Y193.589 E37.08766
G1 X162.133 Y193.383 E37.14878
G1 X163.493 Y193.212 E37.20865
G1 X164.892 Y193.05 E37.27017
G1 X167.61 Y192.796 E37.38941
G1 X170.263 Y192.619 E37.50555
G1 X172.926 Y192.475 E37.62204
G1 X175.554 Y192.383 E37.7369
G1 X178.185 Y192.321 E37.85185
G1 X180.796 Y192.286 E37.96591
G1 X183.414 Y192.274 E38.08027
G1 X186.025 Y192.286 E38.19432
G1 X188.617 Y192.316 E38.30754
G1 X191.234 Y192.361 E38.42187
G1 X196.416 Y192.496 E38.64829
G1 X201.597 Y192.68 E38.87474
G1 X206.749 Y192.922 E39.10003
G1 X211.907 Y193.184 E39.32562
G1 X217.043 Y193.473 E39.55032
G1 X222.177 Y193.792 E39.775
G1 X227.253 Y194.133 E39.99722
G1 X232.541 Y194.516 E40.22881
G1 X236.706 Y194.859 E40.41135
G1 X237.893 Y195.133 E40.46456
G1 X238.879 Y195.549 E40.5113
G1 X239.594 Y195.985 E40.54788
G1 X239.958 Y196.268 E40.56802
G1 X240.683 Y196.989 E40.61269
G1 X241.176 Y197.651 E40.64874
G1 X241.423 Y198.08 E40.67036
G1 X241.985 Y199.544 E40.73886
G1 X242.101 Y200.1 E40.76367
G1 X242.179 Y200.954 E40.80113
G1 X242.162 Y202.443 E40.86617
G1 X242.014 Y203.392 E40.90812
G1 X241.77 Y204.192 E40.94466
G1 X241.378 Y205.03 E40.98507
G1 X240.743 Y205.962 E41.03433
G1 X240.169 Y206.575 E41.07101
G1 X239.922 Y206.787 E41.08523
G1 X238.78 Y207.519 E41.14448
G1 X238.11 Y207.812 E41.17642
G1 X237.433 Y208.025 E41.20742
G1 X236.949 Y208.126 E41.22902
G1 X232.554 Y208.555 E41.4219
G1 X227.424 Y208.997 E41.64681
G1 X222.243 Y209.414 E41.87385
G1 X217.172 Y209.794 E42.09597
G1 X212.004 Y210.158 E42.32227
G1 X206.824 Y210.489 E42.54899
G1 X201.651 Y210.799 E42.77535
G1 X196.478 Y211.051 E43.00157
G1 X191.3 Y211.253 E43.22792
G1 X188.705 Y211.333 E43.34132
G1 X186.101 Y211.397 E43.4551
G1 X183.492 Y211.442 E43.56908
G1 X180.87 Y211.466 E43.68361
G1 X178.244 Y211.463 E43.79832
G1 X175.603 Y211.436 E43.91368
G1 X172.943 Y211.378 E44.0299
G1 X170.285 Y211.267 E44.1461
G1 X167.617 Y211.123 E44.26281
G1 X166.25 Y211.023 E44.32268
G1 X164.874 Y210.904 E44.383
G1 X163.51 Y210.759 E44.44292
G1 X162.107 Y210.592 E44.50464
G1 X159.956 Y210.283 E44.59956
G1 X159.189 Y210.143 E44.63361
G1 X158.406 Y209.979 E44.66855
G1 X157.668 Y209.805 E44.70167
G1 X156.86 Y209.596 E44.73813
G1 X156.035 Y209.357 E44.77565
G1 X155.444 Y209.163 E44.80282
G1 X155.079 Y209.024 E44.81988
G1 X154.036 Y208.537 E44.87016
G1 X153.412 Y208.173 E44.90171
G1 X152.485 Y207.508 E44.95154
G1 X151.742 Y206.826 E44.9956
G1 X151.136 Y206.108 E45.03664
G1 X150.639 Y205.342 E45.07652
G1 X150.39 Y204.841 E45.10096
G1 X150.039 Y203.923 E45.14389
