;FLAVOR:Marlin
;TIME:7989
;Filament used: 9.00697m
;Layer height: 0.25
;MINX:85.664
;MINY:156.002
;MINZ:0.25
;MAXX:261.22
;MAXY:202.001
;MAXZ:92.25
;TARGET_MACHINE.NAME:VORON2 350
;POSTPROCESSED
;  [CreateThumbnail]
;  [CreateThumbnail]
;  [InsertAtLayerChange]
;Generated with Cura_SteamEngine 5.10.2
;
;

;
;

;Nozzle diameter = 0.4
;Filament type = PLA
;Filament name = LW-PLA Light Gray
;Filament weight = [15.165007812499999]; M190 S50
; M109 S210


; Pre-Processed for Cancel-Object support by preprocess_cancellation v0.2.0
; 1 known objects
EXCLUDE_OBJECT_DEFINE NAME=WINGTIP_R_LED_STL CENTER=158.228,178.205 POLYGON=[[93.645,156.002],[93.645,193.984],[256.364,193.984],[256.364,156.002]]
PRINT_START BED_TEMP=50 EXTRUDER_TEMP=210
M82 ;absolute extrusion mode
M141 S10
G92 E0
G92 E0
G1 F2100 E-3
;LAYER_COUNT:369
;LAYER:0
TIMELAPSE_TAKE_FRAME
M107
G0 F7200 X94.729 Y177.685 Z0.25
;TYPE:SKIRT
G1 F2100 E0.41575
G1 F1800 X96.029 Y177.036 E0.47922
G1 X97.115 Y176.536 E0.53144
G1 X98.583 Y175.913 E0.6011
G1 X99.809 Y175.439 E0.65851
G1 X100.603 Y175.151 E0.69541
G1 X102.228 Y174.59 E0.7705
G1 X103.474 Y174.19 E0.82766
G1 X104.803 Y173.8 E0.88816
G1 X106.979 Y173.205 E0.98669
G1 X108.217 Y172.893 E1.04246
G1 X110.557 Y172.351 E1.14738
G1 X112.861 Y171.878 E1.25011
G1 X115.041 Y171.47 E1.34699
G1 X117.51 Y171.042 E1.45644
G1 X119.791 Y170.711 E1.55712
G1 X122.124 Y170.393 E1.65997
G1 X124.813 Y170.071 E1.77826
G1 X126.803 Y169.871 E1.86562
G1 X129.209 Y169.648 E1.97117
G1 X131.877 Y169.454 E2.08801
G1 X134.055 Y169.309 E2.18336
G1 X136.548 Y169.197 E2.29236
G1 X138.968 Y169.124 E2.39812
G1 X141.668 Y169.084 E2.51607
G1 X144.305 Y169.075 E2.63125
G1 X146.996 Y169.101 E2.7488
G1 X150.038 Y169.179 E2.88172
G1 X155.04 Y169.423 E3.10046
G1 X157.82 Y169.598 E3.22213
G1 X160.434 Y169.8 E3.33665
G1 X165.846 Y170.289 E3.57401
G1 X170.88 Y170.853 E3.79527
G1 X173.964 Y171.239 E3.93103
G1 X180.542 Y172.121 E4.22093
G1 X186.266 Y172.982 E4.47377
G1 X190.15 Y173.58 E4.64542
G1 X194.845 Y174.324 E4.85305
G1 X201.307 Y175.398 E5.13919
G1 X211.795 Y177.168 E5.60378
G1 X217.598 Y178.167 E5.86098
G1 X233.406 Y180.92 E6.56187
G1 X244.175 Y182.809 E7.03944
G1 X248.582 Y183.605 E7.23505
G1 X255.176 Y184.871 E7.52834
G1 X256.101 Y185.158 E7.57064
G1 X257.022 Y185.567 E7.61466
G1 X258.173 Y186.292 E7.67407
G1 X258.74 Y186.777 E7.70667
G1 X259.391 Y187.47 E7.7482
G1 X260.15 Y188.556 E7.80607
G1 X260.55 Y189.354 E7.84506
G1 X261 Y190.662 E7.90548
G1 X261.07 Y190.98 E7.9197
G1 X261.22 Y192.587 E7.9902
G1 X261.145 Y194.46 E8.07208
G1 X261.028 Y195.103 E8.10063
G1 X260.482 Y196.728 E8.17551
G1 X260.102 Y197.45 E8.21115
G1 X259.407 Y198.435 E8.2638
G1 X258.767 Y199.114 E8.30456
G1 X257.887 Y199.833 E8.3542
G1 X257.443 Y200.121 E8.37731
G1 X256.537 Y200.583 E8.42173
G1 X255.429 Y200.98 E8.47315
G1 X255.044 Y201.074 E8.49046
G1 X253.655 Y201.259 E8.55166
G1 X248.761 Y201.408 E8.76553
G1 X245.768 Y201.466 E8.89629
G1 X238.261 Y201.542 E9.22421
G1 X206.504 Y201.711 E10.61137
G1 X172.021 Y201.922 E12.11762
G1 X161.43 Y201.974 E12.58024
G1 X149.89 Y202.001 E13.0843
G1 X141.477 Y201.984 E13.45178
G1 X135.95 Y201.946 E13.69321
G1 X131.309 Y201.894 E13.89594
G1 X125.98 Y201.801 E14.12875
G1 X120.227 Y201.648 E14.38012
G1 X116.003 Y201.474 E14.56479
G1 X113.439 Y201.345 E14.67692
G1 X110.861 Y201.196 E14.78972
G1 X108.374 Y201.025 E14.89861
G1 X105.591 Y200.784 E15.02062
G1 X102.676 Y200.459 E15.14874
G1 X101.481 Y200.3 E15.20139
G1 X100.171 Y200.101 E15.25927
G1 X98.403 Y199.802 E15.33759
G1 X97.332 Y199.591 E15.38528
G1 X96.633 Y199.436 E15.41655
G1 X95.77 Y199.224 E15.45537
G1 X95.043 Y199.019 E15.48836
G1 X94.053 Y198.707 E15.5337
G1 X93.458 Y198.499 E15.56123
G1 X92.032 Y197.954 E15.62791
G1 X90.898 Y197.427 E15.68253
G1 X90.062 Y196.938 E15.72484
G1 X89.121 Y196.252 E15.7757
G1 X88.109 Y195.291 E15.83666
G1 X87.491 Y194.532 E15.87942
G1 X86.59 Y193.031 E15.95588
G1 X86.495 Y192.837 E15.96532
G1 X86.014 Y191.555 E16.02513
G1 X85.758 Y190.406 E16.07655
G1 X85.664 Y189.154 E16.13139
G1 X85.83 Y187.325 E16.21161
G1 X86.094 Y186.286 E16.25843
G1 X86.373 Y185.545 E16.29302
G1 X86.741 Y184.784 E16.32994
G1 X87.454 Y183.628 E16.38927
G1 X87.801 Y183.163 E16.41461
G1 X88.768 Y182.03 E16.47967
G1 X89.288 Y181.496 E16.51223
G1 X90.399 Y180.497 E16.57749
G1 X91.161 Y179.897 E16.61986
G1 X91.957 Y179.328 E16.6626
G1 X92.653 Y178.877 E16.69882
G1 X93.425 Y178.409 E16.73825
G1 X94.729 Y177.685 E16.8034
G0 F7200 X94.908 Y178.043
G1 F1800 X96.196 Y177.399 E16.8663
G1 X97.271 Y176.904 E16.918
G1 X98.727 Y176.286 E16.98709
G1 X99.945 Y175.815 E17.04413
G1 X100.733 Y175.529 E17.08075
G1 X102.35 Y174.971 E17.15546
G1 X103.587 Y174.574 E17.21221
G1 X104.908 Y174.186 E17.27235
G1 X107.077 Y173.593 E17.37057
G1 X108.307 Y173.283 E17.42597
G1 X110.637 Y172.743 E17.53045
G1 X112.935 Y172.271 E17.63292
G1 X115.109 Y171.864 E17.72953
G1 X117.568 Y171.438 E17.83854
G1 X119.845 Y171.107 E17.93904
G1 X122.172 Y170.79 E18.04162
G1 X124.853 Y170.469 E18.15957
G1 X126.84 Y170.269 E18.2468
G1 X129.238 Y170.047 E18.35199
G1 X131.903 Y169.853 E18.4687
G1 X134.073 Y169.709 E18.5637
G1 X136.56 Y169.597 E18.67244
G1 X138.974 Y169.524 E18.77793
G1 X141.669 Y169.484 E18.89566
G1 X144.301 Y169.475 E19.01063
G1 X146.986 Y169.501 E19.12791
G1 X150.019 Y169.579 E19.26044
G1 X155.015 Y169.822 E19.47892
G1 X157.789 Y169.997 E19.60033
G1 X160.398 Y170.198 E19.71463
G1 X165.801 Y170.687 E19.9516
G1 X170.83 Y171.25 E20.17263
G1 X173.911 Y171.635 E20.30826
G1 X180.483 Y172.517 E20.5979
G1 X186.205 Y173.377 E20.85064
G1 X190.087 Y173.975 E21.02221
G1 X194.779 Y174.719 E21.22971
G1 X201.24 Y175.792 E21.51579
G1 X211.727 Y177.562 E21.98034
G1 X217.53 Y178.561 E22.23755
G1 X233.337 Y181.314 E22.93839
G1 X244.104 Y183.203 E23.41587
G1 X248.507 Y183.998 E23.61131
G1 X255.058 Y185.253 E23.90266
G1 X255.939 Y185.524 E23.94292
G1 X256.86 Y185.933 E23.98694
G1 X257.914 Y186.597 E24.04135
G1 X258.448 Y187.051 E24.07196
G1 X259.099 Y187.744 E24.1135
G1 X259.792 Y188.735 E24.16632
G1 X260.192 Y189.533 E24.20531
G1 X260.609 Y190.748 E24.26142
G1 X260.679 Y191.066 E24.27564
G1 X260.82 Y192.572 E24.34171
G1 X260.751 Y194.388 E24.42109
G1 X260.634 Y195.031 E24.44964
G1 X260.127 Y196.543 E24.51929
G1 X259.775 Y197.219 E24.55259
G1 X259.08 Y198.204 E24.60524
G1 X258.513 Y198.805 E24.64133
G1 X257.669 Y199.497 E24.68901
G1 X257.225 Y199.785 E24.71212
G1 X256.402 Y200.206 E24.7525
G1 X255.294 Y200.603 E24.80391
G1 X254.991 Y200.678 E24.81755
G1 X253.643 Y200.859 E24.87695
G1 X248.753 Y201.008 E25.09065
G1 X245.764 Y201.066 E25.22123
G1 X238.259 Y201.142 E25.54907
G1 X206.502 Y201.311 E26.93623
G1 X172.019 Y201.522 E28.44247
G1 X161.429 Y201.574 E28.90505
G1 X149.891 Y201.601 E29.40903
G1 X141.48 Y201.584 E29.77642
G1 X135.954 Y201.546 E30.0178
G1 X131.316 Y201.494 E30.2204
G1 X125.991 Y201.401 E30.45303
G1 X120.243 Y201.248 E30.70419
G1 X116.023 Y201.075 E30.88868
G1 X113.462 Y200.946 E31.00068
G1 X110.888 Y200.797 E31.1133
G1 X108.409 Y200.627 E31.22184
G1 X105.635 Y200.386 E31.34347
G1 X102.729 Y200.062 E31.47119
G1 X101.541 Y199.904 E31.52353
G1 X100.238 Y199.707 E31.5811
G1 X98.48 Y199.41 E31.65897
G1 X97.419 Y199.201 E31.70621
G1 X96.728 Y199.047 E31.73713
G1 X95.879 Y198.839 E31.77531
G1 X95.163 Y198.637 E31.80781
G1 X94.185 Y198.329 E31.8526
G1 X93.601 Y198.125 E31.87962
G1 X92.201 Y197.591 E31.94507
G1 X91.067 Y197.064 E31.99969
G1 X90.298 Y196.615 E32.03858
G1 X89.357 Y195.929 E32.08945
G1 X88.418 Y195.037 E32.14602
G1 X87.834 Y194.326 E32.18621
G1 X86.933 Y192.825 E32.26268
G1 X86.87 Y192.696 E32.26895
G1 X86.389 Y191.414 E32.32876
G1 X86.157 Y190.376 E32.37522
G1 X86.063 Y189.124 E32.43006
G1 X86.218 Y187.424 E32.50462
G1 X86.482 Y186.385 E32.55145
G1 X86.733 Y185.719 E32.58254
G1 X87.101 Y184.958 E32.61946
G1 X87.775 Y183.867 E32.67547
G1 X88.122 Y183.402 E32.70082
G1 X89.055 Y182.309 E32.76359
G1 X89.575 Y181.775 E32.79614
G1 X90.666 Y180.795 E32.8602
G1 X91.394 Y180.222 E32.90067
G1 X92.174 Y179.664 E32.94256
G1 X92.861 Y179.219 E32.97831
G1 X93.619 Y178.759 E33.01704
G1 X94.908 Y178.043 E33.08145
G0 F7200 X95.087 Y178.401
G1 F1800 X96.363 Y177.762 E33.14378
G1 X97.427 Y177.272 E33.19495
G1 X98.871 Y176.659 E33.26347
G1 X100.082 Y176.191 E33.32018
G1 X100.864 Y175.907 E33.35652
G1 X102.472 Y175.352 E33.43082
G1 X103.7 Y174.958 E33.48716
G1 X105.014 Y174.572 E33.54698
G1 X107.175 Y173.981 E33.64484
G1 X108.397 Y173.673 E33.69988
G1 X110.718 Y173.135 E33.80395
G1 X113.009 Y172.664 E33.90611
G1 X115.177 Y172.258 E34.00246
G1 X117.626 Y171.834 E34.11102
G1 X119.899 Y171.503 E34.21135
G1 X122.22 Y171.187 E34.31367
G1 X124.893 Y170.867 E34.43126
G1 X126.877 Y170.667 E34.51836
G1 X129.267 Y170.446 E34.6232
G1 X131.929 Y170.252 E34.73979
G1 X134.091 Y170.109 E34.83443
G1 X136.572 Y169.997 E34.94291
G1 X138.98 Y169.924 E35.04814
G1 X141.67 Y169.884 E35.16565
G1 X144.297 Y169.875 E35.2804
G1 X146.976 Y169.901 E35.39742
G1 X150 Y169.979 E35.52955
G1 X154.99 Y170.221 E35.74777
G1 X157.758 Y170.396 E35.86892
G1 X160.363 Y170.596 E35.98304
G1 X162.029 Y170.741 E36.05609
G1 X165.757 Y171.085 E36.21962
G1 X170.78 Y171.647 E36.44039
G1 X173.858 Y172.031 E36.57588
G1 X180.424 Y172.913 E36.86526
G1 X186.144 Y173.772 E37.11791
G1 X190.024 Y174.37 E37.28939
G1 X194.714 Y175.114 E37.49681
G1 X201.173 Y176.186 E37.7828
G1 X211.659 Y177.956 E38.2473
G1 X217.462 Y178.955 E38.50451
G1 X233.268 Y181.708 E39.2053
G1 X244.033 Y183.597 E39.6827
G1 X248.432 Y184.391 E39.87796
G1 X254.983 Y185.646 E40.16931
G1 X255.777 Y185.89 E40.20559
G1 X256.698 Y186.299 E40.24961
G1 X257.656 Y186.903 E40.29907
G1 X258.156 Y187.325 E40.32765
G1 X258.807 Y188.018 E40.36918
G1 X259.463 Y188.963 E40.41943
G1 X259.814 Y189.664 E40.45368
G1 X260.218 Y190.834 E40.50774
G1 X260.288 Y191.152 E40.52197
G1 X260.42 Y192.558 E40.58365
G1 X260.357 Y194.316 E40.66049
G1 X260.24 Y194.959 E40.68904
G1 X259.772 Y196.358 E40.75347
G1 X259.42 Y197.034 E40.78676
G1 X258.788 Y197.931 E40.83469
G1 X258.259 Y198.496 E40.8685
G1 X257.451 Y199.161 E40.91421
G1 X257.007 Y199.449 E40.93733
G1 X256.267 Y199.829 E40.97366
G1 X255.159 Y200.226 E41.02507
G1 X254.897 Y200.289 E41.03684
G1 X253.631 Y200.459 E41.09264
G1 X248.745 Y200.608 E41.30616
G1 X245.76 Y200.666 E41.43657
G1 X238.257 Y200.742 E41.76431
G1 X206.5 Y200.911 E43.15148
G1 X172.017 Y201.122 E44.65772
G1 X161.428 Y201.174 E45.12025
G1 X149.892 Y201.201 E45.62414
G1 X141.483 Y201.184 E45.99145
G1 X135.958 Y201.146 E46.23279
G1 X131.323 Y201.094 E46.43526
G1 X126.002 Y201.001 E46.66771
G1 X120.259 Y200.848 E46.91865
G1 X116.043 Y200.675 E47.10296
G1 X113.485 Y200.547 E47.21484
G1 X110.915 Y200.398 E47.32728
G1 X108.444 Y200.228 E47.43547
G1 X105.679 Y199.988 E47.5567
G1 X102.782 Y199.665 E47.68402
G1 X101.601 Y199.508 E47.73606
G1 X100.305 Y199.313 E47.79331
G1 X98.557 Y199.018 E47.87074
G1 X97.506 Y198.811 E47.91753
G1 X96.823 Y198.659 E47.9481
G1 X95.987 Y198.454 E47.98569
G1 X95.283 Y198.256 E48.01764
G1 X94.317 Y197.951 E48.06189
G1 X93.744 Y197.751 E48.0884
G1 X92.344 Y197.217 E48.15384
G1 X91.268 Y196.718 E48.20565
G1 X90.533 Y196.291 E48.24278
G1 X89.632 Y195.638 E48.29139
G1 X88.726 Y194.781 E48.34586
G1 X88.177 Y194.12 E48.38339
G1 X87.276 Y192.619 E48.45986
G1 X87.245 Y192.555 E48.46297
G1 X86.764 Y191.273 E48.52278
G1 X86.548 Y190.29 E48.56674
G1 X86.462 Y189.095 E48.61907
G1 X86.606 Y187.523 E48.68802
G1 X86.87 Y186.484 E48.73485
G1 X87.094 Y185.892 E48.7625
G1 X87.442 Y185.168 E48.79758
G1 X88.096 Y184.106 E48.85206
G1 X88.443 Y183.641 E48.87741
G1 X89.342 Y182.588 E48.93788
G1 X89.862 Y182.054 E48.97044
G1 X90.913 Y181.109 E49.03218
G1 X91.627 Y180.547 E49.07187
G1 X92.391 Y180 E49.11291
G1 X93.069 Y179.561 E49.14819
G1 X93.813 Y179.109 E49.18622
G1 X95.087 Y178.401 E49.24988
G0 F7200 X95.266 Y178.759
G1 F1800 X96.53 Y178.125 E49.31165
G1 X97.583 Y177.64 E49.36229
G1 X99.015 Y177.032 E49.43024
G1 X100.218 Y176.567 E49.48658
G1 X100.995 Y176.285 E49.52268
G1 X102.594 Y175.733 E49.59657
G1 X103.813 Y175.342 E49.65249
G1 X105.12 Y174.958 E49.71199
G1 X107.273 Y174.369 E49.80949
G1 X108.487 Y174.063 E49.86417
G1 X110.799 Y173.527 E49.96784
G1 X113.083 Y173.057 E50.0697
G1 X115.245 Y172.652 E50.16578
G1 X117.684 Y172.23 E50.27389
G1 X119.953 Y171.899 E50.37405
G1 X122.268 Y171.584 E50.4761
G1 X124.933 Y171.265 E50.59334
G1 X126.914 Y171.065 E50.68031
G1 X129.296 Y170.845 E50.7848
G1 X131.955 Y170.651 E50.90125
G1 X134.109 Y170.509 E50.99554
G1 X136.584 Y170.397 E51.10376
G1 X138.986 Y170.324 E51.20873
G1 X141.671 Y170.284 E51.32602
G1 X144.293 Y170.275 E51.44055
G1 X146.966 Y170.301 E51.55731
G1 X149.981 Y170.379 E51.68905
G1 X154.965 Y170.62 E51.90701
G1 X157.727 Y170.795 E52.02789
G1 X160.328 Y170.994 E52.14184
G1 X161.992 Y171.139 E52.2148
G1 X165.713 Y171.483 E52.37802
G1 X170.731 Y172.044 E52.59857
G1 X173.805 Y172.427 E52.73388
G1 X180.365 Y173.309 E53.023
G1 X186.083 Y174.167 E53.27556
G1 X189.961 Y174.765 E53.44695
G1 X194.649 Y175.509 E53.65429
G1 X201.106 Y176.58 E53.94018
G1 X211.591 Y178.35 E54.40465
G1 X217.394 Y179.349 E54.66185
G1 X233.199 Y182.102 E55.3626
G1 X243.962 Y183.991 E55.83992
G1 X248.357 Y184.784 E56.03499
G1 X254.908 Y186.039 E56.32634
G1 X255.615 Y186.256 E56.35864
G1 X256.536 Y186.665 E56.40266
G1 X257.398 Y187.209 E56.44719
G1 X257.898 Y187.631 E56.47576
G1 X258.479 Y188.247 E56.51275
G1 X259.105 Y189.142 E56.56046
G1 X259.456 Y189.843 E56.5947
G1 X259.827 Y190.92 E56.64446
G1 X259.897 Y191.238 E56.65868
G1 X260.02 Y192.545 E56.71602
G1 X259.963 Y194.244 E56.79028
G1 X259.846 Y194.887 E56.81882
G1 X259.417 Y196.173 E56.87804
G1 X259.065 Y196.849 E56.91133
G1 X258.495 Y197.659 E56.95459
G1 X258.004 Y198.188 E56.98612
G1 X257.233 Y198.825 E57.0298
G1 X256.789 Y199.113 E57.05292
G1 X256.131 Y199.453 E57.08527
G1 X255.065 Y199.837 E57.13476
G1 X254.803 Y199.9 E57.14653
G1 X253.619 Y200.059 E57.19871
G1 X248.737 Y200.208 E57.41206
G1 X245.756 Y200.266 E57.54229
G1 X238.255 Y200.342 E57.86995
G1 X206.498 Y200.511 E59.25712
G1 X172.015 Y200.722 E60.76336
G1 X161.427 Y200.774 E61.22585
G1 X149.893 Y200.801 E61.72965
G1 X141.486 Y200.784 E62.09687
G1 X135.962 Y200.746 E62.33816
G1 X131.33 Y200.694 E62.5405
G1 X126.013 Y200.601 E62.77278
G1 X120.275 Y200.448 E63.02351
G1 X116.063 Y200.276 E63.20764
G1 X113.508 Y200.148 E63.31938
G1 X110.943 Y199.999 E63.43161
G1 X108.479 Y199.829 E63.53949
G1 X105.723 Y199.59 E63.66033
G1 X102.835 Y199.268 E63.78726
G1 X101.661 Y199.112 E63.83899
G1 X100.365 Y198.917 E63.89623
G1 X98.634 Y198.626 E63.97291
G1 X97.593 Y198.421 E64.01925
G1 X96.918 Y198.271 E64.04945
G1 X96.095 Y198.069 E64.08647
G1 X95.403 Y197.875 E64.11786
G1 X94.449 Y197.574 E64.16156
G1 X93.887 Y197.377 E64.18757
G1 X92.487 Y196.843 E64.25302
G1 X91.468 Y196.372 E64.30205
G1 X90.768 Y195.967 E64.33738
G1 X89.867 Y195.314 E64.38598
G1 X89.034 Y194.525 E64.4361
G1 X88.485 Y193.864 E64.47363
G1 X87.619 Y192.414 E64.5474
G1 X87.155 Y191.187 E64.6047
G1 X86.939 Y190.204 E64.64866
G1 X86.861 Y189.068 E64.6984
G1 X86.994 Y187.62 E64.76192
G1 X87.244 Y186.625 E64.80673
G1 X87.455 Y186.065 E64.83287
G1 X87.803 Y185.341 E64.86795
G1 X88.417 Y184.345 E64.91906
G1 X88.764 Y183.88 E64.94441
G1 X89.629 Y182.867 E65.00259
G1 X90.149 Y182.333 E65.03515
G1 X91.18 Y181.407 E65.09568
G1 X91.86 Y180.872 E65.13347
G1 X92.609 Y180.336 E65.1737
G1 X93.277 Y179.903 E65.20847
G1 X94.007 Y179.459 E65.2458
G1 X95.266 Y178.759 E65.30872
G0 F7200 X95.46 Y179.109
G1 F1800 X96.697 Y178.488 E65.36918
G1 X97.739 Y178.008 E65.41929
G1 X99.159 Y177.405 E65.48667
G1 X100.354 Y176.943 E65.54264
G1 X101.126 Y176.663 E65.57851
G1 X102.716 Y176.114 E65.65198
G1 X103.926 Y175.726 E65.70748
G1 X105.226 Y175.344 E65.76667
G1 X107.371 Y174.757 E65.86381
G1 X108.577 Y174.453 E65.91813
G1 X110.88 Y173.919 E66.0214
G1 X113.157 Y173.45 E66.12294
G1 X115.313 Y173.046 E66.21876
G1 X117.742 Y172.626 E66.32643
G1 X120.007 Y172.295 E66.42642
G1 X122.316 Y171.981 E66.5282
G1 X124.973 Y171.663 E66.64509
G1 X126.951 Y171.463 E66.73193
G1 X129.325 Y171.244 E66.83606
G1 X131.981 Y171.05 E66.95239
G1 X134.127 Y170.909 E67.04632
