;FLAVOR:Marlin
;TIME:7842
;Filament used: 9.03464m
;Layer height: 0.25
;MINX:88.78
;MINY:156.002
;MINZ:0.25
;MAXX:264.312
;MAXY:202
;MAXZ:92.25
;TARGET_MACHINE.NAME:VORON2 350
;POSTPROCESSED
;  [CreateThumbnail]
;  [CreateThumbnail]
;  [InsertAtLayerChange]
;Generated with Cura_SteamEngine 5.10.2
;
;

;
;

;Nozzle diameter = 0.4
;Filament type = PLA
;Filament name = LW-PLA Light Gray
;Filament weight = [15.211597460937499]; M190 S50
; M109 S210


; Pre-Processed for Cancel-Object support by preprocess_cancellation v0.2.0
; 1 known objects
EXCLUDE_OBJECT_DEFINE NAME=WINGTIP_L_LED_STL CENTER=191.028,178.114 POLYGON=[[93.632,156.002],[93.632,193.98],[256.351,193.98],[256.351,156.002]]
PRINT_START BED_TEMP=50 EXTRUDER_TEMP=210
M82 ;absolute extrusion mode
M141 S10
G92 E0
G92 E0
G1 F2100 E-3
;LAYER_COUNT:369
;LAYER:0
TIMELAPSE_TAKE_FRAME
M107
G0 F7200 X93.114 Y185.489 Z0.25
;TYPE:SKIRT
G1 F2100 E0.41575
G1 F1800 X94.45 Y184.961 E0.4785
G1 X94.893 Y184.843 E0.49853
G1 X100.494 Y183.77 E0.74763
G1 X105.863 Y182.809 E0.98587
G1 X116.595 Y180.921 E1.46184
G1 X131.754 Y178.279 E2.13397
G1 X138.22 Y177.166 E2.42055
G1 X149.4 Y175.269 E2.91588
G1 X155.867 Y174.216 E3.20207
G1 X163.788 Y172.963 E3.55236
G1 X169.536 Y172.121 E3.80612
G1 X174.693 Y171.404 E4.03354
G1 X176.132 Y171.222 E4.0969
G1 X181.548 Y170.569 E4.33518
G1 X184.252 Y170.288 E4.45393
G1 X187.977 Y169.926 E4.6174
G1 X189.664 Y169.788 E4.69133
G1 X192.279 Y169.596 E4.80587
G1 X195.037 Y169.423 E4.92657
G1 X197.747 Y169.269 E5.04513
G1 X200.102 Y169.179 E5.14808
G1 X203.132 Y169.101 E5.28047
G1 X205.793 Y169.075 E5.39671
G1 X208.429 Y169.084 E5.51185
G1 X211.159 Y169.124 E5.63111
G1 X213.598 Y169.205 E5.7377
G1 X216.055 Y169.328 E5.84516
G1 X218.22 Y169.454 E5.93988
G1 X220.908 Y169.662 E6.05765
G1 X223.313 Y169.871 E6.16309
G1 X225.457 Y170.104 E6.25729
G1 X228.005 Y170.412 E6.3694
G1 X230.326 Y170.725 E6.4717
G1 X232.62 Y171.072 E6.57304
G1 X235.101 Y171.49 E6.68294
G1 X237.921 Y172.03 E6.80835
G1 X240.53 Y172.6 E6.925
G1 X242.086 Y172.972 E6.99488
G1 X244.331 Y173.558 E7.09623
G1 X246.714 Y174.252 E7.20464
G1 X247.999 Y174.668 E7.26364
G1 X249.535 Y175.194 E7.33456
G1 X250.373 Y175.502 E7.37356
G1 X251.463 Y175.928 E7.42467
G1 X253.112 Y176.635 E7.50304
G1 X254.245 Y177.165 E7.55768
G1 X255.596 Y177.855 E7.62394
G1 X256.827 Y178.556 E7.68582
G1 X257.613 Y179.044 E7.72623
G1 X258.364 Y179.551 E7.76581
G1 X258.938 Y179.97 E7.79685
G1 X259.923 Y180.773 E7.85236
G1 X260.687 Y181.471 E7.89756
G1 X261.297 Y182.099 E7.93581
G1 X262.122 Y183.064 E7.99126
G1 X262.849 Y184.088 E8.04612
G1 X263.569 Y185.455 E8.1136
G1 X264.093 Y186.997 E8.18474
G1 X264.162 Y187.291 E8.19793
G1 X264.312 Y188.423 E8.24781
G1 X264.286 Y190.02 E8.31757
G1 X264.115 Y191.048 E8.36309
G1 X263.955 Y191.64 E8.38988
G1 X263.42 Y193.017 E8.45441
G1 X262.68 Y194.323 E8.51997
G1 X262.405 Y194.698 E8.54029
G1 X260.764 Y196.355 E8.64215
G1 X260.277 Y196.717 E8.66866
G1 X259.179 Y197.39 E8.72491
G1 X258.711 Y197.628 E8.74784
G1 X257.618 Y198.092 E8.79971
G1 X256.198 Y198.616 E8.86582
G1 X255.523 Y198.841 E8.8969
G1 X254.605 Y199.114 E8.93873
G1 X253.899 Y199.303 E8.97066
G1 X252.952 Y199.528 E9.01318
G1 X251.419 Y199.839 E9.0815
G1 X249.552 Y200.144 E9.16413
G1 X248.226 Y200.333 E9.22264
G1 X245.569 Y200.655 E9.33954
G1 X241.494 Y201.029 E9.51829
G1 X239.074 Y201.198 E9.62425
G1 X236.484 Y201.364 E9.73761
G1 X234.134 Y201.477 E9.84038
G1 X228.798 Y201.675 E10.07362
G1 X223.945 Y201.801 E10.28567
G1 X218.633 Y201.894 E10.51773
G1 X213.123 Y201.954 E10.75842
G1 X208.484 Y201.983 E10.96105
G1 X200.078 Y202 E11.32823
G1 X188.578 Y201.973 E11.83055
G1 X177.98 Y201.923 E12.29347
G1 X142.984 Y201.709 E13.82212
G1 X111.703 Y201.54 E15.1885
G1 X105.728 Y201.487 E15.44949
G1 X103.873 Y201.461 E15.53053
G1 X101.038 Y201.405 E15.65438
G1 X98.668 Y201.339 E15.75795
G1 X95.863 Y201.209 E15.8806
G1 X94.412 Y200.925 E15.94518
G1 X93.986 Y200.794 E15.96465
G1 X93.339 Y200.532 E15.99514
G1 X92.238 Y199.925 E16.05006
G1 X91.806 Y199.612 E16.07336
G1 X91.112 Y198.99 E16.11407
G1 X90.042 Y197.663 E16.18852
G1 X89.592 Y196.86 E16.22873
G1 X89.24 Y196.024 E16.26835
G1 X88.97 Y195.115 E16.30977
G1 X88.915 Y194.848 E16.32168
G1 X88.78 Y193.322 E16.3886
G1 X88.856 Y191.451 E16.47039
G1 X88.973 Y190.808 E16.49894
G1 X89.521 Y189.185 E16.57376
G1 X89.958 Y188.371 E16.61412
G1 X90.624 Y187.458 E16.66348
G1 X91.62 Y186.469 E16.72479
G1 X92.575 Y185.785 E16.7761
G1 X93.114 Y185.489 E16.80296
G0 F7200 X93.307 Y185.84
G1 F1800 X94.553 Y185.348 E16.86147
G1 X94.996 Y185.23 E16.8815
G1 X100.564 Y184.164 E17.12912
G1 X105.932 Y183.203 E17.36733
G1 X116.664 Y181.315 E17.8433
G1 X131.822 Y178.673 E18.51538
G1 X138.288 Y177.56 E18.80197
G1 X149.464 Y175.664 E19.29711
G1 X155.929 Y174.611 E19.58322
G1 X163.846 Y173.359 E19.93333
G1 X169.591 Y172.517 E20.18695
G1 X174.743 Y171.801 E20.41416
G1 X176.18 Y171.619 E20.47742
G1 X181.589 Y170.967 E20.7154
G1 X184.291 Y170.686 E20.83406
G1 X188.01 Y170.325 E20.99727
G1 X189.693 Y170.187 E21.07103
G1 X192.304 Y169.995 E21.18538
G1 X195.06 Y169.822 E21.306
G1 X197.762 Y169.669 E21.42422
G1 X200.112 Y169.579 E21.52694
G1 X203.136 Y169.501 E21.65907
G1 X205.792 Y169.475 E21.77509
G1 X208.423 Y169.484 E21.89001
G1 X211.146 Y169.524 E22.00897
G1 X213.578 Y169.604 E22.11525
G1 X216.032 Y169.727 E22.22258
G1 X218.189 Y169.853 E22.31696
G1 X220.873 Y170.061 E22.43454
G1 X223.27 Y170.269 E22.53964
G1 X225.409 Y170.501 E22.63362
G1 X227.951 Y170.808 E22.74546
G1 X230.266 Y171.121 E22.8475
G1 X232.56 Y171.468 E22.94884
G1 X235.026 Y171.883 E23.05807
G1 X237.836 Y172.421 E23.18304
G1 X240.437 Y172.989 E23.29933
G1 X241.985 Y173.359 E23.36885
G1 X244.219 Y173.942 E23.4697
G1 X246.591 Y174.633 E23.57761
G1 X247.876 Y175.049 E23.63661
G1 X249.397 Y175.569 E23.70682
G1 X250.227 Y175.874 E23.74545
G1 X251.305 Y176.296 E23.79601
G1 X252.954 Y177.003 E23.87438
G1 X254.063 Y177.521 E23.92785
G1 X255.398 Y178.203 E23.99333
G1 X256.616 Y178.896 E24.05454
G1 X257.389 Y179.376 E24.09428
G1 X258.128 Y179.874 E24.13321
G1 X258.685 Y180.28 E24.16332
G1 X259.653 Y181.068 E24.21784
G1 X260.4 Y181.75 E24.26202
G1 X261.01 Y182.378 E24.30026
G1 X261.797 Y183.297 E24.35311
G1 X262.496 Y184.275 E24.40562
G1 X263.19 Y185.584 E24.47033
G1 X263.704 Y187.091 E24.53988
G1 X263.765 Y187.344 E24.55125
G1 X263.915 Y188.476 E24.60113
G1 X263.891 Y189.954 E24.6657
G1 X263.72 Y190.982 E24.71122
G1 X263.569 Y191.534 E24.73621
G1 X263.072 Y192.82 E24.79643
G1 X262.357 Y194.086 E24.85994
G1 X262.082 Y194.461 E24.88026
G1 X260.524 Y196.035 E24.97699
G1 X260.068 Y196.376 E25.00186
G1 X258.998 Y197.033 E25.05671
G1 X258.53 Y197.271 E25.07964
G1 X257.48 Y197.717 E25.12947
G1 X256.06 Y198.241 E25.19559
G1 X255.409 Y198.458 E25.22556
G1 X254.501 Y198.728 E25.26694
G1 X253.807 Y198.914 E25.29832
G1 X252.872 Y199.136 E25.3403
G1 X251.354 Y199.444 E25.40796
G1 X249.496 Y199.748 E25.49019
G1 X248.178 Y199.936 E25.54834
G1 X245.531 Y200.257 E25.66481
G1 X244.214 Y200.384 E25.72261
G1 X241.466 Y200.63 E25.84312
G1 X239.049 Y200.799 E25.94895
G1 X236.465 Y200.964 E26.06205
G1 X234.119 Y201.077 E26.16464
G1 X228.788 Y201.275 E26.39766
G1 X223.938 Y201.401 E26.60958
G1 X218.629 Y201.494 E26.84151
G1 X213.12 Y201.554 E27.08216
G1 X208.483 Y201.583 E27.2847
G1 X200.079 Y201.6 E27.65179
G1 X188.579 Y201.573 E28.15411
G1 X177.982 Y201.523 E28.61699
G1 X142.986 Y201.309 E30.14564
G1 X111.707 Y201.14 E31.51193
G1 X105.734 Y201.087 E31.77284
G1 X103.881 Y201.061 E31.85378
G1 X101.049 Y201.005 E31.97751
G1 X98.686 Y200.939 E32.08077
G1 X95.94 Y200.816 E32.20083
G1 X94.489 Y200.532 E32.26541
G1 X94.136 Y200.423 E32.28155
G1 X93.489 Y200.161 E32.31204
G1 X92.473 Y199.601 E32.36271
G1 X92.041 Y199.288 E32.38602
G1 X91.38 Y198.693 E32.42486
G1 X90.39 Y197.467 E32.49369
G1 X89.96 Y196.704 E32.53195
G1 X89.623 Y195.91 E32.56963
G1 X89.362 Y195.034 E32.60955
G1 X89.307 Y194.767 E32.62146
G1 X89.18 Y193.337 E32.68417
G1 X89.25 Y191.523 E32.76346
G1 X89.367 Y190.88 E32.79201
G1 X89.874 Y189.373 E32.86146
G1 X90.282 Y188.605 E32.89945
G1 X90.907 Y187.741 E32.94603
G1 X91.854 Y186.794 E33.00452
G1 X92.768 Y186.136 E33.05372
G1 X93.307 Y185.84 E33.08058
G0 F7200 X93.498 Y186.192
G1 F1800 X94.656 Y185.735 E33.13496
G1 X95.099 Y185.617 E33.15498
G1 X100.635 Y184.558 E33.40118
G1 X106.001 Y183.597 E33.63929
G1 X116.733 Y181.709 E34.11526
G1 X131.89 Y179.067 E34.7873
G1 X138.356 Y177.954 E35.07389
G1 X149.528 Y176.059 E35.56885
G1 X155.991 Y175.006 E35.85488
G1 X163.904 Y173.755 E36.20481
G1 X169.646 Y172.913 E36.4583
G1 X174.793 Y172.198 E36.68528
G1 X176.228 Y172.016 E36.74847
G1 X181.63 Y171.365 E36.98613
G1 X184.33 Y171.084 E37.1047
G1 X188.043 Y170.724 E37.26765
G1 X189.722 Y170.586 E37.34123
G1 X192.329 Y170.394 E37.45542
G1 X195.083 Y170.221 E37.57595
G1 X197.777 Y170.069 E37.69381
G1 X200.122 Y169.979 E37.79631
G1 X203.14 Y169.901 E37.92818
G1 X205.791 Y169.875 E38.04398
G1 X208.417 Y169.884 E38.15869
G1 X211.133 Y169.924 E38.27734
G1 X213.558 Y170.003 E38.38332
G1 X216.009 Y170.126 E38.49051
G1 X218.158 Y170.252 E38.58454
G1 X220.838 Y170.46 E38.70195
G1 X223.227 Y170.667 E38.8067
G1 X225.361 Y170.898 E38.90045
G1 X227.897 Y171.204 E39.01203
G1 X230.206 Y171.517 E39.11381
G1 X232.5 Y171.864 E39.21515
G1 X234.951 Y172.276 E39.32371
G1 X237.751 Y172.812 E39.44824
G1 X240.344 Y173.378 E39.56416
G1 X241.884 Y173.746 E39.63333
G1 X244.107 Y174.326 E39.73368
G1 X246.468 Y175.014 E39.84109
G1 X247.753 Y175.43 E39.90009
G1 X249.259 Y175.945 E39.96961
G1 X250.081 Y176.246 E40.00785
G1 X251.148 Y176.664 E40.0579
G1 X252.785 Y177.365 E40.13569
G1 X253.881 Y177.877 E40.18853
G1 X255.2 Y178.551 E40.25323
G1 X256.405 Y179.236 E40.31377
G1 X257.166 Y179.708 E40.35289
G1 X257.892 Y180.197 E40.39112
G1 X258.449 Y180.603 E40.42123
G1 X259.383 Y181.363 E40.47383
G1 X260.113 Y182.029 E40.51699
G1 X260.723 Y182.657 E40.55523
G1 X261.472 Y183.531 E40.60551
G1 X262.143 Y184.464 E40.6557
G1 X262.811 Y185.713 E40.71757
G1 X263.325 Y187.22 E40.78712
G1 X263.376 Y187.436 E40.79682
G1 X263.515 Y188.471 E40.84243
G1 X263.496 Y189.888 E40.90433
G1 X263.325 Y190.916 E40.94985
G1 X263.195 Y191.391 E40.97136
G1 X262.723 Y192.624 E41.02903
G1 X262.034 Y193.849 E41.09042
G1 X261.759 Y194.224 E41.11073
G1 X260.284 Y195.715 E41.20234
G1 X259.858 Y196.035 E41.22562
G1 X258.817 Y196.676 E41.27902
G1 X258.349 Y196.914 E41.30195
G1 X257.342 Y197.342 E41.34974
G1 X255.922 Y197.866 E41.41586
G1 X255.295 Y198.075 E41.44473
G1 X254.397 Y198.342 E41.48565
G1 X253.714 Y198.525 E41.51653
G1 X252.793 Y198.744 E41.55788
G1 X251.289 Y199.049 E41.62492
G1 X249.439 Y199.352 E41.7068
G1 X248.13 Y199.539 E41.76456
G1 X245.493 Y199.859 E41.88059
G1 X244.178 Y199.986 E41.93829
G1 X241.438 Y200.231 E42.05845
G1 X239.024 Y200.4 E42.16416
G1 X236.446 Y200.564 E42.27699
G1 X234.104 Y200.677 E42.37941
G1 X228.778 Y200.875 E42.61221
G1 X223.931 Y201.001 E42.824
G1 X218.625 Y201.094 E43.0558
G1 X213.117 Y201.154 E43.2964
G1 X208.482 Y201.183 E43.49886
G1 X200.08 Y201.2 E43.86586
G1 X188.58 Y201.173 E44.36818
G1 X177.984 Y201.123 E44.83102
G1 X142.988 Y200.909 E46.35967
G1 X111.711 Y200.74 E47.72586
G1 X105.74 Y200.687 E47.98669
G1 X103.889 Y200.661 E48.06755
G1 X101.06 Y200.605 E48.19114
G1 X98.703 Y200.539 E48.29414
G1 X96.017 Y200.423 E48.41157
G1 X94.566 Y200.139 E48.47615
G1 X94.286 Y200.052 E48.48896
G1 X93.639 Y199.79 E48.51945
G1 X92.708 Y199.277 E48.56588
G1 X92.276 Y198.964 E48.58918
G1 X91.69 Y198.441 E48.62349
G1 X90.738 Y197.269 E48.68944
G1 X90.328 Y196.547 E48.72571
G1 X90.006 Y195.795 E48.76144
G1 X89.754 Y194.953 E48.79983
G1 X89.699 Y194.686 E48.81174
G1 X89.58 Y193.352 E48.87024
G1 X89.644 Y191.595 E48.94704
G1 X89.761 Y190.952 E48.97558
G1 X90.253 Y189.502 E49.04247
G1 X90.634 Y188.795 E49.07755
G1 X91.191 Y188.023 E49.11913
G1 X92.088 Y187.119 E49.17476
G1 X93.002 Y186.461 E49.22395
G1 X93.498 Y186.192 E49.2486
G0 F7200 X93.689 Y186.544
G1 F1800 X94.759 Y186.122 E49.29884
G1 X95.202 Y186.004 E49.31886
G1 X100.706 Y184.952 E49.56363
G1 X106.07 Y183.991 E49.80166
G1 X116.802 Y182.103 E50.27763
G1 X131.958 Y179.461 E50.94962
G1 X138.423 Y178.348 E51.23617
G1 X149.592 Y176.454 E51.731
G1 X156.053 Y175.401 E52.01693
G1 X163.962 Y174.151 E52.36669
G1 X169.701 Y173.309 E52.62005
G1 X174.843 Y172.595 E52.84681
G1 X176.276 Y172.413 E52.9099
G1 X181.671 Y171.763 E53.14726
G1 X184.369 Y171.482 E53.26575
G1 X188.076 Y171.123 E53.42843
G1 X189.751 Y170.985 E53.50184
G1 X192.354 Y170.793 E53.61584
G1 X195.105 Y170.62 E53.73625
G1 X197.792 Y170.469 E53.8538
G1 X200.132 Y170.379 E53.95608
G1 X203.144 Y170.301 E54.08769
G1 X205.79 Y170.275 E54.20328
G1 X208.411 Y170.284 E54.31776
G1 X211.12 Y170.324 E54.4361
G1 X213.538 Y170.402 E54.54178
G1 X215.986 Y170.525 E54.64884
G1 X218.127 Y170.651 E54.74252
G1 X220.803 Y170.858 E54.85976
G1 X223.184 Y171.065 E54.96415
G1 X225.313 Y171.295 E55.05769
G1 X227.843 Y171.6 E55.169
G1 X230.146 Y171.913 E55.27052
G1 X232.44 Y172.26 E55.37186
G1 X234.876 Y172.669 E55.47975
G1 X237.666 Y173.203 E55.60383
G1 X240.251 Y173.767 E55.7194
G1 X241.783 Y174.133 E55.7882
G1 X243.995 Y174.71 E55.88805
G1 X246.345 Y175.395 E55.99497
G1 X247.63 Y175.811 E56.05397
G1 X249.121 Y176.321 E56.1228
G1 X249.935 Y176.619 E56.16066
G1 X250.991 Y177.032 E56.21019
G1 X252.616 Y177.727 E56.28739
G1 X253.699 Y178.233 E56.33961
G1 X255.002 Y178.899 E56.40352
G1 X256.194 Y179.576 E56.4634
G1 X256.943 Y180.04 E56.50189
G1 X257.656 Y180.52 E56.53943
G1 X258.213 Y180.926 E56.56954
G1 X259.114 Y181.659 E56.62027
G1 X259.826 Y182.308 E56.66235
G1 X260.436 Y182.936 E56.7006
G1 X261.147 Y183.765 E56.7483
G1 X261.818 Y184.698 E56.7985
G1 X262.432 Y185.842 E56.85521
G1 X262.946 Y187.349 E56.92476
G1 X262.98 Y187.491 E56.93114
G1 X263.115 Y188.467 E56.97417
G1 X263.101 Y189.822 E57.03336
G1 X262.93 Y190.85 E57.07888
G1 X262.821 Y191.248 E57.09691
G1 X262.349 Y192.481 E57.15458
G1 X261.711 Y193.612 E57.2113
G1 X261.436 Y193.987 E57.23161
G1 X260.043 Y195.396 E57.31815
G1 X259.648 Y195.695 E57.33979
G1 X258.636 Y196.319 E57.39173
G1 X258.168 Y196.557 E57.41466
G1 X257.204 Y196.967 E57.46042
G1 X255.784 Y197.491 E57.52653
G1 X255.181 Y197.692 E57.55429
G1 X254.293 Y197.956 E57.59476
G1 X253.622 Y198.136 E57.62511
G1 X252.713 Y198.352 E57.66592
G1 X251.224 Y198.654 E57.73228
G1 X249.382 Y198.956 E57.81381
G1 X248.082 Y199.142 E57.87117
G1 X245.454 Y199.461 E57.98681
G1 X244.142 Y199.588 E58.04438
G1 X241.41 Y199.832 E58.16419
G1 X238.999 Y200.001 E58.26976
G1 X236.427 Y200.164 E58.38233
G1 X234.089 Y200.277 E58.48458
G1 X228.768 Y200.475 E58.71716
G1 X223.924 Y200.601 E58.92881
G1 X218.621 Y200.694 E59.16048
G1 X213.114 Y200.754 E59.40104
G1 X208.481 Y200.783 E59.60342
G1 X200.081 Y200.8 E59.97033
G1 X188.581 Y200.773 E60.47265
G1 X177.986 Y200.723 E60.93544
G1 X142.99 Y200.509 E62.46409
G1 X111.715 Y200.34 E63.8302
G1 X105.746 Y200.287 E64.09094
G1 X103.897 Y200.261 E64.17171
G1 X101.071 Y200.205 E64.29518
G1 X98.72 Y200.139 E64.39791
G1 X96.094 Y200.03 E64.51271
G1 X94.643 Y199.746 E64.57729
G1 X94.436 Y199.681 E64.58677
G1 X93.789 Y199.419 E64.61726
G1 X92.943 Y198.953 E64.65945
G1 X92.511 Y198.64 E64.68275
G1 X91.957 Y198.143 E64.71526
G1 X91.085 Y197.07 E64.77565
G1 X90.695 Y196.388 E64.80997
G1 X90.389 Y195.68 E64.84366
G1 X90.146 Y194.872 E64.88051
G1 X90.091 Y194.605 E64.89242
G1 X89.98 Y193.366 E64.94676
G1 X90.038 Y191.667 E65.02101
G1 X90.155 Y191.024 E65.04956
G1 X90.606 Y189.69 E65.11107
G1 X90.96 Y189.027 E65.1439
G1 X91.476 Y188.304 E65.1827
G1 X92.323 Y187.443 E65.23545
G1 X93.193 Y186.813 E65.28237
G1 X93.689 Y186.544 E65.30702
G0 F7200 X93.88 Y186.896
G1 F1800 X94.862 Y186.509 E65.35312
G1 X95.305 Y186.391 E65.37315
G1 X100.777 Y185.346 E65.61648
G1 X106.139 Y184.385 E65.85443
G1 X116.871 Y182.497 E66.3304
G1 X132.026 Y179.855 E67.00235
G1 X138.49 Y178.742 E67.28885
G1 X149.656 Y176.849 E67.78354
G1 X156.115 Y175.796 E68.0694
G1 X164.02 Y174.547 E68.41897
G1 X169.756 Y173.705 E68.6722
G1 X174.894 Y172.992 E68.89878
G1 X176.324 Y172.81 E68.96175
G1 X181.712 Y172.161 E69.19879
G1 X184.408 Y171.88 E69.31719
