;FLAVOR:Marlin
;TIME:9202
;Filament used: 4.09743m
;Layer height: 0.2
;MINX:143.723
;MINY:160.521
;MINZ:0.2
;MAXX:206.277
;MAXY:189.479
;MAXZ:110.4
;TARGET_MACHINE.NAME:VORON2 350
;POSTPROCESSED
;  [CreateThumbnail]
;  [CreateThumbnail]
;  [InsertAtLayerChange]
;  [FlowTower]
;AutoTowersGenerator: Post-processed by AutoTowersGenerator version 2.7.2
;AutoTowersGenerator: Temp Tower post-processing script version 3.2
;AutoTowersGenerator: Base height = 1.0 mm
;AutoTowersGenerator: Section height = 8.4 mm
;AutoTowersGenerator: Initial printed layer height = 0.2 mm
;AutoTowersGenerator: Printed layer height = 0.2 mm
;AutoTowersGenerator: Starting temperature = 270.0 C
;AutoTowersGenerator: Temperature change = -5.0 C
;AutoTowersGenerator: Enable LCD messages = False
;AutoTowersGenerator: Advanced Gcode comments = True
;Generated with Cura_SteamEngine 5.10.2
;
;

;
;

;Nozzle diameter = 0.4
;Filament type = ABS
;Filament name = ABS+ Black
;Filament weight = [10.841011328125001]; M190 S90
; M109 S260


; Pre-Processed for Cancel-Object support by preprocess_cancellation v0.2.0
; 1 known objects
EXCLUDE_OBJECT_DEFINE NAME=AutoTowersGenerator CENTER=170.742,174.495 POLYGON=[[151.792,168.596],[151.792,181.404],[198.208,181.404],[198.208,168.596]]
PRINT_START BED_TEMP=90 EXTRUDER_TEMP=260
M82 ;absolute extrusion mode
M141 S40
G92 E0
G92 E0
G1 F1800 E-0.75
;LAYER_COUNT:551
;LAYER:0
;TYPE:CUSTOM LAYER
M221 S110
M117 Flow S110
TIMELAPSE_TAKE_FRAME
M107
G1 F600 Z0.4
G0 F7200 X146.436 Y162.471 Z0.4
;TYPE:SKIRT
G1 F600 Z0.2
G1 F720 E0.20788
G1 F2700 X147.194 Y161.884 E0.24375
G1 X148.196 Y161.314 E0.28688
G1 X149.215 Y160.909 E0.32791
G1 X150.217 Y160.652 E0.36662
G1 X150.801 Y160.569 E0.38869
G1 X198.408 Y160.521 E2.17003
G1 X199.929 Y160.69 E2.2273
G1 X200.725 Y160.889 E2.258
G1 X201.509 Y161.185 E2.28935
G1 X202.784 Y161.88 E2.34369
G1 X203.585 Y162.496 E2.3815
G1 X204.337 Y163.246 E2.42124
G1 X204.924 Y164.004 E2.45711
G1 X205.435 Y164.888 E2.49532
G1 X205.913 Y166.073 E2.54313
G1 X206.141 Y166.967 E2.57765
G1 X206.239 Y167.665 E2.60402
G1 X206.277 Y181.708 E3.12948
G1 X206.064 Y183.371 E3.19222
G1 X205.884 Y184.006 E3.21691
G1 X205.428 Y185.11 E3.26161
G1 X204.779 Y186.189 E3.30872
G1 X204.139 Y186.974 E3.34662
G1 X203.692 Y187.42 E3.37025
G1 X202.575 Y188.268 E3.42272
G1 X201.924 Y188.629 E3.45057
G1 X200.867 Y189.064 E3.49334
G1 X199.952 Y189.313 E3.52883
G1 X199.602 Y189.377 E3.54214
G1 X198.408 Y189.479 E3.58698
G1 X150.847 Y189.425 E5.3666
G1 X149.981 Y189.29 E5.3994
G1 X149.142 Y189.068 E5.43187
G1 X148.451 Y188.8 E5.4596
G1 X147.195 Y188.106 E5.5133
G1 X146.363 Y187.459 E5.55273
G1 X145.667 Y186.76 E5.58964
G1 X145.08 Y186.002 E5.62551
G1 X144.564 Y185.11 E5.66407
G1 X144.087 Y183.927 E5.7118
G1 X143.859 Y183.033 E5.74632
G1 X143.761 Y182.335 E5.7727
G1 X143.723 Y168.292 E6.29815
G1 X143.934 Y166.641 E6.36043
G1 X144.128 Y165.946 E6.38743
G1 X144.396 Y165.255 E6.41517
G1 X145.09 Y163.999 E6.46886
G1 X145.737 Y163.167 E6.5083
G1 X146.436 Y162.471 E6.5452
G0 F7200 X146.712 Y162.827
G1 F2700 X147.47 Y162.24 E6.58108
G1 X148.364 Y161.732 E6.61955
G1 X149.328 Y161.345 E6.65842
G1 X150.28 Y161.098 E6.69522
G1 X150.864 Y161.015 E6.71729
G1 X198.408 Y160.971 E8.49628
G1 X199.879 Y161.137 E8.55167
G1 X200.568 Y161.311 E8.57826
G1 X201.295 Y161.581 E8.60728
G1 X202.511 Y162.238 E8.65899
G1 X203.268 Y162.816 E8.69463
G1 X203.981 Y163.522 E8.73218
G1 X204.568 Y164.28 E8.76805
G1 X205.045 Y165.112 E8.80394
G1 X205.477 Y166.185 E8.84722
G1 X205.695 Y167.03 E8.87987
G1 X205.793 Y167.728 E8.90624
G1 X205.827 Y181.709 E9.42938
G1 X205.631 Y183.248 E9.48743
G1 X205.451 Y183.883 E9.51213
G1 X205.042 Y184.879 E9.55242
G1 X204.43 Y185.905 E9.59712
G1 X203.821 Y186.655 E9.63327
G1 X203.374 Y187.101 E9.65689
G1 X202.355 Y187.875 E9.70477
G1 X201.751 Y188.213 E9.73067
G1 X200.748 Y188.63 E9.77132
G1 X199.871 Y188.87 E9.80534
G1 X199.521 Y188.934 E9.81865
G1 X198.408 Y189.029 E9.86045
G1 X150.916 Y188.98 E11.63749
G1 X150.05 Y188.845 E11.67028
G1 X149.305 Y188.648 E11.69912
G1 X148.614 Y188.38 E11.72685
G1 X147.47 Y187.75 E11.77572
G1 X146.681 Y187.141 E11.81301
G1 X146.023 Y186.484 E11.84781
G1 X145.436 Y185.726 E11.88368
G1 X144.954 Y184.886 E11.91992
G1 X144.523 Y183.815 E11.96311
G1 X144.305 Y182.97 E11.99577
G1 X144.207 Y182.272 E12.02214
G1 X144.173 Y168.291 E12.54528
G1 X144.368 Y166.761 E12.60299
G1 X144.548 Y166.109 E12.6283
G1 X144.816 Y165.418 E12.65603
G1 X145.446 Y164.274 E12.7049
G1 X146.055 Y163.485 E12.74219
G1 X146.712 Y162.827 E12.77699
G0 F7200 X146.988 Y163.183
G1 F2700 X147.746 Y162.596 E12.81286
G1 X148.533 Y162.149 E12.84672
G1 X149.442 Y161.78 E12.88343
G1 X150.343 Y161.544 E12.91828
G1 X150.927 Y161.461 E12.94035
G1 X198.408 Y161.421 E14.71698
G1 X199.771 Y161.574 E14.7683
G1 X200.411 Y161.733 E14.79298
G1 X201.138 Y162.003 E14.822
G1 X202.239 Y162.597 E14.86881
G1 X202.951 Y163.136 E14.90222
G1 X203.664 Y163.842 E14.93977
G1 X204.178 Y164.504 E14.97113
G1 X204.655 Y165.336 E15.00701
G1 X205.042 Y166.298 E15.04581
G1 X205.249 Y167.093 E15.07655
G1 X205.347 Y167.791 E15.10292
G1 X205.377 Y181.71 E15.62374
G1 X205.185 Y183.19 E15.67958
G1 X205.034 Y183.714 E15.69999
G1 X204.655 Y184.65 E15.73777
G1 X204.08 Y185.622 E15.78003
G1 X203.503 Y186.336 E15.81438
G1 X203.056 Y186.782 E15.83801
G1 X202.133 Y187.483 E15.88137
G1 X201.578 Y187.797 E15.90523
G1 X200.575 Y188.214 E15.94588
G1 X199.79 Y188.427 E15.97631
G1 X199.44 Y188.491 E15.98963
G1 X198.408 Y188.579 E16.02838
G1 X150.985 Y188.535 E17.80284
G1 X150.119 Y188.4 E17.83564
G1 X149.468 Y188.228 E17.86083
G1 X148.777 Y187.96 E17.88856
G1 X147.744 Y187.393 E17.93265
G1 X146.998 Y186.821 E17.96783
G1 X146.379 Y186.208 E18.00043
G1 X145.792 Y185.45 E18.0363
G1 X145.345 Y184.664 E18.07013
G1 X144.958 Y183.702 E18.10893
G1 X144.751 Y182.907 E18.13967
G1 X144.653 Y182.209 E18.16604
G1 X144.623 Y168.29 E18.68686
G1 X144.802 Y166.88 E18.74004
G1 X144.968 Y166.272 E18.76363
G1 X145.236 Y165.581 E18.79136
G1 X145.803 Y164.548 E18.83545
G1 X146.375 Y163.802 E18.87063
G1 X146.988 Y163.183 E18.90322
G0 F7200 X147.308 Y163.5
G1 F2700 X147.97 Y162.986 E18.93458
G1 X148.702 Y162.566 E18.96616
G1 X149.611 Y162.197 E19.00287
G1 X150.406 Y161.99 E19.03361
G1 X150.99 Y161.907 E19.05568
G1 X198.408 Y161.871 E20.82995
G1 X199.72 Y162.021 E20.87936
G1 X200.257 Y162.156 E20.90008
G1 X200.924 Y162.399 E20.92664
G1 X202.025 Y162.993 E20.97345
G1 X202.634 Y163.456 E21.00208
G1 X203.347 Y164.162 E21.03962
G1 X203.821 Y164.778 E21.06871
G1 X204.238 Y165.506 E21.1001
G1 X204.607 Y166.413 E21.13674
G1 X204.803 Y167.156 E21.16549
G1 X204.901 Y167.854 E21.19186
G1 X204.927 Y181.711 E21.71036
G1 X204.752 Y183.067 E21.76152
G1 X204.616 Y183.547 E21.78019
G1 X204.267 Y184.422 E21.81544
G1 X203.729 Y185.34 E21.85525
G1 X203.185 Y186.017 E21.88775
G1 X202.738 Y186.463 E21.91137
G1 X201.911 Y187.091 E21.95023
G1 X201.356 Y187.405 E21.97409
G1 X200.456 Y187.78 E22.01057
G1 X199.709 Y187.984 E22.03955
G1 X199.359 Y188.048 E22.05286
G1 X198.408 Y188.129 E22.08857
G1 X151.054 Y188.09 E23.86045
G1 X150.188 Y187.955 E23.89324
G1 X149.631 Y187.808 E23.9148
G1 X148.94 Y187.54 E23.94253
G1 X147.962 Y186.999 E23.98435
G1 X147.315 Y186.501 E24.0149
G1 X146.696 Y185.888 E24.0475
G1 X146.182 Y185.226 E24.07886
G1 X145.762 Y184.494 E24.11044
G1 X145.393 Y183.587 E24.14707
G1 X145.197 Y182.844 E24.17583
G1 X145.099 Y182.146 E24.2022
G1 X145.073 Y168.289 E24.7207
G1 X145.236 Y166.997 E24.76942
G1 X145.388 Y166.435 E24.79121
G1 X145.656 Y165.744 E24.81894
G1 X146.197 Y164.766 E24.86076
G1 X146.695 Y164.119 E24.89131
G1 X147.308 Y163.5 E24.92391
G0 F7200 X147.628 Y163.817
G1 F2700 X148.244 Y163.343 E24.95299
G1 X148.873 Y162.982 E24.98013
G1 X149.726 Y162.632 E25.01463
G1 X150.469 Y162.436 E25.04338
G1 X151.053 Y162.353 E25.06545
G1 X198.408 Y162.321 E26.83737
G1 X199.612 Y162.458 E26.88271
G1 X200.103 Y162.579 E26.90163
G1 X200.77 Y162.822 E26.92819
G1 X201.754 Y163.352 E26.97001
G1 X202.317 Y163.776 E26.99638
G1 X203.03 Y164.482 E27.03393
G1 X203.463 Y165.051 E27.06068
G1 X203.822 Y165.677 E27.08768
G1 X204.172 Y166.53 E27.12218
G1 X204.357 Y167.219 E27.14888
G1 X204.455 Y167.917 E27.17525
G1 X204.477 Y181.712 E27.69143
G1 X204.318 Y182.947 E27.73802
G1 X204.197 Y183.383 E27.75495
G1 X203.878 Y184.196 E27.78763
G1 X203.378 Y185.059 E27.82495
G1 X202.867 Y185.698 E27.85556
G1 X202.42 Y186.144 E27.87919
G1 X201.689 Y186.699 E27.91353
G1 X201.134 Y187.013 E27.93739
G1 X200.337 Y187.346 E27.96971
G1 X199.628 Y187.541 E27.99723
G1 X199.278 Y187.605 E28.01054
G1 X198.408 Y187.679 E28.04321
G1 X151.123 Y187.645 E29.81251
G1 X150.257 Y187.51 E29.8453
G1 X149.792 Y187.388 E29.86329
G1 X149.156 Y187.145 E29.88877
G1 X148.235 Y186.641 E29.92805
G1 X147.632 Y186.181 E29.95643
G1 X147.013 Y185.568 E29.98902
G1 X146.539 Y184.952 E30.01811
G1 X146.178 Y184.323 E30.04524
G1 X145.828 Y183.47 E30.07974
G1 X145.643 Y182.781 E30.10644
G1 X145.545 Y182.083 E30.13281
G1 X145.523 Y168.288 E30.64899
G1 X145.671 Y167.112 E30.69334
G1 X145.808 Y166.596 E30.71332
G1 X146.051 Y165.96 E30.73879
G1 X146.555 Y165.039 E30.77808
G1 X147.015 Y164.436 E30.80645
G1 X147.628 Y163.817 E30.83905
G0 F7200 X147.948 Y164.134
G1 F2700 X148.517 Y163.701 E30.86581
G1 X149.046 Y163.398 E30.88862
G1 X149.843 Y163.067 E30.92091
G1 X150.532 Y162.882 E30.9476
G1 X151.116 Y162.799 E30.96967
G1 X198.408 Y162.771 E32.73923
G1 X199.504 Y162.895 E32.7805
G1 X199.995 Y163.016 E32.79942
G1 X200.558 Y163.219 E32.82182
G1 X201.485 Y163.713 E32.86112
G1 X202 Y164.096 E32.88513
G1 X202.713 Y164.802 E32.92268
G1 X203.103 Y165.321 E32.94697
G1 X203.406 Y165.85 E32.96978
G1 X203.737 Y166.647 E33.00207
G1 X203.922 Y167.336 E33.02877
G1 X204.005 Y167.918 E33.05076
G1 X204.027 Y181.713 E33.56694
G1 X203.884 Y182.829 E33.60904
G1 X203.777 Y183.221 E33.62425
G1 X203.487 Y183.972 E33.65437
G1 X203.025 Y184.779 E33.68916
G1 X202.549 Y185.379 E33.71782
G1 X202.102 Y185.825 E33.74145
G1 X201.418 Y186.34 E33.77348
G1 X200.959 Y186.598 E33.79319
G1 X200.216 Y186.912 E33.82337
G1 X199.547 Y187.098 E33.84935
G1 X199.197 Y187.162 E33.86266
G1 X198.408 Y187.229 E33.89229
G1 X151.192 Y187.2 E35.659
G1 X150.326 Y187.065 E35.6918
G1 X149.95 Y186.967 E35.70634
G1 X149.372 Y186.75 E35.72944
G1 X148.451 Y186.246 E35.76872
G1 X147.949 Y185.861 E35.7924
G1 X147.33 Y185.248 E35.82499
G1 X146.897 Y184.679 E35.85175
G1 X146.594 Y184.15 E35.87456
G1 X146.263 Y183.353 E35.90685
G1 X146.078 Y182.664 E35.93354
G1 X145.995 Y182.082 E35.95554
G1 X145.973 Y168.287 E36.47172
G1 X146.117 Y167.169 E36.5139
G1 X146.229 Y166.754 E36.52998
G1 X146.446 Y166.176 E36.55308
G1 X146.95 Y165.255 E36.59237
G1 X147.335 Y164.753 E36.61604
G1 X147.948 Y164.134 E36.64864
G0 F7200 X148.268 Y164.451
G1 F2700 X148.787 Y164.061 E36.67293
G1 X149.22 Y163.813 E36.6916
G1 X149.96 Y163.502 E36.72163
G1 X150.649 Y163.317 E36.74833
G1 X151.116 Y163.249 E36.76599
G1 X198.408 Y163.221 E38.53554
G1 X199.452 Y163.342 E38.57487
G1 X199.846 Y163.441 E38.59007
G1 X200.348 Y163.617 E38.60997
G1 X201.216 Y164.074 E38.64668
G1 X201.731 Y164.457 E38.67069
G1 X202.353 Y165.072 E38.70342
G1 X202.743 Y165.591 E38.72771
G1 X202.991 Y166.024 E38.74638
G1 X203.302 Y166.764 E38.77642
G1 X203.487 Y167.453 E38.80311
G1 X203.555 Y167.919 E38.82073
G1 X203.577 Y181.714 E39.33691
G1 X203.449 Y182.713 E39.3746
G1 X203.357 Y183.059 E39.38799
G1 X203.067 Y183.81 E39.41812
G1 X202.671 Y184.501 E39.44792
G1 X202.231 Y185.06 E39.47454
G1 X201.784 Y185.506 E39.49816
G1 X201.196 Y185.949 E39.52571
G1 X200.782 Y186.184 E39.54352
G1 X200.095 Y186.478 E39.57148
G1 X199.426 Y186.664 E39.59747
G1 X199.158 Y186.714 E39.60767
G1 X198.408 Y186.779 E39.63583
G1 X151.261 Y186.755 E41.39996
G1 X150.395 Y186.62 E41.43276
G1 X150.105 Y186.544 E41.44398
G1 X149.586 Y186.354 E41.46466
G1 X148.723 Y185.887 E41.50137
G1 X148.266 Y185.541 E41.52282
G1 X147.647 Y184.928 E41.55542
G1 X147.257 Y184.409 E41.57971
G1 X147.009 Y183.976 E41.59838
G1 X146.698 Y183.236 E41.62842
G1 X146.513 Y182.547 E41.65511
G1 X146.445 Y182.081 E41.67273
G1 X146.423 Y168.286 E42.18891
G1 X146.552 Y167.285 E42.22667
G1 X146.652 Y166.909 E42.24123
G1 X146.842 Y166.39 E42.26191
G1 X147.309 Y165.527 E42.29863
G1 X147.655 Y165.07 E42.32008
G1 X148.268 Y164.451 E42.35267
G0 F7200 X148.54 Y164.809
G1 F2700 X149.013 Y164.45 E42.37489
G1 X149.396 Y164.227 E42.39148
G1 X150.077 Y163.937 E42.41917
G1 X150.766 Y163.752 E42.44586
G1 X151.116 Y163.699 E42.45911
G1 X198.408 Y163.671 E44.22867
G1 X199.344 Y163.779 E44.26392
G1 X199.697 Y163.866 E44.27753
G1 X200.199 Y164.042 E44.29743
G1 X200.947 Y164.435 E44.32905
G1 X201.462 Y164.818 E44.35306
G1 X201.995 Y165.344 E44.38108
G1 X202.354 Y165.817 E44.4033
G1 X202.577 Y166.2 E44.41988
G1 X202.867 Y166.881 E44.44758
G1 X203.052 Y167.57 E44.47427
G1 X203.105 Y167.92 E44.48752
G1 X203.127 Y181.715 E45.0037
G1 X203.013 Y182.601 E45.03712
G1 X202.936 Y182.9 E45.04867
G1 X202.675 Y183.589 E45.07624
G1 X202.316 Y184.224 E45.10354
G1 X201.913 Y184.741 E45.12806
G1 X201.466 Y185.187 E45.15169
G1 X200.972 Y185.559 E45.17483
G1 X200.603 Y185.771 E45.19075
G1 X199.974 Y186.044 E45.21641
G1 X199.305 Y186.23 E45.24239
G1 X199.078 Y186.271 E45.25102
G1 X198.408 Y186.329 E45.27619
G1 X151.33 Y186.31 E47.03774
G1 X150.464 Y186.175 E47.07053
G1 X150.26 Y186.121 E47.07843
G1 X149.741 Y185.931 E47.09911
G1 X148.995 Y185.528 E47.13083
G1 X148.538 Y185.182 E47.15228
G1 X148.005 Y184.656 E47.1803
G1 X147.646 Y184.183 E47.20252
G1 X147.423 Y183.8 E47.2191
G1 X147.133 Y183.119 E47.2468
G1 X146.948 Y182.43 E47.27349
G1 X146.895 Y182.08 E47.28674
G1 X146.873 Y168.285 E47.80292
G1 X146.987 Y167.399 E47.83634
G1 X147.075 Y167.064 E47.8493
G1 X147.265 Y166.545 E47.86998
G1 X147.668 Y165.799 E47.90171
G1 X148.014 Y165.342 E47.92316
G1 X148.54 Y164.809 E47.95118
G0 F7200 X148.814 Y165.166
G1 F2700 X149.243 Y164.837 E47.97141
G1 X149.575 Y164.64 E47.98585
G1 X150.194 Y164.372 E48.01109
G1 X150.883 Y164.187 E48.03778
G1 X151.179 Y164.145 E48.04897
G1 X198.408 Y164.121 E49.81617
G1 X199.236 Y164.216 E49.84735
G1 X199.589 Y164.303 E49.86096
G1 X200.048 Y164.466 E49.87918
G1 X200.736 Y164.832 E49.90834
G1 X201.148 Y165.14 E49.92759
G1 X201.638 Y165.618 E49.9532
G1 X201.967 Y166.047 E49.97343
G1 X202.164 Y166.379 E49.98788
G1 X202.432 Y166.998 E50.01312
G1 X202.617 Y167.687 E50.03981
G1 X202.659 Y167.983 E50.051
G1 X202.677 Y181.716 E50.56485
G1 X202.577 Y182.489 E50.59402
G1 X202.5 Y182.788 E50.60557
G1 X202.282 Y183.37 E50.62883
G1 X201.96 Y183.949 E50.65362
G1 X201.595 Y184.422 E50.67597
G1 X201.148 Y184.868 E50.6996
G1 X200.745 Y185.17 E50.71844
G1 X200.421 Y185.359 E50.73248
G1 X199.853 Y185.61 E50.75571
G1 X199.184 Y185.796 E50.7817
G1 X199.002 Y185.827 E50.7886
G1 X198.408 Y185.879 E50.81091
G1 X151.399 Y185.865 E52.56988
G1 X150.533 Y185.73 E52.60268
G1 X150.411 Y185.697 E52.60741
G1 X149.952 Y185.534 E52.62563
G1 X149.264 Y185.168 E52.65479
G1 X148.852 Y184.86 E52.67404
G1 X148.362 Y184.382 E52.69965
G1 X148.033 Y183.953 E52.71988
G1 X147.836 Y183.621 E52.73433
G1 X147.568 Y183.002 E52.75956
G1 X147.383 Y182.313 E52.78626
G1 X147.341 Y182.017 E52.79744
G1 X147.323 Y168.284 E53.3113
G1 X147.423 Y167.511 E53.34047
G1 X147.499 Y167.215 E53.3519
G1 X147.662 Y166.756 E53.37013
G1 X148.028 Y166.068 E53.39929
G1 X148.336 Y165.656 E53.41853
G1 X148.814 Y165.166 E53.44415
G0 F7200 X149.09 Y165.522
G1 F2700 X149.477 Y165.222 E53.46247
G1 X149.757 Y165.052 E53.47473
G1 X150.313 Y164.806 E53.49748
G1 X150.946 Y164.633 E53.52203
G1 X151.242 Y164.591 E53.53322
G1 X198.408 Y164.571 E55.29806
G1 X199.183 Y164.663 E55.32726
G1 X199.438 Y164.727 E55.3371
G1 X199.897 Y164.89 E55.35532
G1 X200.469 Y165.194 E55.37956
G1 X200.836 Y165.464 E55.39661
G1 X201.282 Y165.894 E55.41979
G1 X201.582 Y166.281 E55.43811
G1 X201.752 Y166.561 E55.45037
G1 X201.998 Y167.117 E55.47312
G1 X202.171 Y167.75 E55.49767
G1 X202.213 Y168.046 E55.50886
G1 X202.227 Y181.716 E56.02036
G1 X202.141 Y182.379 E56.04537
G1 X202.077 Y182.634 E56.05521
G1 X201.887 Y183.154 E56.07593
G1 X201.602 Y183.676 E56.09818
