;FLAVOR:Marlin
;TIME:3991
;Filament used: 4.71798m
;Layer height: 0.2
;MINX:120.799
;MINY:125.203
;MINZ:0.2
;MAXX:251.659
;MAXY:175.661
;MAXZ:7.2
;TARGET_MACHINE.NAME:VORON2 350
;POSTPROCESSED
;  [CreateThumbnail]
;  [CreateThumbnail]
;  [InsertAtLayerChange]
;Generated with Cura_SteamEngine 5.10.1
;
;

;
;

;Nozzle diameter = 0.4
;Filament type = PLA
;Filament name = PLA White
;Filament weight = [12.482891308593752]; M190 S60
; M109 S210


; Pre-Processed for Cancel-Object support by preprocess_cancellation v0.2.0
; 4 known objects
EXCLUDE_OBJECT_DEFINE NAME=Latch_1 CENTER=138.361,152.967 POLYGON=[[126.724,133.164],[126.724,169.264],[149.924,169.264],[149.924,133.164]]
EXCLUDE_OBJECT_DEFINE NAME=FlipOver_Hinge_M3x30 CENTER=169.288,151.286 POLYGON=[[159.736,133.936],[159.736,168.236],[178.836,168.236],[178.836,133.936]]
EXCLUDE_OBJECT_DEFINE NAME=FlipOver_Hinge_M3x30_1 CENTER=201.566,152.635 POLYGON=[[192.052,135.272],[192.052,169.572],[211.152,169.572],[211.152,135.272]]
EXCLUDE_OBJECT_DEFINE NAME=Latch CENTER=228.041,152.144 POLYGON=[[126.0,132.376],[126.0,168.983],[246.8,168.983],[246.8,132.376]]
PRINT_START BED_TEMP=60 EXTRUDER_TEMP=210
M82 ;absolute extrusion mode
M141 S10
G92 E0
G92 E0
G1 F1800 E-0.75
;LAYER_COUNT:35
;LAYER:0
TIMELAPSE_TAKE_FRAME
M107
G1 F600 Z0.4
G0 F7200 X123.492 Y128.033 Z0.4
;TYPE:SKIRT
G1 F600 Z0.2
G1 F720 E0
G1 F1800 X124.074 Y127.561 E0.02748
G1 X124.567 Y127.228 E0.04929
G1 X125.502 Y126.726 E0.08821
G1 X126.131 Y126.468 E0.11314
G1 X126.891 Y126.242 E0.14221
G1 X127.912 Y126.051 E0.1803
G1 X128.748 Y125.991 E0.21104
G1 X148.716 Y126.054 E0.94325
G1 X149.619 Y126.207 E0.97684
G1 X150.604 Y126.507 E1.01459
G1 X151.637 Y126.969 E1.05609
G1 X152.212 Y127.321 E1.08081
G1 X153.107 Y127.999 E1.12198
G1 X153.81 Y128.692 E1.15818
G1 X154.303 Y129.314 E1.18729
G1 X154.614 Y129.807 E1.20866
G1 X154.73 Y129.702 E1.2144
G1 X155.622 Y129.051 E1.25489
G1 X156.136 Y128.76 E1.27655
G1 X157.815 Y128.103 E1.34266
G1 X158.32 Y127.987 E1.36166
G1 X159.552 Y127.851 E1.40711
G1 X178.955 Y127.849 E2.11861
G1 X180.479 Y128.043 E2.17494
G1 X180.936 Y128.153 E2.19218
G1 X181.818 Y128.464 E2.22647
G1 X182.545 Y128.816 E2.25609
G1 X183.351 Y129.323 E2.29101
G1 X184.335 Y130.151 E2.33817
G1 X185.068 Y130.977 E2.37866
G1 X185.483 Y131.568 E2.40514
G1 X185.87 Y132.267 E2.43444
G1 X186.545 Y131.501 E2.47188
G1 X187.085 Y131.01 E2.49864
G1 X187.94 Y130.388 E2.53741
G1 X188.454 Y130.097 E2.55907
G1 X190.133 Y129.44 E2.62519
G1 X190.638 Y129.324 E2.64419
G1 X191.87 Y129.188 E2.68964
G1 X211.273 Y129.186 E3.40113
G1 X212.797 Y129.38 E3.45747
G1 X213.254 Y129.49 E3.4747
G1 X214.136 Y129.801 E3.509
G1 X214.863 Y130.153 E3.53862
G1 X215.669 Y130.66 E3.57353
G1 X216.653 Y131.488 E3.62069
G1 X216.788 Y131.64 E3.62815
G1 X216.839 Y131.367 E3.63833
G1 X217.094 Y130.49 E3.67182
G1 X217.205 Y130.204 E3.68307
G1 X217.723 Y129.18 E3.72515
G1 X218.301 Y128.317 E3.76324
G1 X218.708 Y127.832 E3.78645
G1 X219.3 Y127.245 E3.81703
G1 X219.882 Y126.773 E3.8445
G1 X220.375 Y126.44 E3.86632
G1 X221.31 Y125.938 E3.90523
G1 X221.939 Y125.68 E3.93016
G1 X222.699 Y125.454 E3.95924
G1 X223.72 Y125.263 E3.99733
G1 X224.556 Y125.203 E4.02806
G1 X244.524 Y125.266 E4.76028
G1 X245.427 Y125.419 E4.79386
G1 X246.412 Y125.719 E4.83162
G1 X247.445 Y126.181 E4.87311
G1 X248.02 Y126.533 E4.89784
G1 X248.915 Y127.211 E4.93901
G1 X249.618 Y127.904 E4.97521
G1 X250.082 Y128.485 E5.00247
G1 X250.776 Y129.598 E5.05057
G1 X251.062 Y130.232 E5.07607
G1 X251.397 Y131.235 E5.11485
G1 X251.539 Y131.906 E5.14
G1 X251.628 Y132.617 E5.16628
G1 X251.659 Y165.395 E6.36822
G1 X251.625 Y166.015 E6.39099
G1 X251.483 Y167.095 E6.43094
G1 X251.139 Y168.476 E6.48312
G1 X250.693 Y169.55 E6.52577
G1 X250.227 Y170.357 E6.55994
G1 X249.738 Y171.011 E6.58988
G1 X248.978 Y171.816 E6.63048
G1 X248.483 Y172.227 E6.65407
G1 X247.719 Y172.739 E6.6878
G1 X246.635 Y173.278 E6.73219
G1 X245.976 Y173.508 E6.75778
G1 X244.865 Y173.763 E6.79958
G1 X243.653 Y173.874 E6.84421
G1 X240.485 Y173.833 E6.96039
G1 X239.79 Y173.732 E6.98614
G1 X239.02 Y173.54 E7.01524
G1 X237.633 Y172.988 E7.06998
G1 X237.019 Y172.642 E7.09582
G1 X236.677 Y172.407 E7.11104
G1 X231.584 Y172.407 E7.2978
G1 X231.444 Y172.508 E7.30413
G1 X230.668 Y172.967 E7.33719
G1 X229.954 Y173.292 E7.36596
G1 X228.7 Y173.689 E7.41419
G1 X228.318 Y173.764 E7.42846
G1 X226.991 Y173.88 E7.47731
G1 X224.419 Y173.865 E7.57162
G1 X222.368 Y173.538 E7.64778
G1 X221.727 Y173.324 E7.67256
G1 X220.898 Y172.934 E7.70616
G1 X219.768 Y172.217 E7.75523
G1 X219.413 Y171.925 E7.77209
G1 X218.477 Y170.937 E7.82199
G1 X218.395 Y170.829 E7.82696
G1 X218.162 Y171.317 E7.84679
G1 X217.459 Y172.42 E7.89476
G1 X216.521 Y173.485 E7.9468
G1 X216.046 Y173.9 E7.96993
G1 X215.156 Y174.529 E8.00989
G1 X214.565 Y174.846 E8.03448
G1 X213.383 Y175.314 E8.0811
G1 X212.596 Y175.516 E8.11089
G1 X212.223 Y175.58 E8.12477
G1 X211.253 Y175.661 E8.16046
G1 X191.286 Y175.611 E8.89264
G1 X190.505 Y175.488 E8.92163
G1 X189 Y175.014 E8.97949
G1 X188.246 Y174.637 E9.01041
G1 X187.488 Y174.149 E9.04346
G1 X186.557 Y173.359 E9.08824
G1 X185.824 Y172.533 E9.12873
G1 X185.409 Y171.942 E9.15521
G1 X185.014 Y171.229 E9.1851
G1 X184.251 Y172.1 E9.22756
G1 X183.717 Y172.576 E9.25379
G1 X183.12 Y173.013 E9.28092
G1 X182.077 Y173.584 E9.32453
G1 X180.881 Y174.03 E9.37133
G1 X179.971 Y174.229 E9.40549
G1 X178.916 Y174.326 E9.44434
G1 X159.095 Y174.281 E10.17116
G1 X159.018 Y174.274 E10.174
G1 X157.777 Y174.051 E10.22024
G1 X156.756 Y173.709 E10.25972
G1 X156.029 Y173.357 E10.28934
G1 X155.274 Y172.887 E10.32195
G1 X154.241 Y172.024 E10.37131
G1 X153.983 Y171.734 E10.38554
G1 X153.93 Y171.8 E10.38865
G1 X153.175 Y172.602 E10.42904
G1 X152.757 Y172.954 E10.44907
G1 X151.857 Y173.558 E10.48882
G1 X150.802 Y174.076 E10.53192
G1 X150.193 Y174.289 E10.55558
G1 X148.81 Y174.598 E10.60754
G1 X148.399 Y174.641 E10.62269
G1 X145.392 Y174.666 E10.73296
G1 X143.436 Y174.386 E10.80542
G1 X143.362 Y174.369 E10.8082
G1 X142.548 Y174.103 E10.8396
G1 X141.847 Y173.785 E10.86783
G1 X140.863 Y173.199 E10.90983
G1 X135.781 Y173.19 E11.09618
G1 X135.06 Y173.648 E11.1275
G1 X134.334 Y174.006 E11.15718
G1 X133.382 Y174.344 E11.19423
G1 X132.512 Y174.544 E11.22696
G1 X131.996 Y174.618 E11.24608
G1 X131.184 Y174.669 E11.27591
G1 X128.611 Y174.654 E11.37026
G1 X126.56 Y174.327 E11.44642
G1 X125.919 Y174.113 E11.4712
G1 X125.09 Y173.723 E11.5048
G1 X123.96 Y173.006 E11.55387
G1 X123.605 Y172.714 E11.57073
G1 X122.63 Y171.679 E11.62287
G1 X122.15 Y171.004 E11.65324
G1 X121.669 Y170.128 E11.68989
G1 X121.225 Y169.002 E11.73427
G1 X121.128 Y168.652 E11.74759
G1 X120.874 Y167.227 E11.80067
G1 X120.81 Y166.496 E11.82757
G1 X120.799 Y166.038 E11.84437
G1 X120.864 Y133.123 E13.05134
G1 X120.876 Y133.008 E13.05558
G1 X121.031 Y132.155 E13.08738
G1 X121.286 Y131.278 E13.12087
G1 X121.397 Y130.992 E13.13212
G1 X121.915 Y129.968 E13.1742
G1 X122.493 Y129.105 E13.21228
G1 X122.9 Y128.62 E13.2355
G1 X123.492 Y128.033 E13.26607
G0 F7200 X123.809 Y128.353
G1 F1800 X124.328 Y127.933 E13.29055
G1 X124.781 Y127.624 E13.31066
G1 X125.673 Y127.142 E13.34784
G1 X126.302 Y126.884 E13.37277
G1 X126.975 Y126.684 E13.39852
G1 X127.945 Y126.5 E13.43472
G1 X128.747 Y126.441 E13.46421
G1 X148.641 Y126.498 E14.19371
G1 X149.544 Y126.651 E14.22729
G1 X150.421 Y126.918 E14.26091
G1 X151.403 Y127.354 E14.30031
G1 X151.94 Y127.68 E14.32334
G1 X152.835 Y128.358 E14.36452
G1 X153.458 Y128.973 E14.39662
G1 X153.922 Y129.554 E14.42388
G1 X154.523 Y130.509 E14.46526
G1 X154.597 Y130.43 E14.46923
G1 X155.032 Y130.036 E14.49075
G1 X155.844 Y129.443 E14.52762
G1 X156.358 Y129.152 E14.54928
G1 X157.916 Y128.542 E14.61063
G1 X158.421 Y128.426 E14.62963
G1 X159.552 Y128.301 E14.67136
G1 X178.899 Y128.296 E15.3808
G1 X180.374 Y128.481 E15.43531
G1 X180.831 Y128.591 E15.45255
G1 X181.623 Y128.87 E15.48334
G1 X182.307 Y129.198 E15.51116
G1 X183.062 Y129.668 E15.54377
G1 X183.998 Y130.45 E15.58849
G1 X184.731 Y131.276 E15.62899
G1 X185.089 Y131.786 E15.65184
G1 X185.543 Y132.605 E15.68617
G1 X185.785 Y133.19 E15.70939
G1 X186.235 Y132.529 E15.73871
G1 X186.882 Y131.8 E15.77445
G1 X187.35 Y131.373 E15.79768
G1 X188.162 Y130.78 E15.83455
G1 X188.676 Y130.489 E15.85621
G1 X190.234 Y129.879 E15.91757
G1 X190.739 Y129.763 E15.93657
G1 X191.87 Y129.638 E15.97829
G1 X211.217 Y129.633 E16.68773
G1 X212.692 Y129.818 E16.74224
G1 X213.149 Y129.928 E16.75948
G1 X213.941 Y130.207 E16.79027
G1 X214.625 Y130.535 E16.81809
G1 X215.38 Y131.005 E16.8507
G1 X216.316 Y131.787 E16.89543
G1 X217.049 Y132.613 E16.93592
G1 X217.119 Y132.708 E16.94025
G1 X217.127 Y132.299 E16.95525
G1 X217.271 Y131.492 E16.98531
G1 X217.514 Y130.653 E17.01734
G1 X217.625 Y130.367 E17.02859
G1 X218.097 Y129.43 E17.06706
G1 X218.647 Y128.605 E17.10342
G1 X219.025 Y128.152 E17.12505
G1 X219.617 Y127.565 E17.15562
G1 X220.136 Y127.145 E17.18011
G1 X220.589 Y126.836 E17.20021
G1 X221.481 Y126.354 E17.23739
G1 X222.11 Y126.096 E17.26232
G1 X222.783 Y125.896 E17.28807
G1 X223.753 Y125.712 E17.32427
G1 X224.555 Y125.653 E17.35376
G1 X244.449 Y125.71 E18.08326
G1 X245.352 Y125.863 E18.11685
G1 X246.229 Y126.13 E18.15046
G1 X247.211 Y126.566 E18.18986
G1 X247.748 Y126.892 E18.2129
G1 X248.643 Y127.57 E18.25407
G1 X249.266 Y128.185 E18.28617
G1 X249.73 Y128.766 E18.31344
G1 X250.366 Y129.784 E18.35745
G1 X250.635 Y130.375 E18.38126
G1 X250.97 Y131.378 E18.42004
G1 X251.092 Y131.962 E18.44192
G1 X251.181 Y132.673 E18.46819
G1 X251.209 Y165.395 E19.66808
G1 X251.179 Y165.957 E19.68872
G1 X251.046 Y166.986 E19.72677
G1 X250.702 Y168.367 E19.77896
G1 X250.303 Y169.325 E19.81701
G1 X249.837 Y170.132 E19.85118
G1 X249.41 Y170.703 E19.87733
G1 X248.689 Y171.471 E19.91595
G1 X248.232 Y171.853 E19.9378
G1 X247.468 Y172.365 E19.97152
G1 X246.485 Y172.854 E20.01178
G1 X245.875 Y173.069 E20.0355
G1 X244.764 Y173.324 E20.0773
G1 X243.658 Y173.424 E20.11802
G1 X240.548 Y173.387 E20.23207
G1 X239.899 Y173.295 E20.2561
G1 X239.129 Y173.103 E20.2852
G1 X237.853 Y172.595 E20.33557
G1 X237.274 Y172.271 E20.3599
G1 X236.817 Y171.957 E20.38023
G1 X231.434 Y171.957 E20.57762
G1 X231.214 Y172.121 E20.58768
G1 X230.482 Y172.557 E20.61892
G1 X229.768 Y172.882 E20.64769
G1 X228.613 Y173.247 E20.69211
G1 X228.231 Y173.322 E20.70638
G1 X226.994 Y173.43 E20.75191
G1 X224.422 Y173.415 E20.84623
G1 X222.511 Y173.111 E20.91719
G1 X221.87 Y172.897 E20.94197
G1 X221.138 Y172.553 E20.97162
G1 X220.054 Y171.869 E21.01863
G1 X219.699 Y171.577 E21.03548
G1 X218.804 Y170.628 E21.08332
G1 X218.352 Y169.997 E21.11178
G1 X218.251 Y169.817 E21.11935
G1 X218.011 Y170.586 E21.14889
G1 X217.781 Y171.077 E21.16877
G1 X217.121 Y172.123 E21.21412
G1 X216.224 Y173.147 E21.26404
G1 X215.785 Y173.533 E21.28548
G1 X214.943 Y174.132 E21.32337
G1 X214.352 Y174.449 E21.34796
G1 X213.27 Y174.878 E21.39064
G1 X212.52 Y175.072 E21.41905
G1 X212.147 Y175.136 E21.43292
G1 X211.254 Y175.211 E21.46579
G1 X191.356 Y175.166 E22.19543
G1 X190.575 Y175.043 E22.22442
G1 X189.2 Y174.611 E22.27728
G1 X188.488 Y174.258 E22.30642
G1 X187.778 Y173.805 E22.3373
G1 X186.894 Y173.06 E22.37969
G1 X186.161 Y172.234 E22.42019
G1 X185.803 Y171.724 E22.44304
G1 X185.349 Y170.905 E22.47737
G1 X185.105 Y170.315 E22.50079
G1 X184.805 Y170.784 E22.5212
G1 X183.951 Y171.765 E22.56889
G1 X183.449 Y172.214 E22.59359
G1 X182.902 Y172.619 E22.61855
G1 X181.918 Y173.163 E22.65978
G1 X180.785 Y173.59 E22.70418
G1 X179.875 Y173.789 E22.73834
G1 X178.917 Y173.876 E22.77361
G1 X159.096 Y173.831 E23.50043
G1 X157.919 Y173.624 E23.54426
G1 X156.951 Y173.303 E23.58165
G1 X156.267 Y172.975 E23.60947
G1 X155.512 Y172.505 E23.64208
G1 X154.577 Y171.724 E23.68675
G1 X153.954 Y171.026 E23.72106
G1 X153.602 Y171.492 E23.74248
G1 X152.883 Y172.259 E23.78103
G1 X152.506 Y172.58 E23.79918
G1 X151.606 Y173.184 E23.83893
G1 X150.653 Y173.651 E23.87784
G1 X150.044 Y173.864 E23.9015
G1 X148.763 Y174.15 E23.94963
G1 X148.352 Y174.193 E23.96479
G1 X145.389 Y174.216 E24.07344
G1 X143.501 Y173.941 E24.1434
G1 X142.732 Y173.692 E24.17304
G1 X142.077 Y173.398 E24.19937
G1 X141.078 Y172.803 E24.24201
G1 X141.002 Y172.749 E24.24543
G1 X135.65 Y172.74 E24.44168
G1 X134.861 Y173.244 E24.47601
G1 X134.135 Y173.602 E24.50569
G1 X133.281 Y173.905 E24.53892
G1 X132.411 Y174.105 E24.57166
G1 X131.967 Y174.169 E24.58811
G1 X131.187 Y174.219 E24.61677
G1 X128.614 Y174.204 E24.71112
G1 X126.703 Y173.9 E24.78207
G1 X126.062 Y173.686 E24.80685
G1 X125.33 Y173.342 E24.83651
G1 X124.246 Y172.658 E24.88351
G1 X123.891 Y172.366 E24.90037
G1 X122.996 Y171.417 E24.9482
G1 X122.544 Y170.786 E24.97667
G1 X122.087 Y169.962 E25.01122
G1 X121.659 Y168.882 E25.05382
G1 X121.562 Y168.532 E25.06713
G1 X121.322 Y167.187 E25.11723
G1 X121.26 Y166.485 E25.14308
G1 X121.249 Y166.039 E25.15944
G1 X121.312 Y133.164 E26.36494
G1 X121.319 Y133.087 E26.36778
G1 X121.463 Y132.28 E26.39784
G1 X121.706 Y131.441 E26.42987
G1 X121.817 Y131.155 E26.44112
G1 X122.289 Y130.218 E26.47959
G1 X122.839 Y129.393 E26.51595
G1 X123.217 Y128.94 E26.53758
G1 X123.809 Y128.353 E26.56815
G0 F7200 X124.126 Y128.673
G1 F1800 X124.582 Y128.305 E26.58964
G1 X125.035 Y127.996 E26.60975
G1 X125.845 Y127.558 E26.64351
G1 X126.432 Y127.315 E26.66681
G1 X127.06 Y127.126 E26.69086
G1 X127.979 Y126.949 E26.72518
G1 X128.746 Y126.891 E26.75338
G1 X148.566 Y126.942 E27.48017
G1 X149.469 Y127.095 E27.51375
G1 X150.24 Y127.33 E27.54331
G1 X151.171 Y127.74 E27.58061
G1 X151.668 Y128.039 E27.60188
G1 X152.563 Y128.717 E27.64305
G1 X153.106 Y129.254 E27.67106
G1 X153.57 Y129.835 E27.69832
G1 X154.149 Y130.76 E27.73834
G1 X154.405 Y131.321 E27.76095
G1 X154.901 Y130.762 E27.78836
G1 X155.298 Y130.399 E27.80808
G1 X156.066 Y129.835 E27.84302
G1 X156.58 Y129.544 E27.86468
G1 X158.017 Y128.981 E27.92127
G1 X158.522 Y128.865 E27.94027
G1 X159.552 Y128.751 E27.97827
G1 X178.843 Y128.743 E28.68566
G1 X180.318 Y128.928 E28.74017
G1 X180.683 Y129.016 E28.75394
G1 X181.428 Y129.276 E28.78288
G1 X182.112 Y129.604 E28.81069
G1 X182.823 Y130.049 E28.84145
G1 X183.661 Y130.749 E28.88149
G1 X184.394 Y131.575 E28.92198
G1 X184.719 Y132.043 E28.94288
G1 X185.127 Y132.777 E28.97367
G1 X185.449 Y133.556 E29.00458
G1 X185.657 Y134.384 E29.03589
G1 X185.996 Y133.682 E29.06447
G1 X186.572 Y132.828 E29.10225
G1 X187.219 Y132.099 E29.13799
G1 X187.616 Y131.736 E29.15771
G1 X188.384 Y131.172 E29.19265
G1 X188.898 Y130.881 E29.21431
G1 X190.335 Y130.318 E29.27091
G1 X190.84 Y130.202 E29.28991
G1 X191.87 Y130.088 E29.32791
G1 X211.161 Y130.08 E30.03529
G1 X212.636 Y130.265 E30.0898
G1 X213.001 Y130.353 E30.10357
G1 X213.746 Y130.613 E30.13251
G1 X214.43 Y130.941 E30.16032
G1 X215.141 Y131.386 E30.19108
G1 X215.979 Y132.086 E30.23112
G1 X216.712 Y132.912 E30.27162
G1 X217.037 Y133.38 E30.29251
G1 X217.445 Y134.114 E30.3233
G1 X217.561 Y134.394 E30.33442
G1 X217.57 Y132.377 E30.40838
G1 X217.703 Y131.617 E30.43667
G1 X217.934 Y130.816 E30.46724
G1 X218.045 Y130.53 E30.47849
G1 X218.472 Y129.679 E30.5134
G1 X218.994 Y128.892 E30.54803
G1 X219.342 Y128.472 E30.56803
G1 X219.934 Y127.885 E30.5986
G1 X220.39 Y127.517 E30.62009
G1 X220.843 Y127.208 E30.6402
G1 X221.653 Y126.77 E30.67397
G1 X222.24 Y126.527 E30.69726
G1 X222.868 Y126.338 E30.72131
G1 X223.787 Y126.161 E30.75563
G1 X224.554 Y126.103 E30.78383
G1 X244.374 Y126.154 E31.51062
G1 X245.277 Y126.307 E31.54421
G1 X246.048 Y126.542 E31.57376
G1 X246.979 Y126.952 E31.61107
G1 X247.476 Y127.251 E31.63233
G1 X248.371 Y127.929 E31.67351
G1 X248.914 Y128.466 E31.70151
G1 X249.378 Y129.047 E31.72878
G1 X249.957 Y129.972 E31.76879
G1 X250.208 Y130.518 E31.79083
G1 X250.543 Y131.521 E31.8296
G1 X250.645 Y132.018 E31.84821
G1 X250.734 Y132.729 E31.87448
G1 X250.759 Y165.395 E33.07232
G1 X250.733 Y165.9 E33.09087
G1 X250.609 Y166.877 E33.12698
G1 X250.265 Y168.258 E33.17917
G1 X249.913 Y169.1 E33.21263
G1 X249.447 Y169.907 E33.2468
G1 X249.081 Y170.396 E33.2692
G1 X248.399 Y171.127 E33.30586
G1 X247.981 Y171.479 E33.3259
G1 X247.217 Y171.991 E33.35962
G1 X246.333 Y172.43 E33.39582
G1 X245.774 Y172.63 E33.41759
G1 X244.663 Y172.885 E33.45939
