;FLAVOR:Marlin
;TIME:1641
;Filament used: 2.00284m
;Layer height: 0.2
;MINX:140.083
;MINY:157.179
;MINZ:0.2
;MAXX:211.8
;MAXY:192.82
;MAXZ:11.2
;TARGET_MACHINE.NAME:VORON2 350
;POSTPROCESSED
;  [CreateThumbnail]
;  [CreateThumbnail]
;  [InsertAtLayerChange]
;Generated with Cura_SteamEngine 5.8.0
;
;

;
;



; Pre-Processed for Cancel-Object support by preprocess_cancellation v0.2.0
; 1 known objects
EXCLUDE_OBJECT_DEFINE NAME=Dyson_Button_Replacement_stl CENTER=170.965,175.018 POLYGON=[[144.405,165.189],[144.405,184.813],[203.8,184.813],[203.8,165.189]]
M82 ;absolute extrusion mode
;Nozzle diameter = 0.4
;Filament type = ABS
;Filament name = ABS+ Red
;Filament weight = [5.2991447265625]
; M190 S100
; M109 S250
PRINT_START BED_TEMP=100 EXTRUDER_TEMP=250
M141 S40
G92 E0
G92 E0
G1 F1800 E-0.75
;LAYER_COUNT:56
TIMELAPSE_TAKE_FRAME
;LAYER:0
M107
G1 F600 Z0.4
G0 F7200 X142.606 Y161.768 Z0.4
;TYPE:SKIRT
G1 F600 Z0.2
G1 F720 E0
G1 F2700 X143.177 Y161.297 E0.02585
G1 X144.081 Y160.719 E0.06332
G1 X145.041 Y160.253 E0.10059
G1 X145.455 Y160.105 E0.11594
G1 X147.072 Y159.75 E0.17376
G1 X147.563 Y159.708 E0.19097
G1 X149.245 Y159.721 E0.24971
G1 X150.53 Y159.918 E0.29511
G1 X150.996 Y159.411 E0.31916
G1 X151.542 Y158.941 E0.34432
G1 X152.619 Y158.216 E0.38966
G1 X153.191 Y157.921 E0.41214
G1 X154.39 Y157.479 E0.45676
G1 X154.737 Y157.394 E0.46924
G1 X156.363 Y157.206 E0.5264
G1 X190.234 Y157.2 E1.70929
G1 X190.776 Y157.179 E1.72823
G1 X192.743 Y157.281 E1.79701
G1 X194.494 Y157.545 E1.85886
G1 X196.576 Y158.066 E1.93381
G1 X197.722 Y158.488 E1.97646
G1 X199.473 Y159.319 E2.04415
G1 X200.953 Y160.224 E2.10473
G1 X202.554 Y161.448 E2.17511
G1 X204.6 Y161.494 E2.24658
G1 X206.136 Y161.772 E2.30109
G1 X207.199 Y162.157 E2.34058
G1 X208.033 Y162.602 E2.37359
G1 X209.139 Y163.411 E2.42144
G1 X209.903 Y164.175 E2.45918
G1 X210.337 Y164.732 E2.48384
G1 X210.77 Y165.423 E2.51232
G1 X211.269 Y166.493 E2.55355
G1 X211.532 Y167.293 E2.58296
G1 X211.641 Y167.76 E2.5997
G1 X211.8 Y169.267 E2.65262
G1 X211.733 Y181.683 E3.08624
G1 X211.607 Y182.376 E3.11084
G1 X211.132 Y183.844 E3.16472
G1 X210.599 Y184.864 E3.20491
G1 X209.915 Y185.821 E3.24599
G1 X209.501 Y186.269 E3.2673
G1 X208.703 Y186.954 E3.30402
G1 X208.018 Y187.407 E3.3327
G1 X207.147 Y187.856 E3.36693
G1 X205.938 Y188.281 E3.41168
G1 X204.947 Y188.486 E3.44702
G1 X204.622 Y188.522 E3.45844
G1 X202.569 Y188.549 E3.53014
G1 X202.279 Y188.795 E3.54343
G1 X200.796 Y189.883 E3.60766
G1 X200.128 Y190.314 E3.63542
G1 X199.619 Y190.605 E3.6559
G1 X198.816 Y191.001 E3.68717
G1 X197.533 Y191.59 E3.73647
G1 X196.289 Y192.02 E3.78244
G1 X193.762 Y192.639 E3.87329
G1 X192.26 Y192.789 E3.92601
G1 X191.839 Y192.775 E3.94072
G1 X190.603 Y192.82 E3.98391
G1 X190.195 Y192.8 E3.99818
G1 X155.688 Y192.747 E5.20327
G1 X155.216 Y192.687 E5.21989
G1 X154.296 Y192.49 E5.25275
G1 X153.859 Y192.347 E5.26881
G1 X152.706 Y191.83 E5.31294
G1 X152.146 Y191.489 E5.33583
G1 X151.05 Y190.614 E5.38481
G1 X150.558 Y190.084 E5.41007
G1 X150.11 Y190.178 E5.42605
G1 X148.7 Y190.302 E5.47548
G1 X147.263 Y190.26 E5.52569
G1 X145.959 Y190.033 E5.57191
G1 X144.653 Y189.574 E5.62026
G1 X143.653 Y189.028 E5.66005
G1 X142.695 Y188.309 E5.70188
G1 X142.146 Y187.765 E5.72887
G1 X141.605 Y187.106 E5.75865
G1 X141.206 Y186.485 E5.78442
G1 X140.659 Y185.368 E5.82786
G1 X140.374 Y184.525 E5.85894
G1 X140.201 Y183.733 E5.88725
G1 X140.083 Y182.46 E5.9319
G1 X140.105 Y180.336 E6.00608
G1 X140.29 Y179.094 E6.04993
G1 X140.135 Y178.313 E6.07774
G1 X140.093 Y177.826 E6.09481
G1 X140.139 Y175.193 E6.18677
G1 X140.17 Y174.96 E6.19498
G1 X140.083 Y173.954 E6.23025
G1 X140.105 Y172.082 E6.29563
G1 X140.29 Y170.841 E6.33945
G1 X140.135 Y170.07 E6.36691
G1 X140.093 Y169.586 E6.38388
G1 X140.116 Y166.966 E6.47538
G1 X140.329 Y165.667 E6.52135
G1 X140.681 Y164.565 E6.56175
G1 X140.901 Y164.062 E6.58092
G1 X141.304 Y163.351 E6.60947
G1 X142.149 Y162.227 E6.65857
G1 X142.606 Y161.768 E6.6812
G0 F7200 X142.861 Y162.077
G1 F2700 X143.432 Y161.606 E6.70704
G1 X144.256 Y161.079 E6.7412
G1 X145.179 Y160.629 E6.77706
G1 X145.542 Y160.496 E6.79057
G1 X147.106 Y160.149 E6.84651
G1 X147.597 Y160.107 E6.86372
G1 X149.242 Y160.121 E6.92117
G1 X150.523 Y160.322 E6.96646
G1 X150.663 Y160.366 E6.97158
G1 X151.258 Y159.713 E7.00244
G1 X151.766 Y159.272 E7.02593
G1 X152.802 Y158.572 E7.06959
G1 X153.374 Y158.277 E7.09207
G1 X154.485 Y157.868 E7.13341
G1 X154.832 Y157.783 E7.14589
G1 X156.363 Y157.606 E7.19971
G1 X190.249 Y157.6 E8.38312
G1 X190.791 Y157.579 E8.40206
G1 X192.683 Y157.677 E8.46823
G1 X194.434 Y157.941 E8.53007
G1 X196.438 Y158.442 E8.60221
G1 X197.551 Y158.85 E8.64361
G1 X199.265 Y159.661 E8.70983
G1 X200.71 Y160.542 E8.76893
G1 X202.415 Y161.845 E8.84387
G1 X204.53 Y161.888 E8.91775
G1 X206.001 Y162.149 E8.96992
G1 X207.012 Y162.511 E9.00743
G1 X207.798 Y162.926 E9.03847
G1 X208.857 Y163.695 E9.08417
G1 X209.587 Y164.421 E9.12013
G1 X210.021 Y164.978 E9.14479
G1 X210.407 Y165.592 E9.17012
G1 X210.906 Y166.662 E9.21135
G1 X211.142 Y167.384 E9.23788
G1 X211.251 Y167.851 E9.25462
G1 X211.4 Y169.265 E9.30428
G1 X211.333 Y181.681 E9.73789
G1 X211.226 Y182.253 E9.75821
G1 X210.751 Y183.721 E9.8121
G1 X210.274 Y184.631 E9.84798
G1 X209.59 Y185.588 E9.88906
G1 X209.24 Y185.965 E9.90702
G1 X208.442 Y186.65 E9.94375
G1 X207.835 Y187.051 E9.96916
G1 X206.964 Y187.5 E10.00338
G1 X205.856 Y187.889 E10.04439
G1 X204.903 Y188.088 E10.07839
G1 X204.578 Y188.124 E10.08981
G1 X202.419 Y188.151 E10.16521
G1 X202.042 Y188.472 E10.18251
G1 X200.559 Y189.56 E10.24674
G1 X199.911 Y189.978 E10.27367
G1 X199.442 Y190.246 E10.29253
G1 X198.649 Y190.637 E10.32341
G1 X197.366 Y191.226 E10.37271
G1 X196.194 Y191.631 E10.41602
G1 X193.667 Y192.25 E10.50688
G1 X192.273 Y192.389 E10.5558
G1 X191.837 Y192.375 E10.57104
G1 X190.623 Y192.42 E10.61346
G1 X190.215 Y192.4 E10.62773
G1 X155.738 Y192.35 E11.83178
G1 X155.266 Y192.29 E11.84839
G1 X154.418 Y192.109 E11.87867
G1 X154.022 Y191.982 E11.8932
G1 X152.914 Y191.488 E11.93556
G1 X152.354 Y191.147 E11.95846
G1 X151.343 Y190.342 E12.00359
G1 X150.687 Y189.635 E12.03728
G1 X150.54 Y189.679 E12.04263
G1 X150.028 Y189.786 E12.0609
G1 X148.71 Y189.902 E12.10711
G1 X147.332 Y189.866 E12.15525
G1 X146.028 Y189.639 E12.20147
G1 X144.845 Y189.223 E12.24527
G1 X143.845 Y188.677 E12.28506
G1 X142.977 Y188.025 E12.32297
G1 X142.428 Y187.481 E12.34996
G1 X141.941 Y186.888 E12.37676
G1 X141.565 Y186.308 E12.4009
G1 X141.038 Y185.239 E12.44252
G1 X140.765 Y184.44 E12.47201
G1 X140.592 Y183.648 E12.50032
G1 X140.483 Y182.464 E12.54184
G1 X140.505 Y180.34 E12.61602
G1 X140.696 Y179.083 E12.66043
G1 X140.534 Y178.279 E12.68907
G1 X140.492 Y177.792 E12.70614
G1 X140.536 Y175.245 E12.7951
G1 X140.572 Y174.973 E12.80468
G1 X140.483 Y173.959 E12.84023
G1 X140.505 Y172.087 E12.90561
G1 X140.696 Y170.829 E12.95005
G1 X140.534 Y170.035 E12.97835
G1 X140.492 Y169.551 E12.99532
G1 X140.511 Y167.029 E13.0834
G1 X140.71 Y165.789 E13.12725
G1 X141.062 Y164.687 E13.16765
G1 X141.25 Y164.258 E13.18401
G1 X141.624 Y163.591 E13.21072
G1 X142.433 Y162.509 E13.2579
G1 X142.861 Y162.077 E13.27914
G0 F7200 X143.145 Y162.359
G1 F2700 X143.686 Y161.915 E13.30358
G1 X144.432 Y161.438 E13.3345
G1 X145.317 Y161.005 E13.36891
G1 X145.68 Y160.872 E13.38241
G1 X147.14 Y160.548 E13.43464
G1 X147.631 Y160.506 E13.45185
G1 X149.238 Y160.521 E13.50797
G1 X150.403 Y160.704 E13.54916
G1 X150.814 Y160.833 E13.5642
G1 X150.946 Y160.65 E13.57208
G1 X151.521 Y160.014 E13.60202
G1 X151.991 Y159.603 E13.62383
G1 X152.985 Y158.928 E13.66579
G1 X153.557 Y158.633 E13.68827
G1 X154.58 Y158.257 E13.72633
G1 X154.927 Y158.172 E13.73881
G1 X156.363 Y158.006 E13.78929
G1 X190.264 Y158 E14.97322
G1 X190.806 Y157.979 E14.99216
G1 X192.623 Y158.073 E15.0557
G1 X194.374 Y158.337 E15.11754
G1 X196.341 Y158.83 E15.18836
G1 X197.38 Y159.212 E15.22702
G1 X199.094 Y160.023 E15.29324
G1 X200.468 Y160.861 E15.34945
G1 X202.116 Y162.113 E15.42172
G1 X202.256 Y162.242 E15.42837
G1 X204.462 Y162.282 E15.50543
G1 X205.867 Y162.526 E15.55523
G1 X206.827 Y162.866 E15.59079
G1 X207.564 Y163.251 E15.61983
G1 X208.575 Y163.979 E15.66334
G1 X209.305 Y164.705 E15.6993
G1 X209.683 Y165.193 E15.72085
G1 X210.044 Y165.761 E15.74436
G1 X210.543 Y166.831 E15.78559
G1 X210.752 Y167.475 E15.80923
G1 X210.861 Y167.942 E15.82598
G1 X211 Y169.263 E15.87237
G1 X210.939 Y181.61 E16.30357
G1 X210.845 Y182.131 E16.32206
G1 X210.396 Y183.537 E16.3736
G1 X209.948 Y184.399 E16.40753
G1 X209.295 Y185.317 E16.44687
G1 X208.979 Y185.661 E16.46319
G1 X208.181 Y186.346 E16.49992
G1 X207.652 Y186.695 E16.52205
G1 X206.781 Y187.144 E16.55627
G1 X205.774 Y187.498 E16.59355
G1 X204.859 Y187.69 E16.6262
G1 X204.534 Y187.726 E16.63762
G1 X202.269 Y187.753 E16.71672
G1 X201.805 Y188.149 E16.73803
G1 X200.322 Y189.237 E16.80226
G1 X199.694 Y189.642 E16.82836
G1 X199.265 Y189.887 E16.84561
G1 X198.482 Y190.273 E16.8761
G1 X197.199 Y190.862 E16.9254
G1 X196.099 Y191.242 E16.96604
G1 X193.572 Y191.861 E17.0569
G1 X192.285 Y191.989 E17.10207
G1 X191.834 Y191.975 E17.11783
G1 X190.643 Y192.02 E17.15945
G1 X190.235 Y192 E17.17372
G1 X155.787 Y191.953 E18.37675
G1 X155.349 Y191.899 E18.39216
G1 X154.54 Y191.728 E18.42104
G1 X154.144 Y191.601 E18.43556
G1 X153.122 Y191.146 E18.47463
G1 X152.562 Y190.805 E18.49753
G1 X151.635 Y190.068 E18.53889
G1 X151.021 Y189.414 E18.57022
G1 X150.839 Y189.167 E18.58093
G1 X150.458 Y189.287 E18.59488
G1 X149.946 Y189.394 E18.61315
G1 X148.72 Y189.502 E18.65613
G1 X147.342 Y189.466 E18.70427
G1 X146.159 Y189.261 E18.7462
G1 X145.037 Y188.872 E18.78767
G1 X144.037 Y188.326 E18.82746
G1 X143.259 Y187.741 E18.86146
G1 X142.71 Y187.197 E18.88845
G1 X142.251 Y186.635 E18.91379
G1 X141.923 Y186.13 E18.93482
G1 X141.417 Y185.11 E18.97458
G1 X141.144 Y184.311 E19.00407
G1 X140.983 Y183.564 E19.03076
G1 X140.883 Y182.467 E19.06923
G1 X140.901 Y180.4 E19.14142
G1 X141.087 Y179.168 E19.18493
G1 X141.106 Y179.09 E19.18773
G1 X140.933 Y178.245 E19.21785
G1 X140.891 Y177.758 E19.23492
G1 X140.936 Y175.252 E19.32246
G1 X140.974 Y174.986 E19.33184
G1 X140.883 Y173.963 E19.36771
G1 X140.901 Y172.147 E19.43113
G1 X141.087 Y170.915 E19.47464
G1 X141.107 Y170.836 E19.47749
G1 X140.933 Y170 E19.50731
G1 X140.891 Y169.516 E19.52428
G1 X140.906 Y167.091 E19.60897
G1 X141.091 Y165.911 E19.65068
G1 X141.443 Y164.809 E19.69108
G1 X141.6 Y164.452 E19.7047
G1 X141.945 Y163.83 E19.72954
G1 X142.717 Y162.791 E19.77475
G1 X143.145 Y162.359 E19.79598
G0 F7200 X143.429 Y162.641
G1 F2700 X143.903 Y162.251 E19.81742
G1 X144.608 Y161.797 E19.8467
G1 X145.455 Y161.381 E19.87966
G1 X145.818 Y161.248 E19.89316
G1 X147.174 Y160.947 E19.94167
G1 X147.665 Y160.905 E19.95888
G1 X149.234 Y160.921 E20.01368
G1 X150.283 Y161.086 E20.05076
G1 X150.97 Y161.302 E20.07591
G1 X151.271 Y160.884 E20.0939
G1 X151.786 Y160.314 E20.12073
G1 X152.216 Y159.934 E20.14077
G1 X153.21 Y159.259 E20.18273
G1 X153.696 Y159.008 E20.20183
G1 X154.675 Y158.646 E20.23828
G1 X155.022 Y158.561 E20.25076
G1 X156.363 Y158.406 E20.2979
G1 X190.279 Y158.4 E21.48236
G1 X190.821 Y158.379 E21.5013
G1 X192.563 Y158.469 E21.56222
G1 X194.314 Y158.733 E21.62406
G1 X196.244 Y159.218 E21.69356
G1 X197.209 Y159.574 E21.72948
G1 X198.923 Y160.385 E21.7957
G1 X200.226 Y161.18 E21.849
G1 X201.874 Y162.432 E21.92128
G1 X202.095 Y162.64 E21.93188
G1 X204.395 Y162.676 E22.01221
G1 X205.733 Y162.903 E22.05961
G1 X206.693 Y163.243 E22.09518
G1 X207.33 Y163.576 E22.12028
G1 X208.341 Y164.304 E22.16379
G1 X209.022 Y164.987 E22.19747
G1 X209.345 Y165.408 E22.216
G1 X209.706 Y165.976 E22.2395
G1 X210.163 Y166.955 E22.27724
G1 X210.362 Y167.566 E22.29968
G1 X210.471 Y168.033 E22.31642
G1 X210.6 Y169.261 E22.35955
G1 X210.539 Y181.608 E22.79075
G1 X210.464 Y182.011 E22.80506
G1 X210.04 Y183.354 E22.85425
G1 X209.621 Y184.168 E22.88622
G1 X209 Y185.046 E22.92378
G1 X208.684 Y185.39 E22.94009
G1 X207.959 Y186.013 E22.97347
G1 X207.469 Y186.339 E22.99403
G1 X206.598 Y186.788 E23.02825
G1 X205.691 Y187.107 E23.06183
G1 X204.815 Y187.292 E23.09309
G1 X204.49 Y187.328 E23.10451
G1 X202.107 Y187.355 E23.18774
G1 X202.022 Y187.438 E23.19189
G1 X201.568 Y187.826 E23.21274
G1 X200.085 Y188.914 E23.27698
G1 X199.477 Y189.306 E23.30224
G1 X199.088 Y189.528 E23.31788
G1 X198.315 Y189.909 E23.34798
G1 X197.032 Y190.498 E23.39728
G1 X196.004 Y190.853 E23.43527
G1 X193.477 Y191.472 E23.52612
G1 X192.298 Y191.589 E23.5675
G1 X191.831 Y191.574 E23.58382
G1 X190.663 Y191.62 E23.62464
G1 X190.255 Y191.6 E23.63891
G1 X155.835 Y191.556 E24.84096
G1 X155.431 Y191.507 E24.85517
G1 X154.66 Y191.346 E24.88268
G1 X154.306 Y191.235 E24.89564
G1 X153.33 Y190.804 E24.9329
G1 X152.77 Y190.463 E24.9558
G1 X151.927 Y189.794 E24.99338
G1 X151.313 Y189.14 E25.02471
G1 X150.993 Y188.698 E25.04376
G1 X150.376 Y188.895 E25.06638
G1 X149.864 Y189.002 E25.08465
G1 X148.73 Y189.102 E25.12441
G1 X147.352 Y189.066 E25.17255
G1 X146.288 Y188.882 E25.21026
G1 X145.227 Y188.52 E25.24941
G1 X144.276 Y188.005 E25.28718
G1 X143.54 Y187.456 E25.31924
G1 X143.02 Y186.944 E25.34473
G1 X142.561 Y186.382 E25.37007
G1 X142.281 Y185.951 E25.38802
G1 X141.795 Y184.979 E25.42597
G1 X141.535 Y184.227 E25.45376
G1 X141.374 Y183.48 E25.48045
G1 X141.283 Y182.47 E25.51586
G1 X141.297 Y180.46 E25.58606
G1 X141.483 Y179.228 E25.62957
G1 X141.518 Y179.102 E25.63414
G1 X141.332 Y178.211 E25.66593
G1 X141.29 Y177.724 E25.683
G1 X141.336 Y175.259 E25.7691
G1 X141.377 Y175.001 E25.77822
G1 X141.283 Y173.966 E25.81451
G1 X141.297 Y172.207 E25.87595
G1 X141.483 Y170.975 E25.91946
G1 X141.518 Y170.849 E25.92403
G1 X141.332 Y169.965 E25.95557
G1 X141.29 Y169.481 E25.97254
G1 X141.306 Y167.094 E26.0559
G1 X141.472 Y166.032 E26.09344
G1 X141.81 Y164.968 E26.13243
G1 X141.95 Y164.646 E26.14469
G1 X142.295 Y164.024 E26.16953
G1 X143.001 Y163.073 E26.2109
G1 X143.429 Y162.641 E26.23213
G0 F7200 X143.685 Y162.949
G1 F2700 X144.121 Y162.587 E26.25192
G1 X144.785 Y162.156 E26.27957
G1 X145.593 Y161.757 E26.31104
G1 X145.956 Y161.624 E26.32454
G1 X147.208 Y161.346 E26.36933
G1 X147.699 Y161.304 E26.38654
G1 X149.23 Y161.321 E26.44001
G1 X150.163 Y161.468 E26.473
G1 X151.137 Y161.774 E26.50865
G1 X151.196 Y161.674 E26.51271
G1 X151.569 Y161.151 E26.53514
G1 X152.053 Y160.612 E26.56044
G1 X152.441 Y160.265 E26.57862
G1 X153.435 Y159.59 E26.62058
G1 X153.878 Y159.364 E26.63795
G1 X154.77 Y159.035 E26.67115
G1 X155.117 Y158.95 E26.68362
G1 X156.363 Y158.806 E26.72743
G1 X190.294 Y158.8 E27.91241
G1 X190.836 Y158.779 E27.93135
G1 X192.503 Y158.865 E27.98964
G1 X194.254 Y159.129 E28.05148
G1 X196.106 Y159.594 E28.11817
G1 X197.038 Y159.936 E28.15284
G1 X198.752 Y160.747 E28.21906
G1 X199.984 Y161.499 E28.26947
G1 X201.632 Y162.751 E28.34175
G1 X201.933 Y163.038 E28.35627
G1 X204.33 Y163.071 E28.43999
G1 X205.601 Y163.281 E28.48498
G1 X206.51 Y163.599 E28.51861
G1 X207.098 Y163.902 E28.54171
G1 X208.059 Y164.588 E28.58295
G1 X208.705 Y165.231 E28.61478
G1 X209.007 Y165.623 E28.63206
G1 X209.368 Y166.191 E28.65556
G1 X209.783 Y167.079 E28.68979
G1 X209.972 Y167.657 E28.71103
G1 X210.081 Y168.124 E28.72778
G1 X210.2 Y169.259 E28.76763
G1 X210.145 Y181.538 E29.19646
G1 X210.082 Y181.892 E29.20902
G1 X209.684 Y183.171 E29.2558
G1 X209.265 Y183.985 E29.28777
G1 X208.705 Y184.775 E29.32159
G1 X208.389 Y185.119 E29.3379
G1 X207.699 Y185.709 E29.3696
G1 X207.286 Y185.983 E29.38691
G1 X206.415 Y186.432 E29.42113
G1 X205.608 Y186.716 E29.45101
G1 X204.771 Y186.894 E29.4809
G1 X204.446 Y186.93 E29.49232
G1 X201.942 Y186.957 E29.57977
G1 X201.762 Y187.134 E29.58858
G1 X201.331 Y187.503 E29.6084
G1 X199.848 Y188.591 E29.67263
G1 X199.26 Y188.97 E29.69706
G1 X198.911 Y189.169 E29.71109
G1 X198.148 Y189.545 E29.7408
G1 X196.865 Y190.134 E29.7901
G1 X195.909 Y190.464 E29.82542
G1 X193.382 Y191.083 E29.91628
G1 X192.31 Y191.189 E29.9539
G1 X191.827 Y191.174 E29.97078
G1 X190.683 Y191.22 E30.01076
G1 X190.275 Y191.2 E30.02503
G1 X155.882 Y191.159 E31.22614
G1 X155.512 Y191.115 E31.23915
G1 X154.78 Y190.964 E31.26526
G1 X154.426 Y190.853 E31.27821
G1 X153.538 Y190.462 E31.3121
