;FLAVOR:Marlin
;TIME:16953
;Filament used: 15.1989m
;Layer height: 0.2
;MINX:151.881
;MINY:32.125
;MINZ:0.2
;MAXX:198.119
;MAXY:317.875
;MAXZ:13.4
;TARGET_MACHINE.NAME:VORON2 350
;POSTPROCESSED
;  [CreateThumbnail]
;  [CreateThumbnail]
;  [InsertAtLayerChange]
;Generated with Cura_SteamEngine 5.10.1
;
;

;
;

;Nozzle diameter = 0.4
;Filament type = ASA
;Filament name = ASA White
;Filament weight = [39.116679648437504]; M190 S90
; M109 S260


; Pre-Processed for Cancel-Object support by preprocess_cancellation v0.2.0
; 1 known objects
EXCLUDE_OBJECT_DEFINE NAME=Fence_Bracket_v2_stl CENTER=175.014,174.561 POLYGON=[[159.948,40.2],[159.948,309.8],[190.048,309.8],[190.048,40.2]]
PRINT_START BED_TEMP=90 EXTRUDER_TEMP=260
M82 ;absolute extrusion mode
M141 S10
G92 E0
G92 E0
G1 F1800 E-1
;LAYER_COUNT:67
;LAYER:0
TIMELAPSE_TAKE_FRAME
M107
G0 F7200 X152.091 Y38.246 Z0.2
;TYPE:SKIRT
G1 F720 E0
G1 F1800 X152.273 Y37.593 E0.0241
G1 X152.608 Y36.745 E0.05651
G1 X153.287 Y35.543 E0.10558
G1 X153.858 Y34.812 E0.13855
G1 X154.594 Y34.075 E0.17558
G1 X155.352 Y33.488 E0.20966
G1 X156.354 Y32.918 E0.25063
G1 X157.373 Y32.513 E0.28961
G1 X158.375 Y32.256 E0.32638
G1 X158.959 Y32.173 E0.34735
G1 X190.247 Y32.125 E1.45954
G1 X191.771 Y32.294 E1.51405
G1 X192.567 Y32.493 E1.54321
G1 X193.351 Y32.789 E1.573
G1 X194.626 Y33.484 E1.62462
G1 X195.427 Y34.1 E1.66054
G1 X196.179 Y34.85 E1.69829
G1 X196.802 Y35.66 E1.73461
G1 X197.279 Y36.493 E1.76874
G1 X197.737 Y37.623 E1.81208
G1 X197.994 Y38.625 E1.84885
G1 X198.077 Y39.209 E1.86982
G1 X198.119 Y310.112 E11.49954
G1 X197.906 Y311.767 E11.55886
G1 X197.71 Y312.449 E11.58408
G1 X197.274 Y313.503 E11.62463
G1 X196.666 Y314.525 E11.6669
G1 X196.042 Y315.301 E11.7023
G1 X195.378 Y315.951 E11.73533
G1 X194.395 Y316.677 E11.77876
G1 X193.708 Y317.048 E11.80652
G1 X192.553 Y317.504 E11.85066
G1 X191.285 Y317.788 E11.89685
G1 X190.247 Y317.875 E11.93388
G1 X159.005 Y317.821 E13.04443
G1 X158.139 Y317.686 E13.07559
G1 X157.3 Y317.464 E13.10644
G1 X156.609 Y317.196 E13.13278
G1 X155.353 Y316.502 E13.18379
G1 X154.521 Y315.855 E13.22125
G1 X153.825 Y315.156 E13.25632
G1 X153.238 Y314.398 E13.2904
G1 X152.668 Y313.396 E13.33138
G1 X152.263 Y312.377 E13.37035
G1 X152.006 Y311.375 E13.40712
G1 X151.923 Y310.791 E13.42809
G1 X151.881 Y39.888 E23.05782
G1 X152.091 Y38.246 E23.11666
G0 F7200 X152.525 Y38.365
G1 F1800 X152.692 Y37.758 E23.13904
G1 X153.027 Y36.91 E23.17145
G1 X153.642 Y35.82 E23.21594
G1 X154.213 Y35.089 E23.24891
G1 X154.87 Y34.431 E23.28196
G1 X155.628 Y33.844 E23.31604
G1 X156.522 Y33.336 E23.35259
G1 X157.486 Y32.949 E23.38952
G1 X158.438 Y32.702 E23.42448
G1 X159.022 Y32.619 E23.44545
G1 X190.248 Y32.575 E24.55543
G1 X191.721 Y32.741 E24.60813
G1 X192.41 Y32.915 E24.63339
G1 X193.137 Y33.185 E24.66095
G1 X194.353 Y33.842 E24.71008
G1 X195.11 Y34.42 E24.74394
G1 X195.823 Y35.126 E24.77961
G1 X196.411 Y35.884 E24.81371
G1 X196.888 Y36.717 E24.84783
G1 X197.301 Y37.736 E24.88691
G1 X197.548 Y38.688 E24.92188
G1 X197.631 Y39.272 E24.94284
G1 X197.669 Y310.112 E34.57033
G1 X197.473 Y311.644 E34.62523
G1 X197.293 Y312.279 E34.64869
G1 X196.886 Y313.274 E34.68691
G1 X196.314 Y314.244 E34.72694
G1 X195.727 Y314.979 E34.76037
G1 X195.063 Y315.629 E34.7934
G1 X194.179 Y316.282 E34.83247
G1 X193.543 Y316.629 E34.85822
G1 X192.388 Y317.085 E34.90236
G1 X191.247 Y317.34 E34.94392
G1 X190.248 Y317.425 E34.97956
G1 X159.074 Y317.376 E36.0877
G1 X158.208 Y317.241 E36.11885
G1 X157.463 Y317.044 E36.14625
G1 X156.772 Y316.776 E36.17259
G1 X155.628 Y316.146 E36.21902
G1 X154.839 Y315.537 E36.25445
G1 X154.181 Y314.88 E36.2875
G1 X153.594 Y314.122 E36.32158
G1 X153.086 Y313.228 E36.35813
G1 X152.699 Y312.264 E36.39505
G1 X152.452 Y311.312 E36.43001
G1 X152.369 Y310.728 E36.45098
G1 X152.331 Y39.888 E46.07847
G1 X152.525 Y38.365 E46.13304
G0 F7200 X152.959 Y38.483
G1 F1800 X153.111 Y37.922 E46.15371
G1 X153.42 Y37.13 E46.18393
G1 X153.998 Y36.096 E46.22603
G1 X154.533 Y35.406 E46.25707
G1 X155.146 Y34.787 E46.28804
G1 X155.904 Y34.2 E46.32212
G1 X156.691 Y33.753 E46.35429
G1 X157.6 Y33.384 E46.38916
G1 X158.501 Y33.148 E46.42227
G1 X159.085 Y33.065 E46.44324
G1 X190.249 Y33.025 E47.55102
G1 X191.613 Y33.178 E47.59981
G1 X192.253 Y33.337 E47.62325
G1 X192.98 Y33.607 E47.65082
G1 X194.081 Y34.201 E47.69529
G1 X194.793 Y34.74 E47.72703
G1 X195.506 Y35.446 E47.7627
G1 X196.02 Y36.108 E47.79249
G1 X196.497 Y36.941 E47.82661
G1 X196.866 Y37.85 E47.86148
G1 X197.102 Y38.751 E47.89459
G1 X197.185 Y39.335 E47.91556
G1 X197.219 Y310.112 E57.54081
G1 X197.027 Y311.586 E57.59365
G1 X196.876 Y312.11 E57.61303
G1 X196.498 Y313.045 E57.64888
G1 X195.926 Y314.015 E57.68891
G1 X195.412 Y314.657 E57.71814
G1 X194.748 Y315.307 E57.75117
G1 X193.913 Y315.919 E57.78797
G1 X193.378 Y316.21 E57.80962
G1 X192.223 Y316.666 E57.85376
G1 X191.208 Y316.892 E57.89073
G1 X190.249 Y316.975 E57.92494
G1 X159.143 Y316.931 E59.03066
G1 X158.277 Y316.796 E59.06182
G1 X157.626 Y316.624 E59.08575
G1 X156.935 Y316.356 E59.1121
G1 X155.902 Y315.789 E59.15399
G1 X155.156 Y315.217 E59.1874
G1 X154.537 Y314.604 E59.21837
G1 X153.95 Y313.846 E59.25245
G1 X153.503 Y313.059 E59.28462
G1 X153.134 Y312.15 E59.31949
G1 X152.898 Y311.249 E59.3526
G1 X152.815 Y310.665 E59.37357
G1 X152.781 Y39.888 E68.99882
G1 X152.959 Y38.483 E69.04916
G0 F7200 X153.394 Y38.599
G1 F1800 X153.531 Y38.084 E69.0681
G1 X153.814 Y37.348 E69.09613
G1 X154.355 Y36.37 E69.13586
G1 X154.853 Y35.723 E69.16488
G1 X155.466 Y35.104 E69.19585
G1 X156.128 Y34.59 E69.22564
G1 X156.86 Y34.17 E69.25564
G1 X157.769 Y33.801 E69.29052
G1 X158.564 Y33.594 E69.31972
G1 X159.148 Y33.511 E69.34069
G1 X190.25 Y33.475 E70.44626
G1 X191.562 Y33.625 E70.4932
G1 X192.099 Y33.76 E70.51289
G1 X192.766 Y34.003 E70.53812
G1 X193.867 Y34.597 E70.58259
G1 X194.476 Y35.06 E70.60978
G1 X195.189 Y35.766 E70.64545
G1 X195.663 Y36.382 E70.67308
G1 X196.08 Y37.11 E70.7029
G1 X196.449 Y38.019 E70.73778
G1 X196.656 Y38.814 E70.76698
G1 X196.739 Y39.398 E70.78795
G1 X196.769 Y310.112 E80.41095
G1 X196.594 Y311.463 E80.45938
G1 X196.458 Y311.943 E80.47711
G1 X196.109 Y312.818 E80.5106
G1 X195.573 Y313.735 E80.54835
G1 X195.097 Y314.335 E80.57558
G1 X194.433 Y314.985 E80.60861
G1 X193.696 Y315.525 E80.64109
G1 X193.213 Y315.791 E80.66069
G1 X192.058 Y316.247 E80.70483
G1 X191.168 Y316.444 E80.73723
G1 X190.25 Y316.525 E80.76999
G1 X159.212 Y316.486 E81.87329
G1 X158.346 Y316.351 E81.90445
G1 X157.789 Y316.204 E81.92492
G1 X157.098 Y315.936 E81.95127
G1 X156.12 Y315.395 E81.991
G1 X155.473 Y314.897 E82.02002
G1 X154.854 Y314.284 E82.05099
G1 X154.34 Y313.622 E82.08078
G1 X153.92 Y312.89 E82.11078
G1 X153.551 Y311.981 E82.14565
G1 X153.344 Y311.186 E82.17485
G1 X153.261 Y310.602 E82.19582
G1 X153.231 Y39.888 E91.81883
G1 X153.394 Y38.599 E91.86501
G0 F7200 X153.829 Y38.715
G1 F1800 X153.966 Y38.2 E91.88396
G1 X154.209 Y37.564 E91.90816
G1 X154.713 Y36.643 E91.94548
G1 X155.173 Y36.04 E91.97244
G1 X155.786 Y35.421 E92.00341
G1 X156.402 Y34.947 E92.03104
G1 X157.031 Y34.586 E92.05682
G1 X157.884 Y34.236 E92.08959
G1 X158.627 Y34.04 E92.1169
G1 X159.211 Y33.957 E92.13787
G1 X190.25 Y33.925 E93.24121
G1 X191.454 Y34.062 E93.28428
G1 X191.945 Y34.183 E93.30226
G1 X192.612 Y34.426 E93.32749
G1 X193.596 Y34.956 E93.36722
G1 X194.159 Y35.38 E93.39228
G1 X194.872 Y36.086 E93.42794
G1 X195.305 Y36.655 E93.45336
G1 X195.664 Y37.281 E93.47901
G1 X196.014 Y38.134 E93.51179
G1 X196.21 Y38.877 E93.5391
G1 X196.293 Y39.461 E93.56007
G1 X196.319 Y310.112 E103.18084
G1 X196.16 Y311.343 E103.22496
G1 X196.039 Y311.779 E103.24104
G1 X195.72 Y312.592 E103.27209
G1 X195.22 Y313.455 E103.30754
G1 X194.744 Y314.055 E103.33477
G1 X194.166 Y314.623 E103.36357
G1 X193.476 Y315.132 E103.39405
G1 X193.046 Y315.373 E103.41157
G1 X191.959 Y315.808 E103.45319
G1 X191.128 Y315.996 E103.48348
G1 X190.25 Y316.075 E103.51481
G1 X159.281 Y316.041 E104.61566
G1 X158.415 Y315.906 E104.64682
G1 X157.95 Y315.784 E104.66391
G1 X157.314 Y315.541 E104.68811
G1 X156.393 Y315.037 E104.72543
G1 X155.79 Y314.577 E104.75239
G1 X155.171 Y313.964 E104.78335
G1 X154.697 Y313.348 E104.81098
G1 X154.336 Y312.719 E104.83676
G1 X153.986 Y311.866 E104.86954
G1 X153.79 Y311.123 E104.89685
G1 X153.707 Y310.539 E104.91782
G1 X153.681 Y39.888 E114.53859
G1 X153.829 Y38.715 E114.58062
G0 F7200 X154.275 Y38.773
G1 F1800 X154.387 Y38.358 E114.5959
G1 X154.604 Y37.78 E114.61784
G1 X155.108 Y36.859 E114.65516
G1 X155.493 Y36.357 E114.67765
G1 X156.106 Y35.738 E114.70862
G1 X156.675 Y35.305 E114.73403
G1 X157.204 Y35.002 E114.7557
G1 X158.001 Y34.671 E114.78638
G1 X158.69 Y34.486 E114.81174
G1 X159.274 Y34.403 E114.83271
G1 X190.25 Y34.375 E115.93381
G1 X191.346 Y34.499 E115.97301
G1 X191.837 Y34.62 E115.99099
G1 X192.4 Y34.823 E116.01226
G1 X193.327 Y35.317 E116.0496
G1 X193.842 Y35.7 E116.07242
G1 X194.555 Y36.406 E116.10808
G1 X194.945 Y36.925 E116.13116
G1 X195.248 Y37.454 E116.15283
G1 X195.579 Y38.251 E116.18351
G1 X195.764 Y38.94 E116.20887
G1 X195.847 Y39.524 E116.22984
G1 X195.869 Y310.112 E125.84836
G1 X195.726 Y311.225 E125.88825
G1 X195.619 Y311.617 E125.9027
G1 X195.329 Y312.368 E125.93131
G1 X194.867 Y313.175 E125.96437
G1 X194.391 Y313.775 E125.99159
G1 X193.897 Y314.262 E126.01625
G1 X193.256 Y314.739 E126.04465
G1 X192.826 Y314.98 E126.06218
G1 X191.86 Y315.369 E126.09919
G1 X191.029 Y315.557 E126.12948
G1 X190.25 Y315.625 E126.15728
G1 X159.35 Y315.596 E127.25567
G1 X158.484 Y315.461 E127.28683
G1 X158.108 Y315.363 E127.30064
G1 X157.53 Y315.146 E127.32259
G1 X156.609 Y314.642 E127.35991
G1 X156.107 Y314.257 E127.38239
G1 X155.488 Y313.644 E127.41336
G1 X155.055 Y313.075 E127.43878
G1 X154.752 Y312.546 E127.46045
G1 X154.421 Y311.749 E127.49112
G1 X154.236 Y311.06 E127.51648
G1 X154.153 Y310.476 E127.53745
G1 X154.131 Y39.888 E137.15598
G1 X154.275 Y38.773 E137.19594
G0 F7200 X154.71 Y38.889
G1 F1800 X154.81 Y38.513 E137.20977
G1 X155 Y37.994 E137.22942
G1 X155.467 Y37.131 E137.2643
G1 X155.813 Y36.674 E137.28468
G1 X156.426 Y36.055 E137.31564
G1 X156.945 Y35.665 E137.33872
G1 X157.378 Y35.417 E137.35646
G1 X158.118 Y35.106 E137.38499
G1 X158.807 Y34.921 E137.41035
G1 X159.274 Y34.853 E137.42713
G1 X190.25 Y34.825 E138.52822
G1 X191.294 Y34.946 E138.56558
G1 X191.688 Y35.045 E138.58002
G1 X192.19 Y35.221 E138.59893
G1 X193.058 Y35.678 E138.6338
G1 X193.573 Y36.061 E138.65662
G1 X194.195 Y36.676 E138.68771
G1 X194.585 Y37.195 E138.71079
G1 X194.833 Y37.628 E138.72852
G1 X195.144 Y38.368 E138.75706
G1 X195.329 Y39.057 E138.78242
G1 X195.397 Y39.524 E138.79919
G1 X195.419 Y310.112 E148.41772
G1 X195.291 Y311.109 E148.45345
G1 X195.199 Y311.455 E148.46618
G1 X194.909 Y312.206 E148.4948
G1 X194.513 Y312.897 E148.52311
G1 X194.073 Y313.456 E148.54839
G1 X193.626 Y313.902 E148.57084
G1 X193.036 Y314.346 E148.59709
G1 X192.606 Y314.587 E148.61461
G1 X191.759 Y314.931 E148.64711
G1 X190.989 Y315.109 E148.6752
G1 X190.25 Y315.175 E148.70157
G1 X159.419 Y315.151 E149.79752
G1 X158.553 Y315.016 E149.82867
G1 X158.263 Y314.94 E149.83933
G1 X157.744 Y314.75 E149.85897
G1 X156.881 Y314.283 E149.89385
G1 X156.424 Y313.937 E149.91423
G1 X155.805 Y313.324 E149.9452
G1 X155.415 Y312.805 E149.96827
G1 X155.167 Y312.372 E149.98601
G1 X154.856 Y311.632 E150.01454
G1 X154.671 Y310.943 E150.0399
G1 X154.603 Y310.476 E150.05668
G1 X154.581 Y39.888 E159.67521
G1 X154.71 Y38.889 E159.71101
G0 F7200 X155.145 Y39.003
G1 F1800 X155.233 Y38.668 E159.72333
G1 X155.423 Y38.149 E159.74297
G1 X155.826 Y37.403 E159.77311
G1 X156.172 Y36.946 E159.79349
G1 X156.698 Y36.413 E159.82011
G1 X157.171 Y36.054 E159.84122
G1 X157.554 Y35.831 E159.85697
G1 X158.235 Y35.541 E159.88328
G1 X158.924 Y35.356 E159.90864
G1 X159.274 Y35.303 E159.92122
G1 X190.25 Y35.275 E161.02232
G1 X191.186 Y35.383 E161.05581
G1 X191.539 Y35.47 E161.06874
G1 X192.041 Y35.646 E161.08765
G1 X192.789 Y36.039 E161.11768
G1 X193.304 Y36.422 E161.1405
G1 X193.837 Y36.948 E161.16711
G1 X194.196 Y37.421 E161.18822
G1 X194.419 Y37.804 E161.20398
G1 X194.709 Y38.485 E161.23029
G1 X194.894 Y39.174 E161.25565
G1 X194.947 Y39.524 E161.26823
G1 X194.969 Y310.112 E170.88676
G1 X194.855 Y310.997 E170.91848
G1 X194.778 Y311.296 E170.92945
G1 X194.517 Y311.985 E170.95564
G1 X194.158 Y312.62 E170.98157
G1 X193.755 Y313.137 E171.00487
G1 X193.308 Y313.583 E171.02732
G1 X192.813 Y313.955 E171.04933
G1 X192.434 Y314.171 E171.06484
G1 X191.655 Y314.493 E171.0948
G1 X190.948 Y314.661 E171.12063
G1 X190.25 Y314.725 E171.14555
G1 X159.488 Y314.706 E172.23904
G1 X158.622 Y314.571 E172.27019
G1 X158.418 Y314.517 E172.27769
G1 X157.899 Y314.327 E172.29734
G1 X157.153 Y313.924 E172.32748
G1 X156.696 Y313.578 E172.34786
G1 X156.163 Y313.052 E172.37447
G1 X155.804 Y312.579 E172.39558
G1 X155.581 Y312.196 E172.41134
G1 X155.291 Y311.515 E172.43765
G1 X155.106 Y310.826 E172.46301
G1 X155.053 Y310.476 E172.47559
G1 X155.031 Y39.888 E182.09412
G1 X155.145 Y39.003 E182.12584
G0 F7200 X155.581 Y39.115
G1 F1800 X155.657 Y38.819 E182.1367
G1 X155.82 Y38.36 E182.15402
G1 X156.186 Y37.672 E182.18172
G1 X156.494 Y37.26 E182.2
G1 X156.972 Y36.77 E182.22433
G1 X157.401 Y36.441 E182.24355
G1 X157.733 Y36.244 E182.25728
G1 X158.352 Y35.976 E182.28125
G1 X159.041 Y35.791 E182.30661
G1 X159.337 Y35.749 E182.31724
G1 X190.25 Y35.725 E183.4161
G1 X191.078 Y35.82 E183.44572
G1 X191.431 Y35.907 E183.45865
G1 X191.89 Y36.07 E183.47596
G1 X192.578 Y36.436 E183.50366
G1 X192.99 Y36.744 E183.52195
G1 X193.48 Y37.222 E183.54628
G1 X193.809 Y37.651 E183.5655
G1 X194.006 Y37.983 E183.57922
G1 X194.274 Y38.602 E183.6032
G1 X194.459 Y39.291 E183.62856
G1 X194.501 Y39.587 E183.63918
G1 X194.519 Y310.112 E193.25547
G1 X194.419 Y310.885 E193.28318
G1 X194.342 Y311.184 E193.29416
G1 X194.124 Y311.766 E193.31625
G1 X193.802 Y312.345 E193.3398
G1 X193.437 Y312.818 E193.36104
G1 X192.99 Y313.264 E193.38348
G1 X192.587 Y313.566 E193.40138
G1 X192.259 Y313.756 E193.41486
G1 X191.551 Y314.055 E193.44218
G1 X190.844 Y314.223 E193.46801
G1 X190.25 Y314.275 E193.4892
G1 X159.557 Y314.261 E194.58024
G1 X158.691 Y314.126 E194.6114
G1 X158.569 Y314.093 E194.61589
G1 X158.11 Y313.93 E194.6332
G1 X157.422 Y313.564 E194.6609
G1 X157.01 Y313.256 E194.67919
G1 X156.52 Y312.778 E194.70352
G1 X156.191 Y312.349 E194.72274
G1 X155.994 Y312.017 E194.73646
G1 X155.726 Y311.398 E194.76044
G1 X155.541 Y310.709 E194.7858
G1 X155.499 Y310.413 E194.79643
G1 X155.481 Y39.888 E204.41272
G1 X155.581 Y39.115 E204.44042
G0 F7200 X156.017 Y39.225
G1 F1800 X156.081 Y38.97 E204.44977
G1 X156.244 Y38.511 E204.46708
G1 X156.548 Y37.939 E204.49011
G1 X156.818 Y37.572 E204.5063
G1 X157.248 Y37.126 E204.52833
G1 X157.635 Y36.826 E204.54573
G1 X157.915 Y36.656 E204.55738
G1 X158.471 Y36.41 E204.57899
G1 X159.104 Y36.237 E204.60231
G1 X159.4 Y36.195 E204.61294
G1 X190.25 Y36.175 E205.70956
G1 X191.025 Y36.267 E205.7373
G1 X191.28 Y36.331 E205.74665
G1 X191.739 Y36.494 E205.76396
G1 X192.311 Y36.798 E205.78699
G1 X192.678 Y37.068 E205.80318
G1 X193.124 Y37.498 E205.82521
G1 X193.424 Y37.885 E205.84261
G1 X193.594 Y38.165 E205.85426
G1 X193.84 Y38.721 E205.87587
G1 X194.013 Y39.354 E205.89919
G1 X194.055 Y39.65 E205.90982
G1 X194.069 Y310.112 E215.52387
G1 X193.983 Y310.775 E215.54764
G1 X193.919 Y311.03 E215.55698
G1 X193.729 Y311.55 E215.57666
G1 X193.444 Y312.072 E215.5978
G1 X193.119 Y312.499 E215.61688
G1 X192.672 Y312.945 E215.63932
G1 X192.357 Y313.179 E215.65327
G1 X192.081 Y313.343 E215.66468
G1 X191.444 Y313.618 E215.68935
G1 X190.803 Y313.775 E215.71281
G1 X190.25 Y313.825 E215.73254
G1 X159.625 Y313.816 E216.82116
G1 X158.8 Y313.689 E216.85084
G1 X158.72 Y313.669 E216.85377
G1 X158.261 Y313.506 E216.87108
G1 X157.689 Y313.202 E216.89411
G1 X157.322 Y312.932 E216.9103
G1 X156.876 Y312.502 E216.93232
G1 X156.576 Y312.115 E216.94973
G1 X156.406 Y311.835 E216.96137
G1 X156.16 Y311.279 E216.98299
G1 X155.987 Y310.646 E217.00631
G1 X155.945 Y310.35 E217.01694
G1 X155.931 Y39.888 E226.63099
G1 X156.017 Y39.225 E226.65476
G0 F7200 X156.455 Y39.33
G1 F1800 X156.505 Y39.121 E226.66239
G1 X156.668 Y38.662 E226.67971
