;FLAVOR:Marlin
;TIME:26508
;Filament used: 28.1745m
;Layer height: 0.2
;MINX:155.463
;MINY:32.125
;MINZ:0.2
;MAXX:194.537
;MAXY:317.875
;MAXZ:21
;TARGET_MACHINE.NAME:VORON2 350
;POSTPROCESSED
;  [CreateThumbnail]
;  [CreateThumbnail]
;  [InsertAtLayerChange]
;Generated with Cura_SteamEngine 5.10.1
;
;

;
;

;Nozzle diameter = 0.4
;Filament type = ASA
;Filament name = ASA White
;Filament weight = [72.51144234375]; M190 S90
; M109 S260


; Pre-Processed for Cancel-Object support by preprocess_cancellation v0.2.0
; 1 known objects
EXCLUDE_OBJECT_DEFINE NAME=Fence_Insert_stl CENTER=175.009,174.945 POLYGON=[[162.948,40.2],[162.948,309.8],[187.048,309.8],[187.048,40.2]]
PRINT_START BED_TEMP=90 EXTRUDER_TEMP=260
M82 ;absolute extrusion mode
M141 S10
G92 E0
G92 E0
G1 F1800 E-1
;LAYER_COUNT:105
;LAYER:0
TIMELAPSE_TAKE_FRAME
M107
G0 F7200 X155.673 Y38.246 Z0.2
;TYPE:SKIRT
G1 F720 E0
G1 F1800 X155.855 Y37.593 E0.0241
G1 X156.19 Y36.745 E0.05651
G1 X156.869 Y35.543 E0.10558
G1 X157.44 Y34.812 E0.13855
G1 X158.176 Y34.075 E0.17558
G1 X158.934 Y33.488 E0.20966
G1 X159.826 Y32.972 E0.24629
G1 X161.009 Y32.495 E0.29163
G1 X161.903 Y32.267 E0.32442
G1 X162.601 Y32.169 E0.34948
G1 X186.662 Y32.125 E1.20477
G1 X188.19 Y32.294 E1.25942
G1 X188.986 Y32.493 E1.28858
G1 X189.77 Y32.789 E1.31837
G1 X191.045 Y33.484 E1.36999
G1 X191.846 Y34.1 E1.40591
G1 X192.598 Y34.85 E1.44366
G1 X193.221 Y35.66 E1.47999
G1 X193.698 Y36.493 E1.51411
G1 X194.156 Y37.623 E1.55745
G1 X194.413 Y38.625 E1.59422
G1 X194.496 Y39.209 E1.61519
G1 X194.537 Y310.112 E11.24492
G1 X194.324 Y311.767 E11.30423
G1 X194.144 Y312.402 E11.32769
G1 X193.688 Y313.506 E11.37015
G1 X193.039 Y314.585 E11.41491
G1 X192.399 Y315.37 E11.45091
G1 X191.952 Y315.816 E11.47336
G1 X190.835 Y316.664 E11.52321
G1 X190.184 Y317.025 E11.54967
G1 X189.127 Y317.46 E11.5903
G1 X188.212 Y317.709 E11.62401
G1 X187.862 Y317.773 E11.63666
G1 X186.663 Y317.875 E11.67943
G1 X162.586 Y317.821 E12.5353
G1 X161.72 Y317.686 E12.56645
G1 X160.881 Y317.464 E12.5973
G1 X160.19 Y317.196 E12.62365
G1 X158.934 Y316.502 E12.67466
G1 X158.102 Y315.855 E12.71212
G1 X157.406 Y315.156 E12.74718
G1 X156.819 Y314.398 E12.78126
G1 X156.249 Y313.396 E12.82224
G1 X155.844 Y312.377 E12.86122
G1 X155.587 Y311.375 E12.89799
G1 X155.504 Y310.791 E12.91896
G1 X155.463 Y39.888 E22.54868
G1 X155.673 Y38.246 E22.60753
G0 F7200 X156.107 Y38.365
G1 F1800 X156.274 Y37.758 E22.62991
G1 X156.609 Y36.91 E22.66232
G1 X157.224 Y35.82 E22.7068
G1 X157.795 Y35.089 E22.73978
G1 X158.452 Y34.431 E22.77283
G1 X159.21 Y33.844 E22.80691
G1 X160.05 Y33.362 E22.84133
G1 X161.121 Y32.931 E22.88237
G1 X161.966 Y32.713 E22.91339
G1 X162.664 Y32.615 E22.93845
G1 X186.663 Y32.575 E23.79154
G1 X188.14 Y32.741 E23.84437
G1 X188.829 Y32.915 E23.86963
G1 X189.556 Y33.185 E23.8972
G1 X190.772 Y33.842 E23.94633
G1 X191.529 Y34.42 E23.98018
G1 X192.242 Y35.126 E24.01585
G1 X192.83 Y35.884 E24.04995
G1 X193.307 Y36.717 E24.08407
G1 X193.72 Y37.736 E24.12316
G1 X193.967 Y38.688 E24.15812
G1 X194.05 Y39.272 E24.17909
G1 X194.087 Y310.112 E33.80657
G1 X193.891 Y311.644 E33.86148
G1 X193.711 Y312.279 E33.88494
G1 X193.302 Y313.275 E33.92321
G1 X192.69 Y314.301 E33.96568
G1 X192.081 Y315.051 E34.00002
G1 X191.634 Y315.497 E34.02246
G1 X190.615 Y316.271 E34.06795
G1 X190.011 Y316.609 E34.09255
G1 X189.008 Y317.026 E34.13117
G1 X188.131 Y317.266 E34.16349
G1 X187.781 Y317.33 E34.17614
G1 X186.664 Y317.425 E34.21598
G1 X162.655 Y317.376 E35.06943
G1 X161.789 Y317.241 E35.10058
G1 X161.044 Y317.044 E35.12798
G1 X160.353 Y316.776 E35.15432
G1 X159.209 Y316.146 E35.20075
G1 X158.42 Y315.537 E35.23618
G1 X157.762 Y314.88 E35.26923
G1 X157.175 Y314.122 E35.30331
G1 X156.667 Y313.228 E35.33986
G1 X156.28 Y312.264 E35.37678
G1 X156.033 Y311.312 E35.41174
G1 X155.95 Y310.728 E35.43271
G1 X155.913 Y39.888 E45.0602
G1 X156.107 Y38.365 E45.11477
G0 F7200 X156.541 Y38.483
G1 F1800 X156.693 Y37.922 E45.13544
G1 X157.002 Y37.13 E45.16566
G1 X157.58 Y36.096 E45.20776
G1 X158.115 Y35.406 E45.2388
G1 X158.728 Y34.787 E45.26977
G1 X159.486 Y34.2 E45.30385
G1 X160.272 Y33.753 E45.33599
G1 X161.234 Y33.366 E45.37285
G1 X162.029 Y33.159 E45.40205
G1 X162.727 Y33.061 E45.4271
G1 X186.664 Y33.025 E46.27799
G1 X188.032 Y33.178 E46.32692
G1 X188.672 Y33.337 E46.35036
G1 X189.399 Y33.607 E46.37793
G1 X190.5 Y34.201 E46.4224
G1 X191.212 Y34.74 E46.45414
G1 X191.925 Y35.446 E46.48981
G1 X192.439 Y36.108 E46.5196
G1 X192.916 Y36.941 E46.55372
G1 X193.285 Y37.85 E46.5886
G1 X193.521 Y38.751 E46.6217
G1 X193.604 Y39.335 E46.64267
G1 X193.637 Y310.112 E56.26792
G1 X193.445 Y311.586 E56.32076
G1 X193.294 Y312.11 E56.34014
G1 X192.915 Y313.046 E56.37604
G1 X192.34 Y314.018 E56.41618
G1 X191.763 Y314.732 E56.44881
G1 X191.316 Y315.178 E56.47126
G1 X190.393 Y315.879 E56.51246
G1 X189.838 Y316.193 E56.53513
G1 X188.835 Y316.61 E56.57374
G1 X188.05 Y316.823 E56.60265
G1 X187.7 Y316.887 E56.6153
G1 X186.665 Y316.975 E56.65222
G1 X162.724 Y316.931 E57.50325
G1 X161.858 Y316.796 E57.53441
G1 X161.207 Y316.624 E57.55834
G1 X160.516 Y316.356 E57.58469
G1 X159.483 Y315.789 E57.62657
G1 X158.737 Y315.217 E57.65999
G1 X158.118 Y314.604 E57.69096
G1 X157.531 Y313.846 E57.72504
G1 X157.084 Y313.059 E57.75721
G1 X156.715 Y312.15 E57.79208
G1 X156.479 Y311.249 E57.82519
G1 X156.396 Y310.665 E57.84616
G1 X156.363 Y39.888 E67.47141
G1 X156.541 Y38.483 E67.52175
G0 F7200 X156.976 Y38.599
G1 F1800 X157.113 Y38.084 E67.54069
G1 X157.396 Y37.348 E67.56872
G1 X157.937 Y36.37 E67.60845
G1 X158.435 Y35.723 E67.63747
G1 X159.048 Y35.104 E67.66844
G1 X159.71 Y34.59 E67.69823
G1 X160.442 Y34.17 E67.72823
G1 X161.349 Y33.801 E67.76304
G1 X162.092 Y33.605 E67.79035
G1 X162.79 Y33.507 E67.81541
G1 X186.665 Y33.475 E68.66409
G1 X187.981 Y33.625 E68.71117
G1 X188.518 Y33.76 E68.73085
G1 X189.185 Y34.003 E68.75609
G1 X190.286 Y34.597 E68.80056
G1 X190.895 Y35.06 E68.82775
G1 X191.608 Y35.766 E68.86342
G1 X192.082 Y36.382 E68.89105
G1 X192.499 Y37.11 E68.92087
G1 X192.868 Y38.019 E68.95574
G1 X193.075 Y38.814 E68.98494
G1 X193.158 Y39.398 E69.00591
G1 X193.187 Y310.112 E78.62892
G1 X193.012 Y311.463 E78.67735
G1 X192.876 Y311.943 E78.69508
G1 X192.527 Y312.818 E78.72857
G1 X191.989 Y313.736 E78.76639
G1 X191.445 Y314.413 E78.79726
G1 X190.998 Y314.859 E78.81971
G1 X190.171 Y315.487 E78.85662
G1 X189.616 Y315.801 E78.87929
G1 X188.716 Y316.176 E78.91394
G1 X187.969 Y316.38 E78.94147
G1 X187.619 Y316.444 E78.95412
G1 X186.666 Y316.525 E78.98812
G1 X162.793 Y316.486 E79.83672
G1 X161.927 Y316.351 E79.86788
G1 X161.37 Y316.204 E79.88836
G1 X160.679 Y315.936 E79.9147
G1 X159.701 Y315.395 E79.95443
G1 X159.054 Y314.897 E79.98345
G1 X158.435 Y314.284 E80.01442
G1 X157.921 Y313.622 E80.04421
G1 X157.501 Y312.89 E80.07421
G1 X157.132 Y311.981 E80.10909
G1 X156.925 Y311.186 E80.13829
G1 X156.842 Y310.602 E80.15926
G1 X156.813 Y39.888 E89.78226
G1 X156.976 Y38.599 E89.82845
G0 F7200 X157.411 Y38.715
G1 F1800 X157.548 Y38.2 E89.84739
G1 X157.791 Y37.564 E89.87159
G1 X158.295 Y36.643 E89.90891
G1 X158.755 Y36.04 E89.93587
G1 X159.368 Y35.421 E89.96684
G1 X159.984 Y34.947 E89.99447
G1 X160.613 Y34.586 E90.02025
G1 X161.466 Y34.236 E90.05302
G1 X162.155 Y34.051 E90.07838
G1 X162.853 Y33.953 E90.10344
G1 X186.666 Y33.925 E90.94991
G1 X187.873 Y34.062 E90.99309
G1 X188.364 Y34.183 E91.01107
G1 X189.031 Y34.426 E91.0363
G1 X190.015 Y34.956 E91.07603
G1 X190.578 Y35.38 E91.10109
G1 X191.291 Y36.086 E91.13675
G1 X191.724 Y36.655 E91.16217
G1 X192.083 Y37.281 E91.18782
G1 X192.433 Y38.134 E91.2206
G1 X192.629 Y38.877 E91.24791
G1 X192.712 Y39.461 E91.26888
G1 X192.737 Y310.112 E100.88965
G1 X192.578 Y311.343 E100.93377
G1 X192.457 Y311.779 E100.94985
G1 X192.138 Y312.592 E100.9809
G1 X191.638 Y313.455 E101.01635
G1 X191.127 Y314.094 E101.04544
G1 X190.68 Y314.54 E101.06788
G1 X189.949 Y315.095 E101.10051
G1 X189.394 Y315.409 E101.12317
G1 X188.597 Y315.742 E101.15388
G1 X187.888 Y315.937 E101.18002
G1 X187.538 Y316.001 E101.19267
G1 X186.667 Y316.075 E101.22374
G1 X162.862 Y316.041 E102.06993
G1 X161.996 Y315.906 E102.10109
G1 X161.531 Y315.784 E102.11817
G1 X160.895 Y315.541 E102.14238
G1 X159.974 Y315.037 E102.1797
G1 X159.371 Y314.577 E102.20666
G1 X158.752 Y313.964 E102.23762
G1 X158.278 Y313.348 E102.26525
G1 X157.917 Y312.719 E102.29103
G1 X157.567 Y311.866 E102.32381
G1 X157.371 Y311.123 E102.35112
G1 X157.288 Y310.539 E102.37209
G1 X157.263 Y39.888 E111.99286
G1 X157.411 Y38.715 E112.03488
G0 F7200 X157.857 Y38.773
G1 F1800 X157.969 Y38.358 E112.05016
G1 X158.186 Y37.78 E112.07211
G1 X158.69 Y36.859 E112.10943
G1 X159.075 Y36.357 E112.13192
G1 X159.688 Y35.738 E112.16289
G1 X160.257 Y35.305 E112.1883
G1 X160.786 Y35.002 E112.20997
G1 X161.583 Y34.671 E112.24065
G1 X162.272 Y34.486 E112.26601
G1 X162.854 Y34.403 E112.28691
G1 X186.667 Y34.375 E113.13338
G1 X187.765 Y34.499 E113.17266
G1 X188.256 Y34.62 E113.19064
G1 X188.819 Y34.823 E113.21191
G1 X189.746 Y35.317 E113.24925
G1 X190.261 Y35.7 E113.27206
G1 X190.974 Y36.406 E113.30773
G1 X191.364 Y36.925 E113.33081
G1 X191.667 Y37.454 E113.35248
G1 X191.998 Y38.251 E113.38315
G1 X192.183 Y38.94 E113.40851
G1 X192.266 Y39.524 E113.42948
G1 X192.287 Y310.112 E123.04801
G1 X192.144 Y311.225 E123.0879
G1 X192.037 Y311.617 E123.10234
G1 X191.747 Y312.368 E123.13096
G1 X191.285 Y313.175 E123.16402
G1 X190.809 Y313.775 E123.19124
G1 X190.362 Y314.221 E123.21369
G1 X189.678 Y314.736 E123.24412
G1 X189.219 Y314.994 E123.26284
G1 X188.476 Y315.308 E123.29151
G1 X187.807 Y315.494 E123.31619
G1 X187.457 Y315.558 E123.32884
G1 X186.668 Y315.625 E123.35699
G1 X162.931 Y315.596 E124.20076
G1 X162.065 Y315.461 E124.23192
G1 X161.689 Y315.363 E124.24573
G1 X161.111 Y315.146 E124.26768
G1 X160.19 Y314.642 E124.305
G1 X159.688 Y314.257 E124.32748
G1 X159.069 Y313.644 E124.35845
G1 X158.636 Y313.075 E124.38387
G1 X158.333 Y312.546 E124.40554
G1 X158.002 Y311.749 E124.43622
G1 X157.817 Y311.06 E124.46157
G1 X157.734 Y310.476 E124.48254
G1 X157.713 Y39.888 E134.10107
G1 X157.857 Y38.773 E134.14104
G0 F7200 X158.292 Y38.889
G1 F1800 X158.392 Y38.513 E134.15487
G1 X158.582 Y37.994 E134.17451
G1 X159.049 Y37.131 E134.20939
G1 X159.395 Y36.674 E134.22977
G1 X160.008 Y36.055 E134.26074
G1 X160.527 Y35.665 E134.28381
G1 X160.96 Y35.417 E134.30155
G1 X161.7 Y35.106 E134.33008
G1 X162.389 Y34.921 E134.35544
G1 X162.855 Y34.853 E134.37218
G1 X186.668 Y34.825 E135.21866
G1 X187.713 Y34.946 E135.25605
G1 X188.107 Y35.045 E135.27049
G1 X188.609 Y35.221 E135.2894
G1 X189.477 Y35.678 E135.32427
G1 X189.992 Y36.061 E135.34709
G1 X190.614 Y36.676 E135.37818
G1 X191.004 Y37.195 E135.40126
G1 X191.252 Y37.628 E135.41899
G1 X191.563 Y38.368 E135.44753
G1 X191.748 Y39.057 E135.47289
G1 X191.816 Y39.524 E135.48966
G1 X191.837 Y310.112 E145.10819
G1 X191.709 Y311.109 E145.14392
G1 X191.617 Y311.455 E145.15665
G1 X191.327 Y312.206 E145.18527
G1 X190.931 Y312.897 E145.21358
G1 X190.491 Y313.456 E145.23886
G1 X190.044 Y313.902 E145.26131
G1 X189.456 Y314.345 E145.28748
G1 X189.042 Y314.58 E145.3044
G1 X188.355 Y314.874 E145.33096
G1 X187.686 Y315.06 E145.35565
G1 X187.418 Y315.11 E145.36534
G1 X186.668 Y315.175 E145.3921
G1 X163 Y315.151 E146.23342
G1 X162.134 Y315.016 E146.26457
G1 X161.844 Y314.94 E146.27523
G1 X161.325 Y314.75 E146.29488
G1 X160.462 Y314.283 E146.32976
G1 X160.005 Y313.937 E146.35013
G1 X159.386 Y313.324 E146.3811
G1 X158.996 Y312.805 E146.40418
G1 X158.748 Y312.372 E146.42192
G1 X158.437 Y311.632 E146.45045
G1 X158.252 Y310.943 E146.47581
G1 X158.184 Y310.476 E146.49258
G1 X158.163 Y39.888 E156.11111
G1 X158.292 Y38.889 E156.14692
G0 F7200 X158.727 Y39.003
G1 F1800 X158.815 Y38.668 E156.15923
G1 X159.005 Y38.149 E156.17888
G1 X159.408 Y37.403 E156.20902
G1 X159.754 Y36.946 E156.22939
G1 X160.28 Y36.413 E156.25601
G1 X160.753 Y36.054 E156.27712
G1 X161.136 Y35.831 E156.29287
G1 X161.817 Y35.541 E156.31918
G1 X162.506 Y35.356 E156.34454
G1 X162.856 Y35.303 E156.35713
G1 X186.669 Y35.275 E157.2036
G1 X187.605 Y35.383 E157.23709
G1 X187.958 Y35.47 E157.25002
G1 X188.46 Y35.646 E157.26893
G1 X189.208 Y36.039 E157.29896
G1 X189.723 Y36.422 E157.32178
G1 X190.256 Y36.948 E157.3484
G1 X190.615 Y37.421 E157.3695
G1 X190.838 Y37.804 E157.38526
G1 X191.128 Y38.485 E157.41157
G1 X191.313 Y39.174 E157.43693
G1 X191.366 Y39.524 E157.44951
G1 X191.387 Y310.112 E167.06804
G1 X191.273 Y310.997 E167.09976
G1 X191.196 Y311.296 E167.11073
G1 X190.935 Y311.985 E167.13693
G1 X190.576 Y312.62 E167.16285
G1 X190.173 Y313.137 E167.18616
G1 X189.726 Y313.583 E167.2086
G1 X189.232 Y313.955 E167.23058
G1 X188.863 Y314.167 E167.24571
G1 X188.234 Y314.44 E167.27009
G1 X187.565 Y314.626 E167.29477
G1 X187.338 Y314.667 E167.30297
G1 X186.668 Y314.725 E167.32687
G1 X163.069 Y314.706 E168.16574
G1 X162.203 Y314.571 E168.1969
G1 X161.999 Y314.517 E168.2044
G1 X161.48 Y314.327 E168.22404
G1 X160.734 Y313.924 E168.25418
G1 X160.277 Y313.578 E168.27456
G1 X159.744 Y313.052 E168.30118
G1 X159.385 Y312.579 E168.32229
G1 X159.162 Y312.196 E168.33804
G1 X158.872 Y311.515 E168.36435
G1 X158.687 Y310.826 E168.38971
G1 X158.634 Y310.476 E168.40229
G1 X158.613 Y39.888 E178.02082
G1 X158.727 Y39.003 E178.05254
G0 F7200 X159.163 Y39.115
G1 F1800 X159.239 Y38.819 E178.06341
G1 X159.402 Y38.36 E178.08072
G1 X159.768 Y37.672 E178.10842
G1 X160.076 Y37.26 E178.12671
G1 X160.554 Y36.77 E178.15104
G1 X160.983 Y36.441 E178.17026
G1 X161.315 Y36.244 E178.18398
G1 X161.934 Y35.976 E178.20796
G1 X162.623 Y35.791 E178.23332
G1 X162.919 Y35.749 E178.24394
G1 X186.669 Y35.725 E179.08818
G1 X187.497 Y35.82 E179.11781
G1 X187.85 Y35.907 E179.13073
G1 X188.309 Y36.07 E179.14804
G1 X188.997 Y36.436 E179.17574
G1 X189.409 Y36.744 E179.19403
G1 X189.899 Y37.222 E179.21836
G1 X190.228 Y37.651 E179.23758
G1 X190.425 Y37.983 E179.2513
G1 X190.693 Y38.602 E179.27528
G1 X190.878 Y39.291 E179.30064
G1 X190.92 Y39.587 E179.31127
G1 X190.937 Y310.112 E188.92756
G1 X190.837 Y310.885 E188.95526
G1 X190.76 Y311.184 E188.96624
G1 X190.542 Y311.766 E188.98833
G1 X190.22 Y312.345 E189.01188
G1 X189.855 Y312.818 E189.03312
G1 X189.408 Y313.264 E189.05556
G1 X189.005 Y313.566 E189.07347
G1 X188.681 Y313.755 E189.0868
G1 X188.113 Y314.006 E189.10887
G1 X187.444 Y314.192 E189.13356
G1 X187.262 Y314.223 E189.14012
G1 X186.668 Y314.275 E189.16131
G1 X163.138 Y314.261 E189.99773
G1 X162.272 Y314.126 E190.02889
G1 X162.15 Y314.093 E190.03338
G1 X161.691 Y313.93 E190.05069
G1 X161.003 Y313.564 E190.07839
G1 X160.591 Y313.256 E190.09668
G1 X160.101 Y312.778 E190.12101
G1 X159.772 Y312.349 E190.14023
G1 X159.575 Y312.017 E190.15395
G1 X159.307 Y311.398 E190.17793
G1 X159.122 Y310.709 E190.20329
G1 X159.08 Y310.413 E190.21392
G1 X159.063 Y39.888 E199.83021
G1 X159.163 Y39.115 E199.85791
G0 F7200 X159.599 Y39.225
G1 F1800 X159.663 Y38.97 E199.86726
G1 X159.826 Y38.511 E199.88457
G1 X160.13 Y37.939 E199.9076
G1 X160.4 Y37.572 E199.92379
G1 X160.83 Y37.126 E199.94582
G1 X161.217 Y36.826 E199.96322
G1 X161.497 Y36.656 E199.97487
G1 X162.053 Y36.41 E199.99648
G1 X162.686 Y36.237 E200.0198
G1 X162.982 Y36.195 E200.03043
G1 X186.669 Y36.175 E200.87243
G1 X187.444 Y36.267 E200.90017
G1 X187.699 Y36.331 E200.90952
G1 X188.158 Y36.494 E200.92683
G1 X188.73 Y36.798 E200.94986
G1 X189.097 Y37.068 E200.96605
G1 X189.543 Y37.498 E200.98807
G1 X189.843 Y37.885 E201.00548
G1 X190.013 Y38.165 E201.01712
G1 X190.259 Y38.721 E201.03874
G1 X190.432 Y39.354 E201.06206
G1 X190.474 Y39.65 E201.07269
G1 X190.487 Y310.112 E210.68674
G1 X190.401 Y310.775 E210.71051
G1 X190.337 Y311.03 E210.71985
G1 X190.147 Y311.55 E210.73953
G1 X189.862 Y312.072 E210.76067
G1 X189.537 Y312.499 E210.77975
G1 X189.09 Y312.945 E210.80219
G1 X188.775 Y313.179 E210.81614
G1 X188.499 Y313.343 E210.82755
G1 X187.931 Y313.594 E210.84963
G1 X187.363 Y313.749 E210.87056
G1 X187.221 Y313.775 E210.87569
G1 X186.668 Y313.825 E210.89542
G1 X163.206 Y313.816 E211.72942
G1 X162.381 Y313.689 E211.75909
G1 X162.301 Y313.669 E211.76203
G1 X161.842 Y313.506 E211.77934
G1 X161.27 Y313.202 E211.80237
G1 X160.903 Y312.932 E211.81856
