;FLAVOR:Marlin
;TIME:9122
;Filament used: 12.3232m
;Layer height: 0.2
;MINX:46.131
;MINY:134.375
;MINZ:0.2
;MAXX:303.869
;MAXY:215.625
;MAXZ:3.2
;TARGET_MACHINE.NAME:VORON2 350
;POSTPROCESSED
;  [CreateThumbnail]
;  [CreateThumbnail]
;  [InsertAtLayerChange]
;Generated with Cura_SteamEngine 5.10.2
;
;

;
;

;Nozzle diameter = 0.4
;Filament type = PLA
;Filament name = PLA Black
;Filament weight = [32.6048701171875]; M190 S60
; M109 S210


; Pre-Processed for Cancel-Object support by preprocess_cancellation v0.2.0
; 1 known objects
EXCLUDE_OBJECT_DEFINE NAME=backthing_v2_stl CENTER=174.799,174.657 POLYGON=[[54.201,142.448],[54.201,207.548],[295.8,207.548],[295.8,142.448]]
PRINT_START BED_TEMP=60 EXTRUDER_TEMP=210
M82 ;absolute extrusion mode
M141 S10
G92 E0
G92 E0
G1 F1800 E-0.75
;LAYER_COUNT:15
;LAYER:0
TIMELAPSE_TAKE_FRAME
M107
G1 F600 Z0.4
G0 F7200 X51.623 Y134.763 Z0.4
;TYPE:SKIRT
G1 F600 Z0.2
G1 F720 E0
G1 F1800 X52.625 Y134.506 E0.03793
G1 X53.209 Y134.423 E0.05956
G1 X296 Y134.375 E8.96254
G1 X297.521 Y134.544 E9.01866
G1 X298.317 Y134.743 E9.04874
G1 X299.101 Y135.039 E9.07947
G1 X300.376 Y135.734 E9.13272
G1 X301.177 Y136.35 E9.16977
G1 X301.929 Y137.1 E9.20872
G1 X302.552 Y137.91 E9.24619
G1 X303.029 Y138.743 E9.28139
G1 X303.487 Y139.873 E9.3261
G1 X303.744 Y140.875 E9.36403
G1 X303.827 Y141.459 E9.38566
G1 X303.869 Y207.862 E11.82061
G1 X303.656 Y209.517 E11.8818
G1 X303.476 Y210.152 E11.906
G1 X303.02 Y211.256 E11.9498
G1 X302.371 Y212.335 E11.99598
G1 X301.731 Y213.12 E12.03312
G1 X301.284 Y213.566 E12.05627
G1 X300.167 Y214.414 E12.1077
G1 X299.516 Y214.775 E12.13499
G1 X298.459 Y215.21 E12.17691
G1 X297.544 Y215.459 E12.21168
G1 X297.194 Y215.523 E12.22473
G1 X296 Y215.625 E12.26867
G1 X53.255 Y215.571 E21.16996
G1 X52.389 Y215.436 E21.2021
G1 X51.55 Y215.214 E21.23392
G1 X50.859 Y214.946 E21.2611
G1 X49.603 Y214.252 E21.31372
G1 X48.771 Y213.605 E21.35237
G1 X48.075 Y212.906 E21.38854
G1 X47.488 Y212.148 E21.42369
G1 X46.918 Y211.146 E21.46597
G1 X46.513 Y210.127 E21.50617
G1 X46.256 Y209.125 E21.54411
G1 X46.173 Y208.541 E21.56574
G1 X46.131 Y142.138 E24.00069
G1 X46.341 Y140.496 E24.06139
G1 X46.523 Y139.843 E24.08625
G1 X46.858 Y138.995 E24.11968
G1 X47.537 Y137.793 E24.1703
G1 X48.108 Y137.062 E24.20432
G1 X48.844 Y136.325 E24.24251
G1 X49.602 Y135.738 E24.27767
G1 X50.604 Y135.168 E24.31994
G1 X51.623 Y134.763 E24.36015
G0 F7200 X51.736 Y135.199
G1 F1800 X52.688 Y134.952 E24.39621
G1 X53.272 Y134.869 E24.41784
G1 X296 Y134.825 E33.31851
G1 X297.471 Y134.991 E33.37279
G1 X298.16 Y135.165 E33.39885
G1 X298.887 Y135.435 E33.42729
G1 X300.103 Y136.092 E33.47797
G1 X300.86 Y136.67 E33.51289
G1 X301.573 Y137.376 E33.54969
G1 X302.161 Y138.134 E33.58487
G1 X302.638 Y138.967 E33.62007
G1 X303.051 Y139.986 E33.66038
G1 X303.298 Y140.938 E33.69645
G1 X303.381 Y141.522 E33.71808
G1 X303.419 Y207.862 E36.15072
G1 X303.223 Y209.394 E36.20736
G1 X303.043 Y210.029 E36.23156
G1 X302.634 Y211.025 E36.27104
G1 X302.022 Y212.051 E36.31485
G1 X301.413 Y212.801 E36.35027
G1 X300.966 Y213.247 E36.37343
G1 X299.947 Y214.021 E36.42035
G1 X299.343 Y214.359 E36.44573
G1 X298.34 Y214.776 E36.48556
G1 X297.463 Y215.016 E36.51891
G1 X297.113 Y215.08 E36.53195
G1 X296 Y215.175 E36.57291
G1 X53.324 Y215.126 E45.47167
G1 X52.458 Y214.991 E45.50381
G1 X51.713 Y214.794 E45.53207
G1 X51.022 Y214.526 E45.55925
G1 X49.878 Y213.896 E45.60714
G1 X49.089 Y213.287 E45.64369
G1 X48.431 Y212.63 E45.67778
G1 X47.844 Y211.872 E45.71294
G1 X47.336 Y210.978 E45.75064
G1 X46.949 Y210.014 E45.78873
G1 X46.702 Y209.062 E45.8248
G1 X46.619 Y208.478 E45.84643
G1 X46.581 Y142.138 E48.27907
G1 X46.775 Y140.615 E48.33537
G1 X46.942 Y140.008 E48.35845
G1 X47.277 Y139.16 E48.39189
G1 X47.892 Y138.07 E48.43778
G1 X48.463 Y137.339 E48.4718
G1 X49.12 Y136.681 E48.50589
G1 X49.878 Y136.094 E48.54105
G1 X50.772 Y135.586 E48.57875
G1 X51.736 Y135.199 E48.61684
G0 F7200 X51.85 Y135.634
G1 F1800 X52.751 Y135.398 E48.651
G1 X53.335 Y135.315 E48.67263
G1 X296 Y135.275 E57.57098
G1 X297.363 Y135.428 E57.62128
G1 X298.003 Y135.587 E57.64546
G1 X298.73 Y135.857 E57.6739
G1 X299.831 Y136.451 E57.71977
G1 X300.543 Y136.99 E57.75252
G1 X301.256 Y137.696 E57.78931
G1 X301.77 Y138.358 E57.82004
G1 X302.247 Y139.191 E57.85524
G1 X302.616 Y140.1 E57.89122
G1 X302.852 Y141.001 E57.92537
G1 X302.935 Y141.585 E57.947
G1 X302.969 Y207.862 E60.37733
G1 X302.777 Y209.336 E60.43184
G1 X302.626 Y209.86 E60.45184
G1 X302.247 Y210.796 E60.48886
G1 X301.672 Y211.768 E60.53028
G1 X301.095 Y212.482 E60.56394
G1 X300.648 Y212.928 E60.58709
G1 X299.725 Y213.629 E60.62959
G1 X299.17 Y213.943 E60.65298
G1 X298.167 Y214.36 E60.69281
G1 X297.382 Y214.573 E60.72264
G1 X297.032 Y214.637 E60.73568
G1 X296 Y214.725 E60.77366
G1 X53.393 Y214.681 E69.66989
G1 X52.527 Y214.546 E69.70203
G1 X51.876 Y214.374 E69.72672
G1 X51.185 Y214.106 E69.7539
G1 X50.152 Y213.539 E69.79711
G1 X49.406 Y212.967 E69.83158
G1 X48.787 Y212.354 E69.86352
G1 X48.2 Y211.596 E69.89868
G1 X47.753 Y210.809 E69.93187
G1 X47.384 Y209.9 E69.96784
G1 X47.148 Y208.999 E70.002
G1 X47.065 Y208.415 E70.02363
G1 X47.031 Y142.138 E72.45396
G1 X47.209 Y140.733 E72.50589
G1 X47.361 Y140.172 E72.5272
G1 X47.67 Y139.38 E72.55838
G1 X48.248 Y138.346 E72.60182
G1 X48.783 Y137.656 E72.63383
G1 X49.396 Y137.037 E72.66578
G1 X50.154 Y136.45 E72.70093
G1 X50.941 Y136.003 E72.73412
G1 X51.85 Y135.634 E72.7701
G0 F7200 X52.019 Y136.051
G1 F1800 X52.814 Y135.844 E72.80022
G1 X53.398 Y135.761 E72.82185
G1 X296 Y135.725 E81.71789
G1 X297.312 Y135.875 E81.76632
G1 X297.849 Y136.01 E81.78662
G1 X298.516 Y136.253 E81.81265
G1 X299.617 Y136.847 E81.85853
G1 X300.226 Y137.31 E81.88658
G1 X300.939 Y138.016 E81.92337
G1 X301.413 Y138.632 E81.95188
G1 X301.83 Y139.36 E81.98264
G1 X302.199 Y140.269 E82.01861
G1 X302.406 Y141.064 E82.04874
G1 X302.489 Y141.648 E82.07037
G1 X302.519 Y207.862 E84.49839
G1 X302.344 Y209.213 E84.54834
G1 X302.208 Y209.693 E84.56664
G1 X301.859 Y210.568 E84.60118
G1 X301.321 Y211.486 E84.6402
G1 X300.777 Y212.163 E84.67205
G1 X300.33 Y212.609 E84.6952
G1 X299.503 Y213.237 E84.73328
G1 X298.948 Y213.551 E84.75666
G1 X298.048 Y213.926 E84.79241
G1 X297.301 Y214.13 E84.82081
G1 X296.951 Y214.194 E84.83386
G1 X296 Y214.275 E84.86885
G1 X53.462 Y214.236 E93.76255
G1 X52.596 Y214.101 E93.79469
G1 X52.039 Y213.954 E93.81582
G1 X51.348 Y213.686 E93.84299
G1 X50.37 Y213.145 E93.88398
G1 X49.723 Y212.647 E93.91392
G1 X49.104 Y212.034 E93.94586
G1 X48.59 Y211.372 E93.9766
G1 X48.17 Y210.64 E94.00754
G1 X47.801 Y209.731 E94.04352
G1 X47.594 Y208.936 E94.07364
G1 X47.511 Y208.352 E94.09527
G1 X47.481 Y142.138 E96.52329
G1 X47.644 Y140.849 E96.57093
G1 X47.781 Y140.334 E96.59048
G1 X48.064 Y139.598 E96.61939
G1 X48.605 Y138.62 E96.66037
G1 X49.103 Y137.973 E96.69031
G1 X49.716 Y137.354 E96.72226
G1 X50.378 Y136.84 E96.75299
G1 X51.11 Y136.42 E96.78394
G1 X52.019 Y136.051 E96.81991
G0 F7200 X52.134 Y136.486
G1 F1800 X52.877 Y136.29 E96.84809
G1 X53.461 Y136.207 E96.86972
G1 X296 Y136.175 E105.76345
G1 X297.204 Y136.312 E105.80789
G1 X297.695 Y136.433 E105.82643
G1 X298.362 Y136.676 E105.85246
G1 X299.346 Y137.206 E105.89345
G1 X299.909 Y137.63 E105.91929
G1 X300.622 Y138.336 E105.95609
G1 X301.055 Y138.905 E105.98231
G1 X301.414 Y139.531 E106.00877
G1 X301.764 Y140.384 E106.04258
G1 X301.96 Y141.127 E106.07075
G1 X302.043 Y141.711 E106.09238
G1 X302.069 Y207.862 E108.51809
G1 X301.91 Y209.093 E108.56361
G1 X301.789 Y209.529 E108.5802
G1 X301.47 Y210.342 E108.61223
G1 X300.97 Y211.205 E108.6488
G1 X300.459 Y211.844 E108.6788
G1 X300.012 Y212.29 E108.70196
G1 X299.281 Y212.845 E108.73561
G1 X298.726 Y213.159 E108.759
G1 X297.929 Y213.492 E108.79067
G1 X297.22 Y213.687 E108.81763
G1 X296.87 Y213.751 E108.83068
G1 X296 Y213.825 E108.8627
G1 X53.531 Y213.791 E117.75387
G1 X52.665 Y213.656 E117.78601
G1 X52.2 Y213.534 E117.80363
G1 X51.564 Y213.291 E117.8286
G1 X50.643 Y212.787 E117.8671
G1 X50.04 Y212.327 E117.89491
G1 X49.421 Y211.714 E117.92685
G1 X48.947 Y211.098 E117.95536
G1 X48.586 Y210.469 E117.98195
G1 X48.236 Y209.616 E118.01576
G1 X48.04 Y208.873 E118.04394
G1 X47.957 Y208.289 E118.06557
G1 X47.931 Y142.138 E120.49128
G1 X48.079 Y140.965 E120.53463
G1 X48.216 Y140.45 E120.55417
G1 X48.459 Y139.814 E120.57914
G1 X48.963 Y138.893 E120.61764
G1 X49.423 Y138.29 E120.64545
G1 X50.036 Y137.671 E120.67739
G1 X50.652 Y137.197 E120.7059
G1 X51.281 Y136.836 E120.73249
G1 X52.134 Y136.486 E120.7663
G0 F7200 X52.251 Y136.921
G1 F1800 X52.94 Y136.736 E120.79246
G1 X53.524 Y136.653 E120.81409
G1 X296 Y136.625 E129.70551
G1 X297.096 Y136.749 E129.74596
G1 X297.587 Y136.87 E129.7645
G1 X298.15 Y137.073 E129.78645
G1 X299.077 Y137.567 E129.82497
G1 X299.592 Y137.95 E129.8485
G1 X300.305 Y138.656 E129.8853
G1 X300.695 Y139.175 E129.9091
G1 X300.998 Y139.704 E129.93146
G1 X301.329 Y140.501 E129.9631
G1 X301.514 Y141.19 E129.98926
G1 X301.597 Y141.774 E130.01089
G1 X301.619 Y207.862 E132.43429
G1 X301.476 Y208.975 E132.47544
G1 X301.369 Y209.367 E132.49034
G1 X301.079 Y210.118 E132.51986
G1 X300.617 Y210.925 E132.55396
G1 X300.141 Y211.525 E132.58204
G1 X299.694 Y211.971 E132.6052
G1 X299.01 Y212.486 E132.6366
G1 X298.551 Y212.744 E132.6559
G1 X297.808 Y213.058 E132.68548
G1 X297.139 Y213.244 E132.71094
G1 X296.789 Y213.308 E132.72399
G1 X296 Y213.375 E132.75303
G1 X53.6 Y213.346 E141.64166
G1 X52.734 Y213.211 E141.6738
G1 X52.358 Y213.113 E141.68805
G1 X51.78 Y212.896 E141.71069
G1 X50.859 Y212.392 E141.74919
G1 X50.357 Y212.007 E141.77239
G1 X49.738 Y211.394 E141.80433
G1 X49.305 Y210.825 E141.83055
G1 X49.002 Y210.296 E141.85291
G1 X48.671 Y209.499 E141.88455
G1 X48.486 Y208.81 E141.91071
G1 X48.403 Y208.226 E141.93234
G1 X48.381 Y142.138 E144.35574
G1 X48.525 Y141.023 E144.39697
G1 X48.637 Y140.608 E144.41273
G1 X48.854 Y140.03 E144.43537
G1 X49.358 Y139.109 E144.47387
G1 X49.743 Y138.607 E144.49707
G1 X50.356 Y137.988 E144.52901
G1 X50.925 Y137.555 E144.55523
G1 X51.454 Y137.252 E144.57759
G1 X52.251 Y136.921 E144.60923
G0 F7200 X52.368 Y137.356
G1 F1800 X53.057 Y137.171 E144.63539
G1 X53.524 Y137.103 E144.6527
G1 X296 Y137.075 E153.54412
G1 X297.044 Y137.196 E153.58266
G1 X297.438 Y137.295 E153.59756
G1 X297.94 Y137.471 E153.61707
G1 X298.808 Y137.928 E153.65304
G1 X299.323 Y138.311 E153.67657
G1 X299.945 Y138.926 E153.70865
G1 X300.335 Y139.445 E153.73245
G1 X300.583 Y139.878 E153.75075
G1 X300.894 Y140.618 E153.78018
G1 X301.079 Y141.307 E153.80634
G1 X301.147 Y141.774 E153.82365
G1 X301.169 Y207.862 E156.24705
G1 X301.041 Y208.859 E156.28391
G1 X300.949 Y209.205 E156.29704
G1 X300.659 Y209.956 E156.32656
G1 X300.263 Y210.647 E156.35576
G1 X299.823 Y211.206 E156.38185
G1 X299.376 Y211.652 E156.405
G1 X298.788 Y212.095 E156.432
G1 X298.374 Y212.33 E156.44946
G1 X297.687 Y212.624 E156.47686
G1 X297.018 Y212.81 E156.50232
G1 X296.75 Y212.86 E156.51232
G1 X296 Y212.925 E156.53992
G1 X53.669 Y212.901 E165.42603
G1 X52.803 Y212.766 E165.45817
G1 X52.513 Y212.69 E165.46916
G1 X51.994 Y212.5 E165.48943
G1 X51.131 Y212.033 E165.52541
G1 X50.674 Y211.687 E165.54643
G1 X50.055 Y211.074 E165.57837
G1 X49.665 Y210.555 E165.60218
G1 X49.417 Y210.122 E165.62048
G1 X49.106 Y209.382 E165.64991
G1 X48.921 Y208.693 E165.67607
G1 X48.853 Y208.226 E165.69338
G1 X48.831 Y142.138 E168.11678
G1 X48.96 Y141.139 E168.15371
G1 X49.06 Y140.763 E168.16798
G1 X49.25 Y140.244 E168.18825
G1 X49.717 Y139.381 E168.22423
G1 X50.063 Y138.924 E168.24525
G1 X50.676 Y138.305 E168.27719
G1 X51.195 Y137.915 E168.301
G1 X51.628 Y137.667 E168.3193
G1 X52.368 Y137.356 E168.34873
G0 F7200 X52.485 Y137.791
G1 F1800 X53.174 Y137.606 E168.37489
G1 X53.524 Y137.553 E168.38787
G1 X296 Y137.525 E177.2793
G1 X296.936 Y137.633 E177.31385
G1 X297.289 Y137.72 E177.32718
G1 X297.791 Y137.896 E177.34669
G1 X298.539 Y138.289 E177.37767
G1 X299.054 Y138.672 E177.4012
G1 X299.587 Y139.198 E177.42866
G1 X299.946 Y139.671 E177.45044
G1 X300.169 Y140.054 E177.46669
G1 X300.459 Y140.735 E177.49383
G1 X300.644 Y141.424 E177.51999
G1 X300.697 Y141.774 E177.53297
G1 X300.719 Y207.862 E179.95637
G1 X300.605 Y208.747 E179.98909
G1 X300.528 Y209.046 E180.00042
G1 X300.267 Y209.735 E180.02743
G1 X299.908 Y210.37 E180.05418
G1 X299.505 Y210.887 E180.07822
G1 X299.058 Y211.333 E180.10137
G1 X298.564 Y211.705 E180.12405
G1 X298.195 Y211.917 E180.13965
G1 X297.566 Y212.19 E180.1648
G1 X296.897 Y212.376 E180.19026
G1 X296.67 Y212.417 E180.19872
G1 X296 Y212.475 E180.22338
G1 X53.738 Y212.456 E189.10696
G1 X52.872 Y212.321 E189.1391
G1 X52.668 Y212.267 E189.14683
G1 X52.149 Y212.077 E189.1671
G1 X51.403 Y211.674 E189.19819
G1 X50.946 Y211.328 E189.21921
G1 X50.413 Y210.802 E189.24667
G1 X50.054 Y210.329 E189.26845
G1 X49.831 Y209.946 E189.2847
G1 X49.541 Y209.265 E189.31184
G1 X49.356 Y208.576 E189.338
G1 X49.303 Y208.226 E189.35098
G1 X49.281 Y142.138 E191.77438
G1 X49.395 Y141.253 E191.8071
G1 X49.483 Y140.918 E191.8198
G1 X49.673 Y140.399 E191.84007
G1 X50.076 Y139.653 E191.87116
G1 X50.422 Y139.196 E191.89218
G1 X50.948 Y138.663 E191.91964
G1 X51.421 Y138.304 E191.94141
G1 X51.804 Y138.081 E191.95766
G1 X52.485 Y137.791 E191.98481
G0 F7200 X52.602 Y138.226
G1 F1800 X53.291 Y138.041 E192.01097
G1 X53.587 Y137.999 E192.02193
G1 X296 Y137.975 E200.91104
G1 X296.828 Y138.07 E200.94161
G1 X297.181 Y138.157 E200.95494
G1 X297.64 Y138.32 E200.9728
G1 X298.328 Y138.686 E201.00137
G1 X298.74 Y138.994 E201.02024
G1 X299.23 Y139.472 E201.04534
G1 X299.559 Y139.901 E201.06516
G1 X299.756 Y140.233 E201.07932
G1 X300.024 Y140.852 E201.10405
G1 X300.209 Y141.541 E201.13021
G1 X300.251 Y141.837 E201.14118
G1 X300.269 Y207.862 E203.56227
G1 X300.169 Y208.635 E203.59085
G1 X300.092 Y208.934 E203.60217
G1 X299.874 Y209.516 E203.62496
G1 X299.552 Y210.095 E203.64925
G1 X299.187 Y210.568 E203.67116
G1 X298.74 Y211.014 E203.69432
G1 X298.337 Y211.316 E203.71278
G1 X298.013 Y211.505 E203.72654
G1 X297.445 Y211.756 E203.74931
G1 X296.776 Y211.942 E203.77477
G1 X296.594 Y211.973 E203.78154
G1 X296 Y212.025 E203.80341
G1 X53.807 Y212.011 E212.68445
G1 X52.941 Y211.876 E212.71659
G1 X52.819 Y211.843 E212.72123
G1 X52.36 Y211.68 E212.73909
G1 X51.672 Y211.314 E212.76766
G1 X51.26 Y211.006 E212.78653
G1 X50.77 Y210.528 E212.81163
G1 X50.441 Y210.099 E212.83145
G1 X50.244 Y209.767 E212.84561
G1 X49.976 Y209.148 E212.87034
G1 X49.791 Y208.459 E212.8965
G1 X49.749 Y208.163 E212.90747
G1 X49.731 Y142.138 E215.32856
G1 X49.831 Y141.365 E215.35714
G1 X49.907 Y141.069 E215.36834
G1 X50.07 Y140.61 E215.38621
G1 X50.436 Y139.922 E215.41478
G1 X50.744 Y139.51 E215.43364
G1 X51.222 Y139.02 E215.45875
G1 X51.651 Y138.691 E215.47857
G1 X51.983 Y138.494 E215.49273
G1 X52.602 Y138.226 E215.51746
G0 F7200 X52.721 Y138.66
G1 F1800 X53.354 Y138.487 E215.54152
G1 X53.65 Y138.445 E215.55249
G1 X296 Y138.425 E224.43929
G1 X296.775 Y138.517 E224.46791
G1 X297.03 Y138.581 E224.47755
G1 X297.489 Y138.744 E224.49541
G1 X298.061 Y139.048 E224.51916
G1 X298.428 Y139.318 E224.53587
G1 X298.874 Y139.748 E224.55859
G1 X299.174 Y140.135 E224.57655
G1 X299.344 Y140.415 E224.58856
G1 X299.59 Y140.971 E224.61085
G1 X299.763 Y141.604 E224.63491
G1 X299.805 Y141.9 E224.64588
G1 X299.819 Y207.862 E227.06466
G1 X299.733 Y208.525 E227.08917
G1 X299.669 Y208.78 E227.09881
G1 X299.479 Y209.3 E227.11911
G1 X299.194 Y209.822 E227.14092
G1 X298.869 Y210.249 E227.1606
G1 X298.422 Y210.695 E227.18375
G1 X298.107 Y210.929 E227.19814
G1 X297.831 Y211.093 E227.20992
G1 X297.263 Y211.344 E227.23269
G1 X296.695 Y211.499 E227.25428
G1 X296.553 Y211.525 E227.25957
G1 X296 Y211.575 E227.27993
G1 X53.875 Y211.566 E236.15849
G1 X53.05 Y211.439 E236.18909
G1 X52.97 Y211.419 E236.19212
G1 X52.511 Y211.256 E236.20998
G1 X51.939 Y210.952 E236.23373
G1 X51.572 Y210.682 E236.25044
G1 X51.126 Y210.252 E236.27316
G1 X50.826 Y209.865 E236.29111
G1 X50.656 Y209.585 E236.30312
G1 X50.41 Y209.029 E236.32542
G1 X50.237 Y208.396 E236.34948
G1 X50.195 Y208.1 E236.36045
G1 X50.181 Y142.138 E238.77923
G1 X50.267 Y141.475 E238.80374
G1 X50.331 Y141.22 E238.81338
G1 X50.494 Y140.761 E238.83124
