;FLAVOR:Marlin
;TIME:468
;Filament used: 0.258212m
;Layer height: 0.2
;MINX:150.125
;MINY:163.69
;MINZ:0.2
;MAXX:199.475
;MAXY:187.71
;MAXZ:5.3
;TARGET_MACHINE.NAME:VORON2 350
;POSTPROCESSED
;  [CreateThumbnail]
;  [CreateThumbnail]
;  [InsertAtLayerChange]
;Generated with Cura_SteamEngine 5.10.2
;
;

;
;

;Nozzle diameter = 0.4
;Filament type = ABS
;Filament name = ABS+ Black #2
;Filament weight = [0.6831788208007813]; M190 S85
; M109 S250


; Pre-Processed for Cancel-Object support by preprocess_cancellation v0.2.0
; 1 known objects
EXCLUDE_OBJECT_DEFINE NAME=3DO_CAM_LED_CLAMP_stl CENTER=176.950,175.985 POLYGON=[[158.2,170.364],[158.2,179.632],[191.8,179.632],[191.8,170.364]]
PRINT_START BED_TEMP=85 EXTRUDER_TEMP=250
M82 ;absolute extrusion mode
M141 S40
G92 E0
G92 E0
G1 F1800 E-0.75
;LAYER_COUNT:24
;LAYER:0
TIMELAPSE_TAKE_FRAME
M107
G1 F600 Z0.7
G0 F7200 X152.844 Y168.34 Z0.7
;TYPE:SKIRT
G1 F600 Z0.2
G1 F720 E0
G1 F2700 X153.6 Y167.754 E0.03579
G1 X154.549 Y167.211 E0.0767
G1 X155.668 Y166.763 E0.1218
G1 X156.361 Y166.578 E0.14864
G1 X157.703 Y166.406 E0.19927
G1 X168.311 Y166.389 E0.59619
G1 X168.64 Y166.006 E0.61509
G1 X169.134 Y165.552 E0.64019
G1 X169.777 Y165.071 E0.67024
G1 X170.529 Y164.618 E0.70309
G1 X171.407 Y164.218 E0.73919
G1 X172.059 Y164.006 E0.76484
G1 X173.259 Y163.751 E0.81075
G1 X173.592 Y163.716 E0.82327
G1 X181.799 Y163.69 E1.13036
G1 X183.005 Y163.803 E1.17569
G1 X184.155 Y164.071 E1.21987
G1 X185.136 Y164.451 E1.25923
G1 X186.09 Y164.981 E1.30007
G1 X186.774 Y165.476 E1.33166
G1 X187.53 Y166.182 E1.37037
G1 X187.715 Y166.406 E1.38124
G1 X190.446 Y166.442 E1.48343
G1 X190.894 Y166.505 E1.50036
G1 X192.223 Y166.855 E1.55178
G1 X193.097 Y167.213 E1.58712
G1 X193.556 Y167.459 E1.60661
G1 X194.437 Y168.048 E1.64626
G1 X195.191 Y168.689 E1.68329
G1 X197.472 Y171.012 E1.80511
G1 X198.122 Y171.87 E1.84539
G1 X198.472 Y172.443 E1.87051
G1 X198.829 Y173.177 E1.90105
G1 X199.237 Y174.374 E1.94837
G1 X199.309 Y174.705 E1.96105
G1 X199.475 Y176.277 E2.0202
G1 X199.424 Y180.053 E2.1615
G1 X199.361 Y180.501 E2.17843
G1 X198.952 Y182.003 E2.23667
G1 X198.736 Y182.516 E2.2575
G1 X198.202 Y183.483 E2.29883
G1 X197.593 Y184.335 E2.33802
G1 X197.318 Y184.647 E2.35358
G1 X195.712 Y186.117 E2.43505
G1 X194.863 Y186.675 E2.47306
G1 X194.102 Y187.054 E2.50487
G1 X193.289 Y187.346 E2.5372
G1 X192.121 Y187.603 E2.58195
G1 X192.084 Y187.603 E2.58333
G1 X192.061 Y187.613 E2.58427
G1 X190.83 Y187.71 E2.63047
G1 X188.858 Y187.633 E2.70432
G1 X187.787 Y187.43 E2.7451
G1 X186.191 Y186.845 E2.80871
G1 X185.475 Y186.446 E2.83938
G1 X184.305 Y185.58 E2.89384
G1 X183.906 Y185.192 E2.91467
G1 X182.413 Y185.174 E2.97054
G1 X181.45 Y185.035 E3.00694
G1 X180.422 Y184.75 E3.04686
G1 X179.462 Y184.346 E3.08583
G1 X179.184 Y184.191 E3.09774
G1 X176.801 Y184.19 E3.18691
G1 X176.558 Y184.334 E3.19748
G1 X175.992 Y184.594 E3.22078
G1 X174.784 Y184.992 E3.26837
G1 X174.508 Y185.049 E3.27892
G1 X172.987 Y185.21 E3.33615
G1 X172.079 Y185.208 E3.37013
G1 X171.446 Y185.794 E3.4024
G1 X170.692 Y186.347 E3.43739
G1 X169.73 Y186.887 E3.47867
G1 X168.86 Y187.236 E3.51374
G1 X167.226 Y187.633 E3.57666
G1 X166.747 Y187.683 E3.59468
G1 X164.777 Y187.699 E3.6684
G1 X163.944 Y187.621 E3.6997
G1 X162.87 Y187.396 E3.74076
G1 X162.232 Y187.186 E3.76589
G1 X161.671 Y186.947 E3.78871
G1 X160.736 Y186.427 E3.82874
G1 X159.884 Y185.81 E3.86811
G1 X159.473 Y185.443 E3.88872
G1 X158.382 Y184.292 E3.94806
G1 X157.966 Y183.736 E3.97405
G1 X157.554 Y183.071 E4.00332
G1 X154.592 Y181.954 E4.12177
G1 X153.966 Y181.606 E4.14857
G1 X152.945 Y180.881 E4.19542
G1 X152.502 Y180.485 E4.21766
G1 X151.836 Y179.726 E4.25544
G1 X151.153 Y178.711 E4.30122
G1 X150.791 Y177.987 E4.3315
G1 X150.451 Y177.036 E4.36929
G1 X150.238 Y176.067 E4.40642
G1 X150.125 Y174.709 E4.45741
G1 X150.182 Y173.503 E4.50258
G1 X150.377 Y172.365 E4.54578
G1 X150.527 Y171.846 E4.566
G1 X150.885 Y170.954 E4.60196
G1 X151.537 Y169.808 E4.6513
G1 X152.108 Y169.077 E4.68601
G1 X152.844 Y168.34 E4.72498
G0 F7200 X153.12 Y168.696
G1 F2700 X153.876 Y168.11 E4.76077
G1 X154.717 Y167.628 E4.79704
G1 X155.784 Y167.198 E4.84008
G1 X156.477 Y167.013 E4.86692
G1 X157.704 Y166.856 E4.91321
G1 X168.52 Y166.839 E5.31792
G1 X168.945 Y166.337 E5.34253
G1 X169.405 Y165.912 E5.36596
G1 X170.011 Y165.456 E5.39434
G1 X170.716 Y165.028 E5.4252
G1 X171.594 Y164.628 E5.4613
G1 X172.196 Y164.435 E5.48496
G1 X173.306 Y164.199 E5.52742
G1 X173.639 Y164.164 E5.53995
G1 X181.8 Y164.14 E5.84531
G1 X182.962 Y164.251 E5.88899
G1 X183.992 Y164.491 E5.92856
G1 X184.973 Y164.871 E5.96793
G1 X185.826 Y165.346 E6.00446
G1 X186.51 Y165.841 E6.03605
G1 X187.183 Y166.469 E6.0705
G1 X187.501 Y166.854 E6.08918
G1 X190.383 Y166.888 E6.19703
G1 X190.831 Y166.951 E6.21395
G1 X192.107 Y167.29 E6.26336
G1 X192.884 Y167.61 E6.2948
G1 X193.343 Y167.856 E6.31428
G1 X194.186 Y168.422 E6.35228
G1 X194.87 Y169.005 E6.38591
G1 X197.113 Y171.284 E6.50555
G1 X197.763 Y172.142 E6.54583
G1 X198.067 Y172.64 E6.56766
G1 X198.424 Y173.374 E6.5982
G1 X198.797 Y174.47 E6.64152
G1 X198.869 Y174.801 E6.6542
G1 X199.025 Y176.271 E6.70951
G1 X198.978 Y179.99 E6.84868
G1 X198.915 Y180.438 E6.86561
G1 X198.537 Y181.828 E6.91951
G1 X198.321 Y182.341 E6.94033
G1 X197.835 Y183.222 E6.97798
G1 X197.255 Y184.037 E7.01541
G1 X196.98 Y184.349 E7.03097
G1 X195.464 Y185.742 E7.10801
G1 X194.662 Y186.272 E7.14398
G1 X193.901 Y186.651 E7.17579
G1 X193.192 Y186.907 E7.20399
G1 X192.024 Y187.164 E7.24874
G1 X190.848 Y187.26 E7.29289
G1 X188.876 Y187.183 E7.36674
G1 X187.873 Y186.988 E7.40497
G1 X186.347 Y186.423 E7.46586
G1 X185.743 Y186.084 E7.49177
G1 X184.573 Y185.218 E7.54624
G1 X184.093 Y184.744 E7.57148
G1 X182.418 Y184.724 E7.63416
G1 X181.57 Y184.601 E7.66622
G1 X180.542 Y184.316 E7.70614
G1 X179.638 Y183.932 E7.74289
G1 X179.302 Y183.741 E7.75735
G1 X176.675 Y183.74 E7.85565
G1 X176.37 Y183.925 E7.86899
G1 X175.804 Y184.185 E7.8923
G1 X174.693 Y184.551 E7.93607
G1 X174.417 Y184.608 E7.94661
G1 X172.988 Y184.76 E8.00039
G1 X171.888 Y184.757 E8.04155
G1 X171.82 Y184.834 E8.04539
G1 X171.179 Y185.432 E8.07819
G1 X170.471 Y185.955 E8.11113
G1 X169.562 Y186.469 E8.1502
G1 X168.692 Y186.818 E8.18528
G1 X167.179 Y187.185 E8.24353
G1 X166.7 Y187.235 E8.26155
G1 X164.819 Y187.251 E8.33194
G1 X163.986 Y187.173 E8.36324
G1 X163.01 Y186.968 E8.40056
G1 X162.406 Y186.771 E8.42433
G1 X161.89 Y186.554 E8.44527
G1 X160.955 Y186.034 E8.48531
G1 X160.184 Y185.474 E8.52096
G1 X159.773 Y185.107 E8.54158
G1 X158.742 Y184.021 E8.59761
G1 X158.349 Y183.499 E8.62206
G1 X157.857 Y182.704 E8.65704
G1 X154.809 Y181.56 E8.77886
G1 X154.227 Y181.239 E8.80373
G1 X153.206 Y180.514 E8.85059
G1 X152.804 Y180.151 E8.87085
G1 X152.175 Y179.43 E8.90665
G1 X151.555 Y178.508 E8.94823
G1 X151.215 Y177.836 E8.97641
G1 X150.875 Y176.885 E9.0142
G1 X150.686 Y176.029 E9.047
G1 X150.575 Y174.729 E9.09582
G1 X150.626 Y173.579 E9.13889
G1 X150.821 Y172.441 E9.18209
G1 X150.945 Y172.012 E9.1988
G1 X151.277 Y171.175 E9.23249
G1 X151.892 Y170.085 E9.27932
G1 X152.463 Y169.354 E9.31403
G1 X153.12 Y168.696 E9.34882
G0 F7200 X153.396 Y169.052
G1 F2700 X154.152 Y168.466 E9.38461
G1 X154.887 Y168.045 E9.41631
G1 X155.9 Y167.633 E9.45723
G1 X156.593 Y167.448 E9.48407
G1 X157.705 Y167.306 E9.52601
G1 X168.731 Y167.289 E9.93858
G1 X169.251 Y166.667 E9.96892
G1 X169.677 Y166.271 E9.99068
G1 X170.245 Y165.841 E10.01734
G1 X170.95 Y165.413 E10.0482
G1 X171.733 Y165.056 E10.0804
G1 X172.29 Y164.875 E10.10231
G1 X173.353 Y164.647 E10.14299
G1 X173.686 Y164.612 E10.15552
G1 X181.801 Y164.59 E10.45916
G1 X182.918 Y164.699 E10.50116
G1 X183.831 Y164.911 E10.53623
G1 X184.755 Y165.265 E10.57325
G1 X185.562 Y165.711 E10.60775
G1 X186.246 Y166.206 E10.63935
G1 X186.836 Y166.756 E10.66953
G1 X187.287 Y167.302 E10.69603
G1 X190.32 Y167.334 E10.80952
G1 X190.768 Y167.397 E10.82645
G1 X191.937 Y167.707 E10.8717
G1 X192.671 Y168.007 E10.90137
G1 X193.13 Y168.253 E10.92086
G1 X193.895 Y168.765 E10.9553
G1 X194.55 Y169.321 E10.98745
G1 X196.754 Y171.556 E11.1049
G1 X197.404 Y172.414 E11.14518
G1 X197.662 Y172.837 E11.16372
G1 X198.019 Y173.571 E11.19426
G1 X198.357 Y174.566 E11.23358
G1 X198.429 Y174.897 E11.24625
G1 X198.575 Y176.266 E11.29777
G1 X198.532 Y179.927 E11.43476
G1 X198.469 Y180.375 E11.45169
G1 X198.121 Y181.656 E11.50136
G1 X197.927 Y182.124 E11.52032
G1 X197.441 Y183.005 E11.55796
G1 X196.917 Y183.739 E11.59171
G1 X196.642 Y184.051 E11.60727
G1 X195.215 Y185.367 E11.67991
G1 X194.461 Y185.869 E11.7138
G1 X193.7 Y186.248 E11.74561
G1 X193.041 Y186.483 E11.77179
G1 X191.986 Y186.716 E11.81222
G1 X190.866 Y186.81 E11.85427
G1 X188.894 Y186.733 E11.92812
G1 X188.028 Y186.565 E11.96112
G1 X186.565 Y186.029 E12.01942
G1 X186.011 Y185.722 E12.04312
G1 X184.841 Y184.856 E12.09759
G1 X184.437 Y184.455 E12.11889
G1 X184.306 Y184.297 E12.12657
G1 X182.423 Y184.274 E12.19703
G1 X181.69 Y184.167 E12.22475
G1 X180.662 Y183.882 E12.26466
G1 X179.86 Y183.541 E12.29727
G1 X179.42 Y183.291 E12.31621
G1 X176.548 Y183.29 E12.42367
G1 X176.182 Y183.516 E12.43977
G1 X175.616 Y183.776 E12.46307
G1 X174.602 Y184.11 E12.50302
G1 X174.326 Y184.167 E12.51357
G1 X172.989 Y184.31 E12.56388
G1 X171.678 Y184.307 E12.61293
G1 X171.512 Y184.506 E12.62263
G1 X170.91 Y185.071 E12.65352
G1 X170.248 Y185.564 E12.68441
G1 X169.394 Y186.051 E12.72119
G1 X168.524 Y186.4 E12.75627
G1 X167.132 Y186.737 E12.80986
G1 X166.653 Y186.787 E12.82788
G1 X164.861 Y186.803 E12.89493
G1 X164.028 Y186.725 E12.92624
G1 X163.149 Y186.54 E12.95985
G1 X162.578 Y186.355 E12.98231
G1 X162.108 Y186.16 E13.00135
G1 X161.219 Y185.669 E13.03935
G1 X160.484 Y185.138 E13.07328
G1 X160.073 Y184.771 E13.09389
G1 X159.101 Y183.749 E13.14667
G1 X158.732 Y183.262 E13.16953
G1 X158.243 Y182.472 E13.2043
G1 X158.181 Y182.344 E13.20962
G1 X155.025 Y181.165 E13.33568
G1 X154.488 Y180.872 E13.35857
G1 X153.467 Y180.147 E13.40542
G1 X153.108 Y179.819 E13.42362
G1 X152.515 Y179.135 E13.45749
G1 X151.957 Y178.305 E13.49491
G1 X151.617 Y177.633 E13.52309
G1 X151.299 Y176.735 E13.55874
G1 X151.134 Y175.99 E13.58729
G1 X151.025 Y174.748 E13.63394
G1 X151.07 Y173.655 E13.67487
G1 X151.265 Y172.517 E13.71808
G1 X151.364 Y172.176 E13.73136
G1 X151.67 Y171.395 E13.76275
G1 X152.248 Y170.361 E13.80707
G1 X152.783 Y169.671 E13.83974
G1 X153.396 Y169.052 E13.87234
G0 F7200 X153.716 Y169.369
G1 F2700 X154.378 Y168.855 E13.9037
G1 X155.058 Y168.461 E13.93311
G1 X156.016 Y168.068 E13.97185
G1 X156.709 Y167.883 E13.99869
G1 X157.706 Y167.756 E14.0363
G1 X168.943 Y167.739 E14.45676
G1 X169.557 Y166.997 E14.4928
G1 X169.983 Y166.601 E14.51456
G1 X170.479 Y166.226 E14.53783
G1 X171.184 Y165.798 E14.56869
G1 X171.874 Y165.483 E14.59707
G1 X172.385 Y165.315 E14.6172
G1 X173.4 Y165.095 E14.65606
G1 X173.733 Y165.06 E14.66858
G1 X181.802 Y165.04 E14.97051
G1 X182.873 Y165.147 E15.01078
G1 X183.728 Y165.349 E15.04366
G1 X184.539 Y165.66 E15.07616
G1 X185.298 Y166.076 E15.10854
G1 X185.982 Y166.571 E15.14013
G1 X186.489 Y167.043 E15.16605
G1 X187.073 Y167.75 E15.20037
G1 X190.257 Y167.78 E15.31951
G1 X190.705 Y167.843 E15.33644
G1 X191.768 Y168.124 E15.37758
G1 X192.458 Y168.404 E15.40544
G1 X192.917 Y168.65 E15.42493
G1 X193.605 Y169.109 E15.45587
G1 X194.23 Y169.637 E15.48649
G1 X196.395 Y171.828 E15.60174
G1 X197.045 Y172.686 E15.64202
G1 X197.257 Y173.034 E15.65727
G1 X197.614 Y173.768 E15.68781
G1 X197.917 Y174.662 E15.72313
G1 X197.989 Y174.993 E15.7358
G1 X198.125 Y176.261 E15.78352
G1 X198.086 Y179.864 E15.91834
G1 X198.023 Y180.312 E15.93527
G1 X197.704 Y181.486 E15.98079
G1 X197.532 Y181.908 E15.99784
G1 X197.074 Y182.744 E16.03351
G1 X196.579 Y183.441 E16.0655
G1 X196.304 Y183.753 E16.08106
G1 X194.964 Y184.993 E16.14938
G1 X194.26 Y185.466 E16.18111
G1 X193.499 Y185.845 E16.21292
G1 X192.942 Y186.044 E16.23505
G1 X191.947 Y186.268 E16.27322
G1 X190.882 Y186.36 E16.31321
G1 X188.98 Y186.291 E16.38443
G1 X188.114 Y186.123 E16.41744
G1 X186.781 Y185.634 E16.47057
G1 X186.277 Y185.359 E16.49205
G1 X185.157 Y184.536 E16.54405
G1 X184.784 Y184.168 E16.56366
G1 X184.52 Y183.849 E16.57915
G1 X182.428 Y183.824 E16.65744
G1 X181.81 Y183.733 E16.68081
G1 X180.782 Y183.448 E16.72073
G1 X180.082 Y183.15 E16.74919
G1 X179.538 Y182.841 E16.7726
G1 X176.419 Y182.84 E16.88931
G1 X175.994 Y183.107 E16.90809
G1 X175.428 Y183.367 E16.9314
G1 X174.511 Y183.669 E16.96752
G1 X174.235 Y183.726 E16.97807
G1 X172.99 Y183.86 E17.02492
G1 X171.462 Y183.856 E17.08209
G1 X171.203 Y184.179 E17.09759
G1 X170.64 Y184.711 E17.12657
G1 X170.023 Y185.174 E17.15543
G1 X169.226 Y185.633 E17.18985
G1 X168.356 Y185.982 E17.22492
G1 X167.085 Y186.289 E17.27385
G1 X166.606 Y186.339 E17.29187
G1 X164.903 Y186.355 E17.35559
G1 X164.07 Y186.277 E17.3869
G1 X163.287 Y186.112 E17.41684
G1 X162.748 Y185.938 E17.43803
G1 X162.326 Y185.766 E17.45508
G1 X161.437 Y185.275 E17.49308
G1 X160.784 Y184.802 E17.52325
G1 X160.373 Y184.435 E17.54387
G1 X159.459 Y183.476 E17.59344
G1 X159.115 Y183.025 E17.61467
G1 X158.626 Y182.235 E17.64943
G1 X158.512 Y181.987 E17.65964
G1 X155.182 Y180.743 E17.79266
G1 X154.749 Y180.505 E17.81114
G1 X153.728 Y179.78 E17.858
G1 X153.447 Y179.523 E17.87225
G1 X152.888 Y178.883 E17.90404
G1 X152.359 Y178.102 E17.93934
G1 X152.019 Y177.43 E17.96752
G1 X151.738 Y176.635 E17.99907
G1 X151.582 Y175.949 E18.02539
G1 X151.475 Y174.765 E18.06988
G1 X151.514 Y173.731 E18.10859
G1 X151.709 Y172.593 E18.1518
G1 X151.784 Y172.338 E18.16174
G1 X152.064 Y171.613 E18.19082
G1 X152.605 Y170.635 E18.23264
G1 X153.103 Y169.988 E18.26319
G1 X153.716 Y169.369 E18.29579
G0 F7200 X154.036 Y169.686
G1 F2700 X154.652 Y169.212 E18.32487
G1 X155.282 Y168.851 E18.35204
G1 X156.132 Y168.503 E18.38641
G1 X156.825 Y168.318 E18.41325
G1 X157.707 Y168.206 E18.44651
G1 X169.156 Y168.189 E18.87491
G1 X169.904 Y167.284 E18.91884
G1 X170.287 Y166.933 E18.93828
G1 X170.713 Y166.611 E18.95826
G1 X171.418 Y166.183 E18.98912
G1 X172.016 Y165.91 E19.01372
G1 X172.482 Y165.755 E19.0321
G1 X173.447 Y165.543 E19.06906
G1 X173.78 Y165.508 E19.08159
G1 X181.803 Y165.49 E19.3818
G1 X182.827 Y165.595 E19.42031
G1 X183.569 Y165.77 E19.44884
G1 X184.324 Y166.056 E19.47905
G1 X185.034 Y166.441 E19.50927
G1 X185.718 Y166.936 E19.54086
G1 X186.142 Y167.33 E19.56252
G1 X186.777 Y168.099 E19.59983
G1 X186.843 Y168.198 E19.60429
G1 X190.194 Y168.226 E19.72968
G1 X190.642 Y168.289 E19.74661
G1 X191.6 Y168.542 E19.78368
G1 X192.245 Y168.801 E19.80969
G1 X192.704 Y169.047 E19.82917
G1 X193.354 Y169.483 E19.85846
G1 X193.91 Y169.954 E19.88573
G1 X196.036 Y172.1 E19.99876
G1 X196.686 Y172.958 E20.03903
G1 X196.852 Y173.231 E20.05099
G1 X197.209 Y173.965 E20.08153
G1 X197.477 Y174.758 E20.11285
G1 X197.549 Y175.089 E20.12553
G1 X197.675 Y176.257 E20.16948
G1 X197.64 Y179.801 E20.3021
G1 X197.577 Y180.249 E20.31903
G1 X197.287 Y181.316 E20.3604
G1 X197.115 Y181.738 E20.37745
G1 X196.68 Y182.527 E20.41116
G1 X196.241 Y183.143 E20.43947
G1 X195.966 Y183.455 E20.45503
G1 X194.713 Y184.619 E20.51902
G1 X194.009 Y185.092 E20.55076
G1 X193.345 Y185.422 E20.5785
G1 X192.841 Y185.605 E20.59856
G1 X191.907 Y185.82 E20.63443
G1 X190.897 Y185.91 E20.67237
G1 X189.066 Y185.849 E20.74092
G1 X188.2 Y185.681 E20.77392
G1 X186.997 Y185.239 E20.82188
G1 X186.493 Y184.964 E20.84336
G1 X185.424 Y184.174 E20.8931
G1 X185.131 Y183.881 E20.9086
G1 X184.734 Y183.401 E20.93191
G1 X182.433 Y183.374 E21.01802
G1 X181.929 Y183.299 E21.03708
G1 X180.957 Y183.033 E21.07479
G1 X180.3 Y182.756 E21.10147
G1 X179.839 Y182.501 E21.12118
G1 X179.674 Y182.391 E21.1286
G1 X176.288 Y182.39 E21.2553
G1 X175.806 Y182.698 E21.2767
G1 X175.24 Y182.958 E21.30001
G1 X174.42 Y183.228 E21.33231
G1 X174.144 Y183.285 E21.34285
G1 X172.991 Y183.41 E21.38625
G1 X171.247 Y183.406 E21.45151
G1 X170.852 Y183.897 E21.47509
G1 X170.368 Y184.352 E21.49994
G1 X169.796 Y184.785 E21.52679
G1 X169.058 Y185.215 E21.55875
G1 X168.188 Y185.564 E21.59382
G1 X167.038 Y185.841 E21.63808
G1 X166.559 Y185.891 E21.6561
G1 X164.945 Y185.907 E21.7165
G1 X164.112 Y185.829 E21.7478
G1 X163.425 Y185.684 E21.77407
G1 X162.918 Y185.521 E21.794
